; HEADER_BLOCK_START
; generated by OrcaSlicer 2.1.1 on 2024-09-29 at 19:49:50
; total layer number: 83
; filament_density: 1.24
; filament_diameter: 1.75
; max_z_height: 16.60
; HEADER_BLOCK_END

; THUMBNAIL_BLOCK_START

;
; THUMBNAIL_BLOCK_END

; THUMBNAIL_BLOCK_START

;
; THUMBNAIL_BLOCK_END

; external perimeters extrusion width = 0.40mm
; perimeters extrusion width = 0.45mm
; infill extrusion width = 0.45mm
; solid infill extrusion width = 0.40mm
; top infill extrusion width = 0.40mm
; support material extrusion width = 0.40mm
; first layer extrusion width = 0.50mm

; EXECUTABLE_BLOCK_START
EXCLUDE_OBJECT_DEFINE NAME=5in1WhistleCanOpener_Heart.stl_id_0_copy_0 CENTER=110,110 POLYGON=[[82.95,99.197],[82.993,98.695],[83.037,98.446],[83.081,98.256],[83.125,98.097],[83.169,97.958],[83.213,97.834],[83.257,97.72],[83.301,97.616],[83.345,97.518],[83.389,97.426],[83.433,97.34],[83.477,97.258],[83.521,97.18],[83.565,97.106],[83.609,97.035],[83.653,96.967],[83.698,96.902],[83.742,96.839],[83.786,96.778],[83.83,96.72],[83.874,96.663],[83.918,96.609],[83.962,96.556],[84.006,96.505],[84.05,96.455],[84.094,96.407],[84.138,96.36],[84.182,96.315],[84.226,96.271],[84.27,96.228],[84.358,96.146],[84.402,96.107],[84.491,96.031],[84.579,95.959],[84.667,95.891],[84.755,95.827],[84.843,95.765],[84.931,95.707],[84.975,95.679],[85.019,95.652],[85.151,95.574],[85.24,95.526],[85.328,95.48],[85.372,95.458],[85.46,95.416],[85.548,95.376],[85.592,95.357],[85.724,95.303],[85.768,95.286],[85.856,95.254],[85.945,95.224],[86.033,95.196],[86.121,95.17],[86.253,95.134],[86.341,95.113],[86.385,95.103],[86.517,95.076],[86.605,95.06],[86.694,95.046],[86.782,95.034],[86.914,95.019],[87.002,95.011],[87.09,95.005],[87.178,95.001],[87.222,95],[101.572,95],[135.179,99.179],[135.186,99.181],[135.213,99.19],[135.267,99.209],[135.321,99.229],[135.402,99.262],[135.457,99.286],[135.484,99.298],[135.565,99.337],[135.619,99.365],[135.7,99.41],[135.727,99.426],[135.781,99.459],[135.808,99.476],[135.889,99.53],[135.943,99.569],[135.97,99.589],[135.998,99.61],[136.052,99.652],[136.106,99.697],[136.16,99.745],[136.214,99.795],[136.241,99.821],[136.268,99.848],[136.322,99.904],[136.376,99.964],[136.403,99.995],[136.405,99.997],[136.43,100.027],[136.457,100.06],[136.511,100.13],[136.539,100.167],[136.566,100.205],[136.593,100.244],[136.62,100.285],[136.647,100.328],[136.674,100.373],[136.701,100.419],[136.728,100.468],[136.755,100.52],[136.782,100.574],[136.809,100.632],[136.836,100.693],[136.863,100.759],[136.89,100.83],[136.897,100.849],[136.917,100.908],[136.944,100.996],[136.971,101.095],[136.998,101.215],[137.025,101.372],[137.05,101.725],[137.05,118.276],[137.025,118.63],[136.998,118.786],[136.971,118.906],[136.944,119.005],[136.917,119.093],[136.897,119.152],[136.89,119.171],[136.863,119.242],[136.836,119.308],[136.809,119.37],[136.782,119.427],[136.755,119.481],[136.728,119.533],[136.701,119.582],[136.674,119.628],[136.647,119.673],[136.62,119.716],[136.593,119.757],[136.566,119.796],[136.539,119.834],[136.511,119.871],[136.457,119.941],[136.43,119.974],[136.403,120.006],[136.376,120.037],[136.322,120.097],[136.268,120.153],[136.241,120.18],[136.214,120.206],[136.16,120.256],[136.106,120.304],[136.052,120.349],[135.998,120.391],[135.97,120.412],[135.916,120.452],[135.889,120.471],[135.808,120.525],[135.754,120.559],[135.7,120.591],[135.619,120.636],[135.565,120.664],[135.484,120.703],[135.457,120.715],[135.402,120.739],[135.321,120.772],[135.24,120.802],[135.186,120.82],[135.179,120.822],[101.572,125],[87.199,125],[87.089,124.995],[87.001,124.989],[86.869,124.977],[86.781,124.966],[86.693,124.954],[86.648,124.947],[86.604,124.94],[86.472,124.916],[86.428,124.907],[86.296,124.877],[86.208,124.855],[86.164,124.843],[86.076,124.818],[85.988,124.791],[85.899,124.762],[85.767,124.714],[85.679,124.68],[85.635,124.662],[85.547,124.624],[85.415,124.564],[85.327,124.52],[85.239,124.474],[85.15,124.426],[85.106,124.401],[85.062,124.375],[84.974,124.321],[84.93,124.293],[84.842,124.235],[84.798,124.205],[84.754,124.174],[84.71,124.142],[84.666,124.109],[84.578,124.041],[84.49,123.969],[84.446,123.932],[84.401,123.893],[84.357,123.854],[84.313,123.814],[84.269,123.772],[84.225,123.729],[84.181,123.685],[84.137,123.64],[84.093,123.593],[84.049,123.545],[84.005,123.495],[83.961,123.444],[83.917,123.392],[83.873,123.337],[83.829,123.281],[83.785,123.222],[83.741,123.162],[83.697,123.099],[83.652,123.034],[83.608,122.966],[83.564,122.895],[83.52,122.82],[83.476,122.742],[83.432,122.661],[83.388,122.574],[83.344,122.483],[83.3,122.385],[83.256,122.28],[83.212,122.166],[83.168,122.042],[83.124,121.903],[83.08,121.744],[83.036,121.554],[82.992,121.305],[82.95,120.804],[82.95,99.197]]
M73 P0 R67
;TYPE:Custom
M117 ; clear display for KAMP meshing
START_PRINT BED_TEMP=60 EXTRUDER_TEMP=220
G90
G21
M83 ; use relative distances for extrusion
; filament start gcode
M106 S0
;LAYER_CHANGE
;Z:0.2
;HEIGHT:0.2
;BEFORE_LAYER_CHANGE
;0.2
G92 E0

G1 E-5 F3600
;_SET_FAN_SPEED_CHANGING_LAYER
SET_VELOCITY_LIMIT ACCEL=500 ACCEL_TO_DECEL=250
; printing object 5in1WhistleCanOpener_Heart.stl id:0 copy 0
EXCLUDE_OBJECT_START NAME=5in1WhistleCanOpener_Heart.stl_id_0_copy_0
G1 Z.4 F9000
G1 X82.35 Y107.355
G1 Z.4
G1 Z.2
G1 E5 F2400
;TYPE:Support
;WIDTH:0.5
G1 F900
G1 X82.605 Y107.681 E.01542
G1 X82.889 Y107.751 E.01089
G1 X83.329 Y107.928 E.01765
G1 X83.723 Y108.187 E.01757
G1 X84.058 Y108.513 E.01741
G1 X84.199 Y108.699 E.0087
G1 X84.421 Y109.105 E.01722
G1 X84.557 Y109.544 E.01714
G1 X84.603 Y110 E.01706
G1 X84.557 Y110.456 E.01705
G1 X84.421 Y110.895 E.01715
G1 X84.199 Y111.301 E.01722
G1 X84.058 Y111.487 E.0087
G1 X83.723 Y111.813 E.01741
G1 X83.329 Y112.072 E.01757
G1 X82.889 Y112.25 E.01766
G1 X82.607 Y112.319 E.01084
G1 X82.35 Y112.645 E.01546
G1 X82.35 Y112.862 E.00808
G1 X82.078 Y112.755 E.01088
G1 X81.362 Y112.181 E.03419
G1 X80.845 Y111.421 E.03423
G1 X80.576 Y110.545 E.03416
G1 X80.577 Y109.627 E.03417
G1 X80.848 Y108.751 E.03416
G1 X81.365 Y107.993 E.03416
G1 X82.081 Y107.421 E.03416
G1 X82.323 Y107.326 E.00966
G1 X84.099 Y111.071 F9000
G1 F900
G1 X84.099 Y109.421 E.06144
G1 X83.959 Y109.094 E.01326
G1 X83.859 Y108.932 E.0071
G1 X83.591 Y108.618 E.01535
G1 X83.591 Y111.382 E.10292
G1 X83.306 Y111.608 E.01354
G1 X83.083 Y111.732 E.00952
G1 X83.083 Y108.268 E.12902
G1 X82.772 Y108.146 E.01244
G1 X82.575 Y108.097 E.00756
G1 X82.575 Y111.903 E.14175
G1 X82.371 Y111.953 E.00782
G1 X82.125 Y112.266 E.01482
G1 X82.067 Y112.219 E.00276
G1 X82.067 Y107.959 E.15869
G1 X81.67 Y108.276 E.01896
G1 X81.56 Y108.438 E.00728
G1 X81.56 Y111.741 E.12303
G1 X81.22 Y111.242 E.02248
G1 X81.052 Y110.692 E.02142
G1 X81.052 Y108.817 E.06982
G1 E-3.5 F3600
;WIPE_START
G1 F900
G1 X81.052 Y109.817 E-1.5
;WIPE_END
G1 Z.6 F9000
G1 X108.328 Y113.189 Z.6
G1 Z.2
G1 E5 F2400
G1 F900
G1 X108.787 Y113.227 E.01717
G1 X109.388 Y113.464 E.02403
G1 X109.266 Y114.704 E.04644
G1 X108.08 Y118.612 E.1521
G1 X107.819 Y118.621 E.00974
G1 X106.929 Y118.34 E.03474
G1 X106.698 Y118.164 E.01083
G1 X107.747 Y114.641 E.13693
G1 X107.8 Y114.379 E.00997
G1 X107.945 Y113.189 E.04463
G1 X108.259 Y113.189 E.01172
G1 X108.476 Y116.597 F9000
G1 F900
G1 X108.476 Y113.614 E.1111
G1 X108.309 Y113.601 E.00625
G1 X108.201 Y114.475 E.03281
G1 X108.144 Y114.749 E.01042
G1 X107.969 Y115.344 E.0231
G1 X107.969 Y117.563 E.08265
G1 X107.782 Y118.178 E.02395
G1 X107.461 Y118.076 E.01254
G1 X107.461 Y116.336 E.06481
G1 E-3.5 F3600
;WIPE_START
G1 F900
G1 X107.461 Y117.336 E-1.5
;WIPE_END
G1 Z.6 F9000
G1 X107.291 Y119.422 Z.6
G1 Z.2
G1 E5 F2400
G1 F900
G1 X107.735 Y119.524 E.01695
G1 X107.04 Y120.821 E.05478
G1 X107.39 Y121.404 E.02534
G1 X109.529 Y121.403 E.07968
G1 X109.573 Y121.495 E.0038
G1 X109.708 Y122.406 E.03428
G1 X109.568 Y123.312 E.03416
G1 X109.169 Y124.138 E.03417
G1 X108.544 Y124.809 E.03414
G1 X108.11 Y125.058 E.01864
G1 X107.749 Y125.266 E.01552
G1 X106.856 Y125.47 E.03411
G1 X105.942 Y125.401 E.03413
G1 X105.089 Y125.067 E.03413
G1 X104.372 Y124.497 E.03412
G1 X103.853 Y123.74 E.03421
G1 X103.744 Y123.39 E.01363
G1 X104.463 Y122.44 E.04436
G1 X105.303 Y121.071 E.05983
G1 X106.146 Y119.376 E.07051
G1 X106.857 Y119.323 E.02657
G1 X107.224 Y119.407 E.01401
G1 E-3.5 F3600
;WIPE_START
G1 F900
G1 X106.857 Y119.323 E-.56417
G1 X106.235 Y119.37 E-.93583
;WIPE_END
G1 Z.6 F9000
G1 X108.984 Y124.034 Z.6
G1 Z.2
G1 E5 F2400
G1 F900
G1 X108.984 Y121.815 E.08265
G1 X108.476 Y121.815 E.01892
G1 X108.476 Y124.277 E.09172
G1 X108.285 Y124.483 E.01046
G1 X107.969 Y124.665 E.01361
G1 X107.969 Y121.815 E.10616
G1 X107.461 Y121.815 E.01892
G1 X107.461 Y124.91 E.11526
G1 X106.953 Y125.026 E.0194
G1 X106.953 Y121.475 E.13224
G1 X106.567 Y120.832 E.02794
G1 X106.953 Y120.112 E.03041
G1 X106.953 Y119.767 E.01286
G1 X106.826 Y119.738 E.00484
G1 X106.445 Y119.767 E.01424
G1 X106.445 Y125.026 E.19591
G1 X106.035 Y124.996 E.01532
G1 X105.937 Y124.958 E.0039
G1 X105.937 Y120.708 E.15829
G1 X105.683 Y121.238 E.02189
G1 X105.429 Y121.652 E.01809
G1 X105.429 Y124.759 E.11572
G1 X105.296 Y124.707 E.00531
G1 X104.921 Y124.409 E.01785
G1 X104.921 Y122.479 E.07185
G1 X104.78 Y122.705 E.00993
G1 X104.413 Y123.188 E.02258
G1 X104.413 Y124.194 E.03747
G1 E-3.5 F3600
;WIPE_START
G1 F900
G1 X104.413 Y123.194 E-1.5
;WIPE_END
G1 Z.6 F9000
G1 X109.361 Y106.261 Z.6
G1 Z.2
G1 E5 F2400
G1 F900
G1 X109.729 Y110 E.13992
G1 X109.567 Y111.647 E.06162
G1 X108.651 Y111.679 E.03415
G1 X108.148 Y111.52 E.01965
G1 X108.209 Y111.005 E.0193
G1 X108.228 Y109.959 E.03899
G1 X108.147 Y109.139 E.03069
G1 X108.084 Y107.355 E.0665
G1 X107.911 Y106.472 E.0335
G1 X108.642 Y106.238 E.02857
G1 X109.292 Y106.259 E.02423
G1 X108.984 Y111.461 F9000
G1 F900
G1 X108.984 Y106.661 E.1788
G1 X108.7 Y106.652 E.0106
G1 X108.476 Y106.723 E.00873
G1 X108.476 Y111.408 E.1745
G1 E-3.5 F3600
;WIPE_START
G1 F900
G1 X108.476 Y110.408 E-1.5
;WIPE_END
G1 Z.6 F9000
G1 X106.539 Y94.622 Z.6
G1 Z.2
G1 E5 F2400
G1 F900
G1 X107.029 Y94.734 E.01875
G1 X107.824 Y95.191 E.03413
G1 X108.448 Y95.862 E.03415
G1 X108.848 Y96.687 E.03414
G1 X108.988 Y97.596 E.03425
G1 X108.853 Y98.504 E.03419
G1 X108.809 Y98.597 E.00384
G1 X107.389 Y98.597 E.05287
G1 X107.04 Y99.181 E.02533
G1 X107.893 Y100.773 E.06729
G1 X109.266 Y105.297 E.17607
G1 X109.271 Y105.349 E.00198
G1 X109.225 Y105.39 E.00229
G1 X108.356 Y105.733 E.03477
G1 X107.813 Y105.751 E.02024
G1 X107.789 Y105.56 E.00718
G1 X107.612 Y104.976 E.02274
G1 X107.359 Y103.731 E.04731
G1 X106.641 Y101.776 E.07757
G1 X106.519 Y101.372 E.01571
G1 X106.416 Y101.169 E.00847
G1 X106.092 Y100.362 E.03243
G1 X105.337 Y99.05 E.05638
G1 X105.303 Y98.93 E.00464
G1 X104.463 Y97.56 E.05986
G1 X103.295 Y96.023 E.07188
G1 X103.652 Y95.503 E.02348
G1 X104.369 Y94.933 E.03411
G1 X105.222 Y94.599 E.03413
G1 X106.135 Y94.53 E.03412
G1 X106.472 Y94.607 E.01285
G1 X108.476 Y105.464 F9000
G1 F900
G1 X108.476 Y104.112 E.05035
G1 X107.969 Y102.438 E.06515
G1 X107.969 Y104.662 E.08284
G1 X107.772 Y103.679 E.03734
G1 X107.461 Y102.814 E.03424
G1 X107.461 Y100.837 E.07365
G1 X106.953 Y99.889 E.04006
G1 X106.953 Y101.387 E.0558
G1 X106.906 Y101.234 E.00597
G1 X106.79 Y100.995 E.0099
G1 X106.445 Y100.147 E.03409
G1 X106.445 Y95.023 E.19087
G1 X106.105 Y94.945 E.013
G1 X105.937 Y94.958 E.00625
G1 X105.937 Y99.266 E.16047
G1 X105.719 Y98.888 E.01625
G1 X105.683 Y98.763 E.00484
G1 X105.429 Y98.349 E.0181
G1 X105.429 Y94.996 E.12489
G1 X105.314 Y95.004 E.00429
G1 X104.921 Y95.158 E.01572
G1 X104.921 Y97.521 E.08799
G1 X104.779 Y97.294 E.00997
G1 X104.413 Y96.813 E.0225
G1 X104.413 Y95.423 E.05178
G1 X103.956 Y95.786 E.02176
G1 X103.906 Y95.86 E.00333
G1 X103.906 Y96.485 E.02329
G1 X108.476 Y98.391 F9000
G1 F900
G1 X108.476 Y96.976 E.05272
G1 X108.451 Y96.811 E.00622
G1 X108.105 Y96.097 E.02953
G1 X107.969 Y95.95 E.00747
G1 X107.969 Y98.186 E.08325
G1 X107.461 Y98.186 E.01892
G1 X107.461 Y95.457 E.10164
G1 X106.953 Y95.164 E.02183
G1 X106.953 Y98.926 E.1401
G1 E-3.5 F3600
;WIPE_START
G1 F900
G1 X106.953 Y97.926 E-1.5
;WIPE_END
G1 Z.6 F9000
G1 X130.884 Y96.048 Z.6
G1 Z.2
G1 E5 F2400
G1 F900
G1 X131.273 Y96.136 E.01483
G1 X132.068 Y96.591 E.03413
G1 X132.695 Y97.261 E.03418
G1 X133.099 Y98.087 E.03425
G1 X133.176 Y98.579 E.01857
G1 X132.469 Y98.579 E.02632
G1 X132.17 Y98.667 E.01162
G1 X131.694 Y98.894 E.01963
G1 X131.379 Y99.101 E.01403
G1 X131.131 Y99.305 E.01195
G1 X130.866 Y99.574 E.01408
G1 X130.582 Y99.948 E.0175
G1 X130.383 Y100.299 E.01505
G1 X130.249 Y100.615 E.01278
G1 X130.176 Y100.838 E.00871
G1 X130.081 Y101.281 E.01688
G1 X130.051 Y101.675 E.01474
G1 X130.05 Y102.06 E.01433
G1 X129.451 Y102.01 E.02238
G1 X128.596 Y101.666 E.03433
G1 X127.882 Y101.087 E.03425
G1 X127.371 Y100.325 E.03418
G1 X127.107 Y99.447 E.03413
G1 X127.111 Y98.532 E.03409
G1 X127.384 Y97.659 E.03406
G1 X127.901 Y96.905 E.03405
G1 X128.617 Y96.336 E.03405
G1 X129.468 Y96.003 E.03405
G1 X130.38 Y95.934 E.03406
G1 X130.817 Y96.033 E.0167
G1 X132.346 Y98.391 F9000
G1 F900
G1 X132.346 Y97.49 E.03358
G1 X131.838 Y96.948 E.02767
G1 X131.838 Y98.36 E.05261
G1 X131.33 Y98.634 E.0215
G1 X131.33 Y96.643 E.07419
G1 X131.122 Y96.523 E.00896
G1 X130.823 Y96.455 E.01143
G1 X130.823 Y99.031 E.09592
G1 X130.553 Y99.308 E.01441
G1 X130.315 Y99.612 E.01439
G1 X130.315 Y96.351 E.12147
G1 X129.807 Y96.39 E.01897
G1 X129.807 Y100.641 E.15834
G1 X129.674 Y101.221 E.02216
G1 X129.643 Y101.613 E.01467
G1 X129.547 Y101.606 E.00358
G1 X129.299 Y101.506 E.00996
G1 X129.299 Y96.511 E.18604
G1 X128.824 Y96.697 E.01898
G1 X128.791 Y96.723 E.00159
G1 X128.791 Y101.295 E.17027
M73 P0 R66
G1 X128.283 Y100.883 E.02436
G1 X128.283 Y97.127 E.13988
G1 X128.206 Y97.189 E.0037
G1 X127.775 Y97.816 E.02834
G1 X127.775 Y100.558 E.10213
G1 E-3.5 F3600
;WIPE_START
G1 F900
G1 X127.775 Y99.558 E-1.5
;WIPE_END
G1 Z.6 F9000
G1 X141.277 Y105.619 Z.6
G1 Z.2
G1 E5 F2400
G1 F900
G1 X141.689 Y105.659 E.01539
G1 X142.578 Y105.9 E.0343
G1 X143.425 Y106.326 E.03533
G1 X144.169 Y106.912 E.03529
G1 X144.781 Y107.635 E.03526
G1 X145.236 Y108.464 E.03523
G1 X145.516 Y109.367 E.03521
G1 X145.611 Y110.307 E.03519
G1 X145.517 Y111.247 E.03519
G1 X145.238 Y112.149 E.03519
G1 X144.784 Y112.979 E.03521
G1 X144.174 Y113.702 E.03524
G1 X143.431 Y114.289 E.03527
G1 X142.585 Y114.716 E.03531
G1 X141.67 Y114.966 E.03534
G1 X140.722 Y115.028 E.03539
G1 X139.78 Y114.899 E.03542
G1 X138.882 Y114.583 E.03545
G1 X138.066 Y114.093 E.03546
G1 X137.65 Y113.711 E.02102
G1 X137.65 Y106.901 E.25364
G1 X138.088 Y106.517 E.02171
G1 X138.59 Y106.2 E.0221
G1 X138.9 Y106.034 E.01311
G1 X139.442 Y105.829 E.02158
G1 X139.793 Y105.722 E.01365
G1 X140.35 Y105.633 E.02101
G1 X140.73 Y105.595 E.01423
G1 X141.209 Y105.616 E.01787
G1 X145.043 Y112.078 F9000
G1 F900
G1 X145.043 Y109.229 E.1061
G1 X144.855 Y108.625 E.02355
G1 X144.535 Y108.042 E.0248
G1 X144.535 Y112.578 E.16894
G1 X144.443 Y112.745 E.00711
G1 X144.027 Y113.238 E.02403
G1 X144.027 Y107.381 E.21815
G1 X143.882 Y107.21 E.00836
G1 X143.519 Y106.924 E.0172
G1 X143.519 Y113.695 E.2522
G1 X143.209 Y113.94 E.01474
G1 X143.011 Y114.04 E.00824
G1 X143.011 Y106.578 E.27792
G1 X142.503 Y106.323 E.02118
G1 X142.503 Y114.297 E.297
G1 X142.437 Y114.33 E.00278
G1 X141.996 Y114.451 E.01703
G1 X141.996 Y106.168 E.30851
G1 X141.615 Y106.065 E.01469
G1 X141.488 Y106.053 E.00476
G1 X141.488 Y114.566 E.31709
G1 X140.98 Y114.599 E.01896
G1 X140.98 Y106.018 E.31962
G1 X140.741 Y106.007 E.00889
G1 X140.472 Y106.034 E.01008
G1 X140.472 Y114.579 E.31824
G1 X139.964 Y114.509 E.01909
G1 X139.964 Y106.111 E.31277
G1 X139.886 Y106.124 E.00296
G1 X139.456 Y106.264 E.01682
G1 X139.456 Y114.349 E.30113
G1 X139.058 Y114.208 E.01573
G1 X138.948 Y114.143 E.00476
G1 X138.948 Y106.475 E.2856
G1 X138.44 Y106.781 E.02209
G1 X138.44 Y114.078 E.27178
G1 E-3.5 F3600
;WIPE_START
G1 F900
G1 X138.44 Y113.078 E-1.5
;WIPE_END
G1 Z.6 F9000
G1 X130.05 Y117.193 Z.6
G1 Z.2
G1 E5 F2400
G1 F900
G1 X130.051 Y118.326 E.04218
G1 X130.078 Y118.691 E.01366
G1 X130.117 Y118.923 E.00875
G1 X130.243 Y119.371 E.01733
G1 X130.349 Y119.629 E.0104
G1 X130.549 Y120.001 E.01573
G1 X130.816 Y120.368 E.01691
