; HEADER_BLOCK_START
; generated by OrcaSlicer 2.1.1 on 2024-09-29 at 14:08:19
; total layer number: 45
; filament_density: 1.24
; filament_diameter: 1.75
; max_z_height: 9.00
; HEADER_BLOCK_END

; THUMBNAIL_BLOCK_START

;
; THUMBNAIL_BLOCK_END

; THUMBNAIL_BLOCK_START

;
; THUMBNAIL_BLOCK_END

; external perimeters extrusion width = 0.40mm
; perimeters extrusion width = 0.45mm
; infill extrusion width = 0.45mm
; solid infill extrusion width = 0.40mm
; top infill extrusion width = 0.40mm
; support material extrusion width = 0.40mm
; first layer extrusion width = 0.50mm

; EXECUTABLE_BLOCK_START
EXCLUDE_OBJECT_DEFINE NAME=Crest.stl_id_0_copy_0 CENTER=110,110 POLYGON=[[6.7817,154.334],[55.9966,88.5943],[56.007,88.5807],[56.6932,87.7196],[56.6951,87.7173],[57.415,86.8703],[57.4226,86.8616],[58.1672,86.0391],[58.1851,86.0199],[58.9518,85.2233],[58.9809,85.194],[59.7689,84.4223],[59.8099,84.3833],[60.6184,83.6356],[60.6722,83.5871],[61.4999,82.8624],[61.5674,82.8049],[62.413,82.1023],[62.4949,82.036],[63.3572,81.3546],[63.4542,81.2798],[64.3315,80.6187],[64.4444,80.5356],[65.3351,79.8941],[65.4644,79.803],[66.3667,79.1802],[66.5132,79.0812],[67.4251,78.4766],[67.5891,78.37],[68.5089,77.7828],[68.6908,77.6687],[69.6162,77.0985],[69.8164,76.9772],[70.9639,76.2952],[71.8938,75.7576],[73.3157,74.9589],[74.241,74.4527],[75.7268,73.6597],[76.638,73.1843],[78.1754,72.3988],[79.0631,71.9539],[80.6378,71.1786],[81.4931,70.7642],[83.0892,70.0022],[83.9037,69.6185],[85.5042,68.8736],[86.2705,68.5208],[86.6901,68.3286],[87.4298,67.9913],[87.8573,67.7973],[88.569,67.4755],[89.0027,67.2802],[89.6852,66.9739],[103.954,60.5839],[116.046,60.5839],[130.315,66.9739],[130.997,67.2802],[131.431,67.4755],[132.143,67.7973],[132.57,67.9913],[133.31,68.3286],[133.729,68.5208],[134.496,68.8736],[136.096,69.6185],[136.911,70.0022],[138.507,70.7642],[139.362,71.1786],[140.937,71.9539],[141.825,72.3988],[143.362,73.1843],[144.273,73.6597],[145.759,74.4527],[146.684,74.9589],[148.106,75.7576],[149.036,76.2952],[150.184,76.9772],[150.384,77.0985],[151.309,77.6687],[151.491,77.7828],[152.411,78.37],[152.575,78.4766],[153.487,79.0812],[153.633,79.1802],[154.536,79.803],[154.665,79.8941],[155.556,80.5356],[155.668,80.6187],[156.546,81.2798],[156.643,81.3546],[157.505,82.036],[157.587,82.1023],[158.433,82.8049],[158.5,82.8624],[159.328,83.5871],[159.382,83.6356],[160.19,84.3833],[160.231,84.4223],[161.019,85.194],[161.048,85.2233],[161.815,86.0199],[161.833,86.0391],[162.577,86.8616],[162.585,86.8703],[163.305,87.7173],[163.307,87.7196],[163.993,88.5807],[164.003,88.5943],[213.218,154.334],[184.548,159.044],[183.296,159.23],[182.062,159.356],[180.854,159.416],[39.1457,159.416],[37.9378,159.356],[36.7037,159.23],[35.4516,159.044],[6.7817,154.334]]
M73 P0 R89
;TYPE:Custom
M117 ; clear display for KAMP meshing
START_PRINT BED_TEMP=60 EXTRUDER_TEMP=220
G90
G21
M83 ; use relative distances for extrusion
; filament start gcode
M106 S0
;LAYER_CHANGE
;Z:0.2
;HEIGHT:0.2
;BEFORE_LAYER_CHANGE
;0.2
G92 E0

G1 E-5 F3600
;_SET_FAN_SPEED_CHANGING_LAYER
SET_VELOCITY_LIMIT ACCEL=500 ACCEL_TO_DECEL=250
; printing object Crest.stl id:0 copy 0
EXCLUDE_OBJECT_START NAME=Crest.stl_id_0_copy_0
G1 Z.4 F9000
G1 X70.119 Y150.329
G1 Z.4
G1 Z.2
G1 E5 F2400
;TYPE:Inner wall
;WIDTH:0.499999
G1 F900
G1 X68.024 Y149.71 E.08138
G1 X66.433 Y149.318 E.06101
G1 X65.645 Y149.151 E.03001
G1 X64.177 Y148.892 E.05553
G1 X62.754 Y148.718 E.05338
G1 X61.826 Y148.656 E.03463
G1 X60.72 Y148.623 E.04121
G1 X59.931 Y148.648 E.0294
G1 X58.854 Y148.732 E.04025
G1 X57.92 Y148.881 E.03521
G1 X56.97 Y149.087 E.03624
G1 X56.024 Y149.369 E.03676
G1 X54.517 Y150.007 E.06093
G1 X53.584 Y150.529 E.03984
G1 X52.805 Y151.041 E.03472
G1 X52.053 Y151.606 E.03505
G1 X50.994 Y152.513 E.05192
G1 X48.599 Y154.741 E.12185
G1 X47.93 Y155.322 E.03299
G1 X47.243 Y155.867 E.03269
G1 X46.531 Y156.366 E.03239
G1 X45.785 Y156.815 E.03239
G1 X44.999 Y157.208 E.03274
G1 X44.164 Y157.542 E.0335
G1 X43.275 Y157.815 E.03463
G1 X42.33 Y158.024 E.03606
G1 X41.328 Y158.167 E.03769
G1 X40.273 Y158.243 E.0394
G1 X39.17 Y158.252 E.04109
G1 X38.026 Y158.195 E.04267
G1 X36.849 Y158.075 E.04408
G1 X35.647 Y157.896 E.04524
G1 X34.431 Y157.662 E.04614
G1 X33.208 Y157.38 E.04673
G1 X31.988 Y157.056 E.04702
G1 X30.778 Y156.695 E.04702
G1 X29.585 Y156.306 E.04673
G1 X28.419 Y155.896 E.04604
G1 X26.086 Y155.003 E.09306
G1 X21.008 Y152.948 E.20402
G1 X20.039 Y152.588 E.0385
G1 X19.073 Y152.257 E.03804
G1 X18.131 Y151.969 E.03669
G1 X17.14 Y151.713 E.03814
G1 X16.266 Y151.529 E.03325
G1 X15.338 Y151.387 E.03496
G1 X14.412 Y151.302 E.03464
G1 X13.445 Y151.278 E.03602
G1 X12.351 Y151.336 E.04082
G1 X13.22 Y150.654 E.04115
G1 X16.383 Y148.265 E.14765
G1 X25.06 Y141.876 E.40132
G1 X26.876 Y140.496 E.08495
G1 X28.693 Y139.069 E.08606
G1 X30.497 Y137.588 E.08695
G1 X32.274 Y136.047 E.08761
G1 X33.988 Y134.458 E.08704
G1 X35.675 Y132.767 E.08895
M73 P0 R88
G1 X36.803 Y131.545 E.06194
G1 X38.05 Y130.103 E.071
G1 X38.817 Y129.15 E.04559
G1 X39.562 Y128.175 E.04571
G1 X40.287 Y127.162 E.04638
G1 X40.895 Y126.271 E.04018
G1 X41.559 Y125.237 E.04578
G1 X42.185 Y124.199 E.04515
G1 X42.767 Y123.175 E.04388
G1 X43.337 Y122.106 E.04509
G1 X43.877 Y121.03 E.04483
G1 X44.391 Y119.94 E.0449
G1 X44.877 Y118.846 E.04458
G1 X45.348 Y117.722 E.04538
G1 X45.807 Y116.56 E.04654
G1 X46.611 Y114.369 E.08695
G1 X47.381 Y112.079 E.08998
G1 X48.106 Y109.781 E.08976
G1 X49.509 Y105.187 E.17891
G1 X50.191 Y103.031 E.08424
G1 X50.944 Y100.806 E.08747
G1 X51.708 Y98.755 E.08153
G1 X52.133 Y97.705 E.04218
G1 X52.568 Y96.698 E.04086
G1 X53.011 Y95.736 E.03943
G1 X53.501 Y94.738 E.04141
G1 X54.002 Y93.787 E.04004
G1 X54.53 Y92.855 E.0399
G1 X55.084 Y91.941 E.03981
G1 X55.65 Y91.069 E.0387
G1 X56.278 Y90.166 E.04098
G1 X56.919 Y89.305 E.04
G1 X57.592 Y88.46 E.04023
G1 X58.318 Y87.607 E.0417
G1 X59.035 Y86.815 E.03981
G1 X59.806 Y86.015 E.04137
G1 X60.634 Y85.207 E.04309
G1 X61.449 Y84.455 E.04132
G1 X62.32 Y83.693 E.04309
G1 X63.25 Y82.923 E.04499
G1 X64.162 Y82.204 E.04323
G1 X65.13 Y81.476 E.04514
G1 X66.154 Y80.742 E.04693
G1 X68.223 Y79.347 E.09292
G1 X69.33 Y78.643 E.04887
G1 X71.578 Y77.285 E.09782
G1 X73.905 Y75.964 E.09966
G1 X76.294 Y74.677 E.1011
G1 X78.725 Y73.426 E.1018
G1 X81.171 Y72.214 E.10171
G1 X83.61 Y71.044 E.10072
G1 X86.012 Y69.922 E.09875
G1 X91.679 Y67.359 E.23166
G1 X101.855 Y62.868 E.41429
G1 X103.62 Y62.053 E.07241
G1 X104.229 Y61.748 E.02538
G1 X115.776 Y61.751 E.43007
G1 X116.396 Y62.061 E.02583
G1 X118.225 Y62.905 E.075
G1 X129.414 Y67.846 E.45559
G1 X132.836 Y69.392 E.13988
G1 X136.391 Y71.044 E.14601
G1 X138.829 Y72.214 E.10068
G1 X141.275 Y73.426 E.10171
G1 X143.706 Y74.677 E.1018
G1 X146.095 Y75.964 E.1011
G1 X148.422 Y77.285 E.09966
G1 X150.666 Y78.64 E.09763
G1 X152.815 Y80.033 E.09539
G1 X153.87 Y80.758 E.04766
G1 X154.869 Y81.476 E.04584
G1 X155.812 Y82.184 E.04392
G1 X156.776 Y82.943 E.04569
G1 X157.68 Y83.693 E.04375
G1 X158.527 Y84.434 E.04192
G1 X159.389 Y85.229 E.04368
G1 X160.194 Y86.015 E.04189
G1 X160.943 Y86.793 E.04025
G1 X161.702 Y87.63 E.04208
G1 X162.426 Y88.483 E.04166
G1 X163.081 Y89.305 E.03913
G1 X163.722 Y90.166 E.04
G1 X164.35 Y91.069 E.04098
G1 X164.916 Y91.941 E.0387
G1 X165.47 Y92.854 E.0398
G1 X166.011 Y93.813 E.04101
G1 X166.499 Y94.738 E.03895
G1 X166.977 Y95.709 E.04028
G1 X167.432 Y96.698 E.04054
G1 X167.878 Y97.733 E.042
G1 X168.292 Y98.755 E.04105
G1 X169.076 Y100.865 E.08385
G1 X169.809 Y103.03 E.08516
G1 X170.491 Y105.187 E.08424
G1 X171.897 Y109.791 E.17931
G1 X172.619 Y112.079 E.08936
G1 X173.389 Y114.369 E.08997
G1 X174.204 Y116.587 E.08803
G1 X174.673 Y117.774 E.04753
G1 X175.129 Y118.86 E.04386
G1 X175.618 Y119.96 E.04484
G1 X176.135 Y121.055 E.04513
G1 X176.676 Y122.133 E.0449
G1 X177.259 Y123.221 E.04599
G1 X177.831 Y124.228 E.04315
G1 X178.816 Y125.822 E.06979
G1 X179.778 Y127.259 E.06439
G1 X180.528 Y128.293 E.04759
G1 X181.212 Y129.187 E.04192
G1 X182.072 Y130.247 E.05086
G1 X182.74 Y131.032 E.03837
G1 X183.531 Y131.919 E.04427
G1 X184.357 Y132.801 E.04501
G1 X185.149 Y133.611 E.04217
G1 X186.284 Y134.71 E.05886
G1 X187.74 Y136.059 E.07393
G1 X189.526 Y137.608 E.08807
G1 X191.326 Y139.084 E.0867
G1 X193.131 Y140.502 E.08548
G1 X194.947 Y141.881 E.08494
G1 X203.617 Y148.265 E.401
G1 X206.78 Y150.654 E.14765
G1 X207.649 Y151.336 E.04115
G1 X207.358 Y151.308 E.01088
G1 X206.436 Y151.277 E.03436
G1 X205.515 Y151.307 E.03434
G1 X204.594 Y151.396 E.03447
G1 X203.673 Y151.541 E.03473
G1 X202.75 Y151.737 E.03513
G1 X201.824 Y151.982 E.03568
G1 X200.891 Y152.268 E.03636
G1 X199.947 Y152.593 E.03718
G1 X198.992 Y152.948 E.03795
G1 X193.846 Y155.031 E.20676
G1 X191.581 Y155.896 E.09033
G1 X190.415 Y156.306 E.04603
G1 X189.222 Y156.695 E.04673
G1 X188.012 Y157.056 E.04702
G1 X186.792 Y157.38 E.04702
G1 X185.569 Y157.662 E.04673
G1 X184.353 Y157.896 E.04614
G1 X183.151 Y158.075 E.04524
G1 X181.974 Y158.195 E.04408
G1 X180.83 Y158.252 E.04267
G1 X179.727 Y158.243 E.04109
G1 X178.672 Y158.167 E.0394
G1 X177.67 Y158.024 E.03769
G1 X176.725 Y157.815 E.03606
G1 X175.836 Y157.542 E.03463
G1 X175.001 Y157.208 E.0335
G1 X174.215 Y156.815 E.03274
G1 X173.469 Y156.366 E.03239
G1 X172.757 Y155.867 E.03239
G1 X172.07 Y155.322 E.03269
G1 X171.401 Y154.741 E.03299
G1 X169.374 Y152.844 E.10341
G1 X168.653 Y152.196 E.03612
G1 X167.643 Y151.376 E.04844
G1 X167.101 Y150.973 E.02516
G1 X166.22 Y150.408 E.03899
G1 X165.212 Y149.877 E.04241
G1 X164.391 Y149.519 E.03337
G1 X163.858 Y149.327 E.0211
G1 X162.794 Y149.023 E.04123
G1 X161.69 Y148.805 E.04192
G1 X160.976 Y148.717 E.02679
G1 X159.877 Y148.636 E.04103
G1 X159.072 Y148.628 E.02997
G1 X157.918 Y148.665 E.04302
G1 X157.215 Y148.722 E.02625
G1 X155.823 Y148.892 E.05224
G1 X154.335 Y149.154 E.0563
G1 X153.531 Y149.326 E.03062
G1 X151.933 Y149.721 E.06129
G1 X149.884 Y150.325 E.07958
G1 X150.226 Y149.87 E.0212
G1 X150.588 Y149.477 E.0199
G1 X151.01 Y149.08 E.02156
G1 X151.491 Y148.681 E.02331
G1 X152.024 Y148.282 E.02479
G1 X153.27 Y147.444 E.05592
G1 X156.143 Y145.615 E.12685
G1 X156.926 Y145.074 E.03544
G1 X157.823 Y144.395 E.04192
G1 X158.435 Y143.894 E.02944
G1 X159.223 Y143.167 E.03992
G1 X159.85 Y142.518 E.03363
G1 X160.496 Y141.746 E.0375
G1 X161.251 Y140.646 E.04969
G1 X161.68 Y139.903 E.03195
G1 X162.092 Y139.049 E.03531
G1 X162.465 Y138.078 E.03874
G1 X162.771 Y137.025 E.04086
G1 X162.981 Y136.012 E.03854
G1 X163.054 Y135.466 E.0205
G1 X163.138 Y134.775 E.02591
G1 X163.197 Y133.626 E.04289
G1 X163.172 Y132.359 E.04719
G1 X163.015 Y130.76 E.05983
G1 X162.874 Y129.8 E.03615
G1 X162.611 Y128.504 E.04924
G1 X162.252 Y127.125 E.05307
G1 X161.743 Y125.533 E.06225
G1 X161.326 Y124.386 E.04547
G1 X160.734 Y122.958 E.05757
G1 X160.078 Y121.542 E.05813
G1 X159.359 Y120.137 E.05877
G1 X158.56 Y118.708 E.061
G1 X157.691 Y117.278 E.06234
G1 X156.743 Y115.833 E.06434
G1 X155.751 Y114.424 E.06419
G1 X154.683 Y113.006 E.06613
G1 X153.552 Y111.596 E.06732
G1 X152.359 Y110.197 E.06849
G1 X151.105 Y108.81 E.06964
G1 X149.78 Y107.427 E.07135
G1 X148.408 Y106.07 E.07186
G1 X146.979 Y104.73 E.07296
G1 X145.495 Y103.408 E.07405
G1 X143.955 Y102.104 E.07514
G1 X142.362 Y100.82 E.07622
G1 X140.715 Y99.556 E.07731
G1 X139.017 Y98.313 E.07839
G1 X137.267 Y97.091 E.07949
G1 X135.477 Y95.898 E.08014
G1 X133.627 Y94.719 E.0817
G1 X131.728 Y93.563 E.08282
G1 X129.78 Y92.429 E.08393
G1 X127.775 Y91.313 E.08548
G1 X125.732 Y90.224 E.08622
G1 X123.646 Y89.16 E.08723
G1 X122.838 Y88.772 E.0334
G1 X122.03 Y88.412 E.03295
G1 X121.096 Y88.032 E.03753
G1 X119.552 Y87.476 E.06115
G1 X118.709 Y87.212 E.03287
G1 X117.86 Y86.973 E.03286
G1 X117.004 Y86.758 E.03286
G1 X116.142 Y86.569 E.03287
G1 X115.299 Y86.408 E.03199
G1 X114.403 Y86.264 E.03381
G1 X113.526 Y86.149 E.03294
G1 X112.466 Y86.047 E.03965
G1 X110.901 Y85.959 E.05839
G1 X109.992 Y85.945 E.03386
G1 X109.107 Y85.958 E.03295
G1 X108.248 Y85.996 E.03204
G1 X107.342 Y86.061 E.03384
G1 X106.461 Y86.151 E.03295
G1 X105.584 Y86.266 E.03296
G1 X104.71 Y86.406 E.03298
G1 X103.863 Y86.568 E.0321
G1 X102.975 Y86.763 E.03389
G1 X102.117 Y86.979 E.03296
G1 X101.265 Y87.22 E.03295
G1 X100.421 Y87.485 E.03294
G1 X99.609 Y87.766 E.03204
G1 X98.759 Y88.087 E.03384
G1 X97.941 Y88.424 E.03295
G1 X97.132 Y88.785 E.03297
G1 X96.34 Y89.167 E.03275
G1 X94.259 Y90.229 E.08704
G1 X92.215 Y91.318 E.08624
G1 X90.22 Y92.429 E.08508
G1 X88.272 Y93.563 E.08394
G1 X86.373 Y94.719 E.08282
G1 X84.523 Y95.898 E.0817
G1 X82.723 Y97.098 E.08059
G1 X80.973 Y98.321 E.0795
G1 X79.274 Y99.564 E.0784
G1 X77.622 Y100.833 E.07759
G1 X76.024 Y102.122 E.07649
G1 X74.484 Y103.427 E.07517
G1 X72.999 Y104.75 E.07408
G1 X71.57 Y106.091 E.07298
G1 X70.198 Y107.449 E.07191
G1 X68.972 Y108.73 E.06603
G1 X67.641 Y110.197 E.07378
G1 X66.448 Y111.596 E.06849
G1 X65.317 Y113.006 E.06732
G1 X64.249 Y114.424 E.06613
G1 X63.246 Y115.849 E.0649
G1 X62.299 Y117.294 E.06437
G1 X61.44 Y118.708 E.06161
G1 X60.641 Y120.137 E.061
G1 X59.912 Y121.562 E.05961
G1 X59.266 Y122.958 E.0573
G1 X58.661 Y124.422 E.059
G1 X58.168 Y125.778 E.05374
G1 X57.732 Y127.179 E.05466
G1 X57.356 Y128.666 E.05712
G1 X57.119 Y129.832 E.04432
G1 X56.928 Y131.164 E.05012
G1 X56.861 Y131.972 E.03017
G1 X56.817 Y132.826 E.03185
G1 X56.805 Y133.666 E.03132
G1 X56.864 Y134.818 E.04296
G1 X56.984 Y135.765 E.03553
G1 X57.089 Y136.352 E.02221
G1 X57.347 Y137.44 E.04164
G1 X57.606 Y138.272 E.03245
G1 X57.989 Y139.228 E.03837
G1 X58.427 Y140.111 E.03672
G1 X59 Y141.046 E.04085
G1 X59.681 Y141.961 E.04246
G1 X60.395 Y142.774 E.04031
G1 X60.892 Y143.282 E.02648
G1 X61.714 Y144.017 E.04106
G1 X62.353 Y144.537 E.03069
G1 X63.302 Y145.232 E.04383
G1 X63.875 Y145.627 E.02592
G1 X66.73 Y147.444 E.12603
G1 X67.991 Y148.293 E.0566
G1 X68.585 Y148.744 E.02779
G1 X69.001 Y149.09 E.02016
G1 X69.42 Y149.486 E.02148
G1 X69.779 Y149.876 E.01974
G1 X70.095 Y150.297 E.01961
G1 X71.024 Y151.105 F9000
G1 F900
G1 X69.595 Y150.639 E.05598
G1 X67.914 Y150.154 E.06516
G1 X66.338 Y149.765 E.06046
G1 X65.566 Y149.601 E.02941
G1 X64.109 Y149.344 E.05509
G1 X62.71 Y149.173 E.05248
G1 X61.812 Y149.113 E.03354
G1 X60.73 Y149.08 E.04034
G1 X59.966 Y149.104 E.02846
G1 X58.915 Y149.185 E.03924
G1 X58.01 Y149.329 E.03415
G1 X57.097 Y149.526 E.03477
G1 X56.199 Y149.791 E.0349
G1 X54.736 Y150.408 E.05912
G1 X53.833 Y150.912 E.03852
G1 X53.111 Y151.383 E.03211
G1 X52.631 Y151.742 E.02232
G1 X51.621 Y152.563 E.0485
G1 X50.929 Y153.187 E.03467
G1 X48.905 Y155.081 E.10326
G1 X48.222 Y155.674 E.03369
G1 X47.516 Y156.234 E.03357
G1 X46.78 Y156.75 E.03349
G1 X46.006 Y157.216 E.03365
G1 X45.187 Y157.625 E.03411
G1 X44.317 Y157.974 E.03491
G1 X43.392 Y158.258 E.03602
G1 X42.412 Y158.474 E.03739
G1 X41.377 Y158.622 E.03893
G1 X40.291 Y158.7 E.04054
G1 X39.161 Y158.709 E.04212
G1 X37.991 Y158.651 E.0436
G1 X36.792 Y158.529 E.04491
G1 X35.57 Y158.347 E.04599
G1 X34.336 Y158.11 E.04681
G1 X33.098 Y157.824 E.04733
G1 X31.864 Y157.496 E.04756
G1 X30.642 Y157.132 E.04749
G1 X29.439 Y156.739 E.04714
G1 X28.262 Y156.325 E.04645
G1 X25.914 Y155.427 E.09363
G1 X20.843 Y153.374 E.20378
G1 X19.886 Y153.018 E.03803
G1 X18.939 Y152.694 E.03726
G1 X18.015 Y152.411 E.036
G1 X17.045 Y152.16 E.03733
G1 X16.196 Y151.981 E.03232
G1 X15.295 Y151.842 E.03394
G1 X14.398 Y151.759 E.03355
G1 X13.462 Y151.735 E.03488
G1 X12.612 Y151.768 E.03169
G1 X11.722 Y151.864 E.03335
G1 X10.696 Y152.054 E.03886
G1 X12.941 Y150.292 E.10631
G1 X16.11 Y147.898 E.14791
G1 X24.783 Y141.512 E.40117
G1 X26.593 Y140.136 E.08468
G1 X28.403 Y138.715 E.0857
G1 X30.198 Y137.243 E.08649
G1 X31.964 Y135.711 E.08705
G1 X33.673 Y134.127 E.0868
G1 X35.341 Y132.455 E.08798
G1 X36.462 Y131.241 E.06154
G1 X37.694 Y129.816 E.07015
G1 X38.454 Y128.873 E.04514
G1 X39.194 Y127.904 E.0454
G1 X39.91 Y126.905 E.04578
G1 X40.51 Y126.024 E.0397
G1 X41.168 Y125 E.04531
G1 X41.788 Y123.973 E.04469
G1 X42.366 Y122.956 E.04356
G1 X42.929 Y121.901 E.04453
G1 X43.464 Y120.835 E.04442
G1 X43.973 Y119.755 E.04451
G1 X44.457 Y118.666 E.04436
G1 X44.923 Y117.554 E.0449
G1 X45.378 Y116.403 E.04611
G1 X46.18 Y114.217 E.08672
G1 X46.946 Y111.937 E.08958
