; HEADER_BLOCK_START
; generated by OrcaSlicer 2.1.1 on 2024-09-29 at 19:37:48
; total layer number: 80
; filament_density: 1.24
; filament_diameter: 1.75
; max_z_height: 16.00
; HEADER_BLOCK_END

; THUMBNAIL_BLOCK_START

;
; THUMBNAIL_BLOCK_END

; THUMBNAIL_BLOCK_START

;
; THUMBNAIL_BLOCK_END

; external perimeters extrusion width = 0.40mm
; perimeters extrusion width = 0.45mm
; infill extrusion width = 0.45mm
; solid infill extrusion width = 0.40mm
; top infill extrusion width = 0.40mm
; support material extrusion width = 0.40mm
; first layer extrusion width = 0.50mm

; external perimeters extrusion width = 0.40mm
; perimeters extrusion width = 0.45mm
; infill extrusion width = 0.45mm
; solid infill extrusion width = 0.40mm
; top infill extrusion width = 0.40mm
; support material extrusion width = 0.40mm
; first layer extrusion width = 0.50mm

; EXECUTABLE_BLOCK_START
EXCLUDE_OBJECT_DEFINE NAME=SamuraiMaskMark3_teeth-1.stl_id_0_copy_0 CENTER=117.228,75.8484 POLYGON=[[76.234,62.2557],[76.2444,62.1238],[76.2711,61.9624],[76.3113,61.8351],[76.36,61.7292],[76.4034,61.6507],[76.4861,61.5237],[76.5102,61.4868],[76.7319,61.1592],[76.9423,60.8748],[77.4163,60.2657],[77.6196,60.0252],[77.8192,59.8236],[77.8434,59.8007],[78.0176,59.6649],[78.0258,59.66],[78.0427,59.6504],[78.2891,59.5503],[78.2951,59.549],[78.3058,59.5484],[78.514,59.5442],[156.028,59.6629],[156.256,59.6992],[156.355,59.7471],[156.444,59.79],[156.464,59.8009],[156.49,59.8218],[156.718,60.0138],[156.776,60.079],[157.017,60.358],[157.089,60.4509],[157.468,60.9424],[157.927,61.5761],[157.965,61.6369],[158.005,61.7044],[158.135,61.9369],[158.135,61.9382],[158.15,61.9816],[158.193,62.1172],[158.194,62.1193],[158.198,62.1393],[158.221,62.3886],[158.219,62.4355],[158.219,62.4393],[158.217,62.4762],[158.214,62.5237],[158.207,62.5863],[158.176,62.7586],[158.118,63.0141],[158.095,63.1085],[158.081,63.1432],[157.987,63.3826],[157.041,65.6004],[156.661,66.4816],[156.155,67.4783],[155.807,68.1162],[154.401,70.4375],[153.555,71.831],[153.413,72.0425],[153.085,72.5285],[152.682,73.1023],[152.391,73.5138],[150.033,76.4843],[149.872,76.6671],[149.709,76.8397],[146.943,79.7027],[139.932,84.7279],[139.281,85.1856],[129.534,90.5256],[128.296,90.9233],[127.975,91.0004],[121.852,92.027],[121.473,92.0744],[121.24,92.0907],[119.976,92.1313],[119.285,92.1414],[118.057,92.15],[117.704,92.1518],[116.249,92.1525],[114.339,92.1236],[113.103,92.0774],[112.55,92.0275],[106.406,90.97],[106.121,90.9044],[104.832,90.4904],[95.0652,85.0896],[94.4596,84.6584],[87.5079,79.641],[87.4095,79.5665],[84.4651,76.489],[82.0354,73.4173],[82.0172,73.3937],[81.3239,72.4086],[80.9691,71.8868],[79.6463,69.6937],[78.7309,68.168],[78.2997,67.3994],[77.7589,66.3252],[76.4426,63.2247],[76.3557,62.99],[76.3448,62.959],[76.337,62.9267],[76.277,62.6511],[76.2498,62.4736],[76.2458,62.4222],[76.2349,62.2678],[76.234,62.2557]]
EXCLUDE_OBJECT_DEFINE NAME=SamuraiMaskMark3_teeth-1.stl_id_1_copy_0 CENTER=113.979,144.166 POLYGON=[[76.1219,155.191],[76.1322,155.09],[76.2277,154.674],[76.2358,154.644],[76.2557,154.579],[76.3582,154.276],[76.3864,154.196],[76.6218,153.656],[76.6996,153.489],[77.3917,152.246],[78.4689,150.459],[81.743,145.122],[81.8533,144.965],[84.6769,140.973],[84.7696,140.871],[92.6007,136.625],[93.0602,136.394],[100.404,133.735],[103.168,132.782],[103.624,132.634],[103.955,132.543],[105.2,132.273],[105.992,132.113],[106.546,132.048],[106.669,132.034],[110.92,131.663],[111.94,131.592],[112.541,131.561],[116.161,131.624],[117.044,131.669],[122.242,132.015],[122.422,132.037],[122.883,132.112],[123.733,132.316],[124.78,132.595],[126.814,133.253],[135.762,136.834],[136.097,136.983],[143.1,140.809],[143.302,141.017],[146.211,145.121],[150.474,152.124],[150.627,152.378],[151.15,153.323],[151.377,153.77],[151.465,153.962],[151.605,154.318],[151.671,154.498],[151.715,154.668],[151.828,155.128],[151.835,155.219],[151.83,155.33],[151.825,155.427],[151.802,155.54],[151.764,155.653],[151.742,155.701],[151.482,156.218],[151.454,156.263],[151.344,156.389],[151.326,156.402],[151.243,156.444],[150.725,156.695],[150.555,156.757],[150.515,156.765],[150.307,156.768],[77.5443,156.771],[77.4479,156.761],[77.3331,156.749],[76.6131,156.398],[76.6014,156.389],[76.5844,156.372],[76.4222,156.138],[76.3952,156.095],[76.2263,155.748],[76.1844,155.639],[76.1494,155.536],[76.1265,155.433],[76.1241,155.309],[76.1219,155.191]]
M73 P0 R67
;TYPE:Custom
M117 ; clear display for KAMP meshing
START_PRINT BED_TEMP=60 EXTRUDER_TEMP=220
G90
G21
M83 ; use relative distances for extrusion
; filament start gcode
M106 S0
;LAYER_CHANGE
;Z:0.2
;HEIGHT:0.2
;BEFORE_LAYER_CHANGE
;0.2
G92 E0

G1 E-5 F3600
;_SET_FAN_SPEED_CHANGING_LAYER
SET_VELOCITY_LIMIT ACCEL=500 ACCEL_TO_DECEL=250
; printing object SamuraiMaskMark3_teeth-1.stl id:0 copy 0
EXCLUDE_OBJECT_START NAME=SamuraiMaskMark3_teeth-1.stl_id_0_copy_0
G1 Z.4 F9000
G1 X111.725 Y88.368
G1 Z.4
G1 Z.2
G1 E5 F2400
;TYPE:Support interface
;WIDTH:0.4
G1 F900
G1 X111.718 Y88.298 E.00204
G1 X111.518 Y88.038 E.00952
G1 X111.533 Y87.973 E.00194
G1 X111.711 Y88.133 E.00695
G1 X111.916 Y88.234 E.00663
G1 X112.022 Y88.371 E.00504
G1 X112.057 Y88.539 E.00501
G1 X112.015 Y88.712 E.00518
G1 X111.972 Y88.774 E.00219
G1 X111.743 Y88.545 E.0094
G1 X111.788 Y88.978 E.01265
G1 X111.867 Y88.918 E.00288
G1 X112.755 Y88.345 F9000
G1 F900
G1 X113.181 Y88.771 E.01754
G1 X113.371 Y88.691 E.006
G1 X113.477 Y88.558 E.00494
G1 X113.515 Y88.392 E.00494
G1 X113.478 Y88.226 E.00494
G1 X113.296 Y87.995 E.00857
G1 X113.429 Y87.806 E.0067
G1 X114.032 Y87.932 F9000
G1 F900
G1 X113.535 Y87.806 E.01492
G1 X114.192 Y87.807 E.0191
G1 X114.183 Y88.004 E.00573
G1 X114.081 Y87.955 E.0033
G1 X115.108 Y88.465 F9000
G1 F900
G1 X114.689 Y88.532 E.01236
G1 X114.901 Y88.43 E.00687
G1 X114.681 Y88.295 E.00752
G1 X115.185 Y88.351 E.01476
G1 X115.286 Y88.452 E.00416
G1 X115.797 Y88.415 E.01489
G1 X115.36 Y88.388 E.01274
G1 E-3.5 F3600
;WIPE_START
G1 F900
G1 X115.797 Y88.415 E-.65658
G1 X115.286 Y88.452 E-.76769
G1 X115.251 Y88.416 E-.07574
;WIPE_END
G1 Z.6 F9000
G1 X118.746 Y88.43 Z.6
G1 Z.2
G1 E5 F2400
G1 F900
G1 X118.554 Y88.405 E.00563
G1 X118.851 Y88.38 E.00866
G1 X118.923 Y88.453 E.00298
G1 X119.71 Y88.567 E.02312
G1 X119.455 Y88.419 E.00858
G1 X119.625 Y88.322 E.00571
G1 X119.524 Y88.342 E.003
G1 X119.029 Y88.37 E.01443
G1 X120.389 Y87.941 F9000
G1 F900
G1 X120.278 Y87.968 E.00333
G1 X120.265 Y87.824 E.0042
G1 X120.62 Y87.827 E.01032
G1 X120.437 Y87.918 E.00592
G1 X120.9 Y87.882 F9000
G1 F900
G1 X120.862 Y87.824 E.00201
G1 X121.046 Y87.82 E.00535
G1 X121.073 Y88.017 E.00579
G1 X121.196 Y88.016 E.00359
G1 X121.353 Y88.09 E.00503
G1 X121.461 Y88.224 E.00502
G1 X121.499 Y88.393 E.00503
G1 X121.458 Y88.563 E.00511
G1 X120.922 Y88.028 E.02204
G1 X120.766 Y88.227 E.00737
G1 X120.729 Y88.393 E.00494
G1 X120.767 Y88.558 E.00494
G1 X120.872 Y88.691 E.00495
G1 X121.029 Y88.768 E.00509
G1 X121.196 Y88.768 E.00487
G1 X121.343 Y88.699 E.00472
G1 X122.5 Y88.183 F9000
G1 F900
G1 X122.591 Y88.043 E.00484
G1 X122.676 Y87.964 E.00339
G1 X122.726 Y88.211 E.00733
G1 X122.684 Y88.264 E.00198
G1 X122.646 Y88.539 E.00808
G1 X122.463 Y88.356 E.00752
G1 X122.446 Y88.451 E.0028
G1 X122.219 Y88.842 E.01315
G1 X122.146 Y89.009 E.00531
G1 X122.147 Y89.104 E.00276
G1 X122.205 Y89.227 E.00397
G1 X122.316 Y89.312 E.00406
G1 X122.536 Y89.331 E.00642
G1 X122.621 Y88.716 E.01808
G1 E-3.5 F3600
;WIPE_START
G1 F900
G1 X122.536 Y89.331 E-.93182
G1 X122.316 Y89.312 E-.33082
G1 X122.205 Y89.227 E-.20954
G1 X122.197 Y89.21 E-.02782
;WIPE_END
G1 Z.6 F9000
G1 X155.912 Y56.8 Z.6
G1 Z.2
G1 E5 F2400
;TYPE:Support
;WIDTH:0.5
G1 F900
G1 X156.849 Y57.108 E.03673
G1 X157.63 Y57.626 E.0349
G1 X158.252 Y58.294 E.03399
G1 X158.538 Y58.805 E.02181
G1 X158.907 Y58.881 E.01402
G1 X159.56 Y59.273 E.02839
G1 X160.029 Y59.801 E.0263
G1 X160.154 Y60.116 E.01259
G1 X160.332 Y60.392 E.01224
G1 X160.552 Y61.311 E.03522
G1 X160.46 Y62.081 E.02887
G1 X160.532 Y62.392 E.01191
G1 X160.244 Y63.458 E.04112
G1 X159.506 Y64.241 E.04007
G1 X158.89 Y64.468 E.02444
G1 X158.416 Y64.59 E.01826
G1 X158.222 Y64.566 E.00725
G1 X157.915 Y64.896 E.01679
G1 X157.47 Y65.065 E.01772
G1 X157.876 Y64.137 E.03774
G1 X157.04 Y63.579 E.03744
G1 X156.328 Y64.339 E.03879
G1 X155.999 Y64.874 E.0234
G1 X155.788 Y65.282 E.0171
G1 X155.647 Y65.645 E.01453
G1 X155.539 Y65.989 E.01341
G1 X155.415 Y66.563 E.02187
G1 X156.304 Y66.958 E.03623
G1 X156.65 Y66.481 E.02198
G1 X157.048 Y66.91 E.02182
G1 X157.325 Y67.961 E.04048
G1 X157.18 Y68.612 E.02483
G1 X157.244 Y68.779 E.00666
G1 X157.326 Y69.562 E.02934
G1 X157.129 Y70.097 E.02122
G1 X157.345 Y70.697 E.02378
G1 X157.448 Y71.595 E.03366
G1 X157.345 Y72.493 E.03366
G1 X157.041 Y73.344 E.03366
G1 X156.551 Y74.103 E.03366
G1 X155.902 Y74.731 E.03365
G1 X155.127 Y75.196 E.03365
G1 X154.266 Y75.472 E.03365
G1 X153.973 Y75.496 E.01097
G1 X154.259 Y76.534 E.04012
G1 X154.345 Y77.486 E.03559
G1 X154.259 Y78.437 E.03559
G1 X154.004 Y79.358 E.03558
G1 X153.589 Y80.218 E.03558
G1 X153.027 Y80.991 E.03558
G1 X152.336 Y81.65 E.03557
G1 X151.539 Y82.175 E.03556
G1 X150.661 Y82.55 E.03556
G1 X149.73 Y82.761 E.03555
G1 X148.841 Y82.8 E.03314
G1 X148.066 Y83.329 E.03497
G1 X147.222 Y83.669 E.03387
G1 X146.338 Y83.816 E.03338
G1 X145.927 Y83.811 E.0153
G1 X145.569 Y83.783 E.01338
G1 X145.284 Y84.008 E.01355
G1 X144.39 Y84.411 E.03651
G1 X143.454 Y84.536 E.03515
G1 X142.589 Y84.419 E.03252
G1 X141.708 Y85.057 E.0405
G1 X140.907 Y85.26 E.03078
G1 X140.503 Y85.7 E.02226
G1 X140.415 Y85.743 E.00367
G1 X140.405 Y85.769 E.00103
G1 X139.538 Y86.397 E.03987
G1 X138.673 Y86.702 E.03415
G1 X138.519 Y86.678 E.00581
G1 X137.834 Y87.43 E.03789
G1 X136.804 Y87.794 E.04068
G1 X136.575 Y87.762 E.00859
G1 X136.094 Y88.016 E.02027
G1 X135.976 Y88.192 E.00789
G1 X135.461 Y88.757 E.02851
G1 X135.14 Y89.209 E.02063
G1 X134.635 Y89.531 E.02233
G1 X134.379 Y90.051 E.02158
G1 X134.284 Y90.145 E.00498
G1 X134.276 Y90.18 E.00133
G1 X133.991 Y90.573 E.01808
G1 X133.743 Y91.149 E.02336
G1 X133.146 Y91.852 E.03433
G1 X132.35 Y92.361 E.0352
G1 X132.036 Y92.443 E.01211
G1 X131.701 Y92.823 E.01886
G1 X130.911 Y93.312 E.0346
G1 X130.011 Y93.551 E.03469
G1 X129.297 Y93.525 E.02661
G1 X129.147 Y93.687 E.00823
G1 X128.352 Y94.144 E.03416
G1 X127.457 Y94.347 E.03415
G1 X126.454 Y94.271 E.0375
G1 X126.003 Y94.493 E.0187
G1 X125.177 Y94.698 E.03173
G1 X124.251 Y94.607 E.03463
G1 X124.144 Y94.567 E.00425
G1 X123.355 Y94.748 E.03016
G1 X122.449 Y94.68 E.03384
G1 X121.576 Y94.339 E.03492
G1 X120.845 Y94.382 E.02725
G1 X120.003 Y94.152 E.03253
G1 X119.611 Y93.888 E.0176
G1 X119.396 Y93.927 E.00814
G1 X118.588 Y93.895 E.03015
G1 X117.977 Y93.645 E.02458
G1 X117.907 Y93.599 E.00313
G1 X117.523 Y93.665 E.01452
G1 X116.986 Y93.538 E.02053
G1 X116.686 Y93.599 E.0114
G1 X116.343 Y93.635 E.01286
G1 X116.21 Y93.726 E.00599
G1 X115.581 Y93.874 E.02405
G1 X115.216 Y93.927 E.01374
G1 X114.869 Y93.893 E.01298
G1 X114.539 Y93.91 E.01233
G1 X113.696 Y94.287 E.0344
G1 X113.336 Y94.321 E.01345
G1 X113.07 Y94.417 E.01055
G1 X112.806 Y94.412 E.00981
G1 X112.165 Y94.574 E.02463
G1 X111.6 Y94.589 E.02107
G1 X111.074 Y94.492 E.01992
G1 X110.184 Y94.695 E.03399
G1 X109.274 Y94.627 E.03401
G1 X109.094 Y94.557 E.00717
G1 X108.945 Y94.591 E.00571
G1 X108.034 Y94.523 E.03402
G1 X107.184 Y94.19 E.03402
G1 X106.927 Y93.987 E.01221
G1 X106.612 Y94.058 E.01205
G1 X105.697 Y93.989 E.03415
G1 X104.844 Y93.654 E.03414
G1 X104.505 Y93.384 E.01613
G1 X104.035 Y93.371 E.01751
G1 X103.195 Y93.127 E.03258
G1 X102.422 Y92.62 E.03445
G1 X102.11 Y92.254 E.01789
G1 X101.842 Y92.186 E.01032
G1 X101.04 Y91.671 E.03549
G1 X100.432 Y90.945 E.03527
G1 X100.24 Y90.478 E.0188
G1 X99.577 Y89.441 E.04583
G1 X98.989 Y88.94 E.02881
G1 X98.477 Y88.184 E.03399
G1 X98.349 Y88.129 E.00519
G1 X98.257 Y87.941 E.00779
G1 X98.116 Y87.94 E.00525
G1 X97.873 Y87.82 E.01009
G1 X97.129 Y87.697 E.02807
G1 X96.274 Y87.053 E.03987
G1 X95.885 Y86.948 E.015
G1 X95.171 Y86.411 E.03329
G1 X94.859 Y86.362 E.01179
G1 X94.049 Y85.752 E.03775
G1 X93.943 Y85.571 E.00781
G1 X93.78 Y85.507 E.00653
G1 X93.424 Y85.138 E.01909
G1 X93.101 Y85.098 E.01212
G1 X92.495 Y84.848 E.02442
G1 X91.648 Y84.854 E.03155
G1 X91.042 Y84.686 E.02342
G1 X90.713 Y84.568 E.01303
G1 X90.005 Y84.106 E.0315
G1 X89.858 Y83.937 E.00833
G1 X89.415 Y84.016 E.01676
G1 X88.528 Y83.989 E.03305
G1 X87.671 Y83.784 E.0328
G1 X86.876 Y83.411 E.03272
G1 X86.173 Y82.884 E.03272
G1 X85.873 Y82.544 E.0169
G1 X85.058 Y82.581 E.03038
G1 X84.112 Y82.454 E.03555
G1 X83.204 Y82.159 E.03556
G1 X82.363 Y81.707 E.03556
G1 X81.616 Y81.113 E.03557
G1 X80.987 Y80.394 E.03557
G1 X80.497 Y79.574 E.03557
G1 X80.161 Y78.68 E.03558
G1 X79.99 Y77.74 E.03558
G1 X79.99 Y76.785 E.03558
G1 X80.148 Y75.915 E.03295
G1 X79.621 Y75.73 E.02081
G1 X79.181 Y75.541 E.01782
G1 X78.821 Y75.316 E.01582
G1 X78.439 Y75.032 E.01774
G1 X78.137 Y74.73 E.01588
G1 X77.832 Y74.366 E.01769
G1 X77.604 Y74.004 E.01593
G1 X77.391 Y73.581 E.01765
G1 X77.25 Y73.177 E.01595
G1 X77.141 Y72.716 E.01764
G1 X77.093 Y72.291 E.01594
G1 X77.093 Y71.817 E.01766
G1 X77.141 Y71.392 E.01592
G1 X77.251 Y70.93 E.01769
G1 X77.305 Y70.775 E.00611
G1 X77.068 Y70.074 E.02755
G1 X76.718 Y69.96 E.0137
G1 X77.227 Y68.589 E.05446
G1 X77.144 Y68.345 E.0096
G1 X77.163 Y68.279 E.00256
G1 X77.178 Y67.42 E.032
G1 X77.602 Y66.498 E.03778
G1 X77.784 Y66.358 E.00855
G1 X78.209 Y66.93 E.02655
G1 X79.084 Y66.545 E.03562
G1 X78.973 Y65.972 E.02175
G1 X78.668 Y65.088 E.03483
G1 X78.283 Y64.399 E.02939
G1 X78.055 Y64.092 E.01426
G1 X77.899 Y63.898 E.00928
G1 X77.309 Y63.315 E.03087
G1 X76.494 Y63.863 E.03659
G1 X76.964 Y64.994 E.04559
G1 X76.7 Y65.171 E.01184
G1 X76.395 Y64.486 E.02792
G1 X76.137 Y64.417 E.00997
G1 X76.03 Y64.344 E.00483
G1 X75.322 Y64.231 E.02671
G1 X74.454 Y63.584 E.04032
G1 X73.987 Y62.61 E.04022
G1 X74.023 Y61.569 E.03879
G1 X74.217 Y61.191 E.01585
G1 X74.371 Y60.692 E.01942
G1 X74.562 Y60.229 E.01867
G1 X74.754 Y59.873 E.01506
G1 X75.197 Y59.353 E.02544
G1 X75.896 Y58.918 E.03069
G1 X76.103 Y58.862 E.00798
G1 X76.668 Y58.279 E.03024
G1 X77.002 Y58.014 E.01589
G1 X77.387 Y57.788 E.01662
G1 X77.879 Y57.553 E.02033
G1 X78.297 Y57.443 E.0161
G1 X78.755 Y57.363 E.0173
G1 X79.462 Y57.352 E.02634
G1 X80.188 Y57.497 E.02756
G1 X80.835 Y57.754 E.02592
G1 X81.576 Y58.256 E.03334
G1 X82.167 Y58.895 E.03244
G1 X82.557 Y59.621 E.03069
G1 X83.207 Y59.634 E.02421
G1 X84.102 Y59.84 E.03422
G1 X84.927 Y60.221 E.03385
G1 X85.685 Y60.786 E.03522
G1 X86.283 Y61.462 E.03362
G1 X86.738 Y62.261 E.03424
G1 X87.02 Y63.136 E.03424
G1 X87.115 Y64.05 E.03423
G1 X87.021 Y64.964 E.03423
G1 X86.742 Y65.839 E.03423
G1 X86.181 Y66.829 E.04239
G1 X87.261 Y66.878 E.04028
G1 X88.192 Y67.09 E.03555
G1 X89.069 Y67.465 E.03555
G1 X89.866 Y67.991 E.03555
G1 X90.556 Y68.65 E.03555
G1 X91.117 Y69.422 E.03555
G1 X91.431 Y70.074 E.02694
G1 X92.497 Y70.124 E.03974
G1 X93.434 Y70.342 E.03585
G1 X94.317 Y70.725 E.03583
G1 X95.115 Y71.261 E.0358
G1 X95.804 Y71.93 E.03576
G1 X96.36 Y72.711 E.03571
G1 X96.768 Y73.577 E.03566
G1 X96.855 Y73.907 E.01271
G1 X97.109 Y74.092 E.01168
G1 X97.715 Y74.773 E.03396
G1 X98.164 Y75.568 E.03401
G1 X98.434 Y76.442 E.03406
G1 X98.513 Y77.354 E.03412
G1 X98.396 Y78.264 E.03417
G1 X98.087 Y79.129 E.0342
G1 X97.602 Y79.908 E.03419
G1 X96.959 Y80.57 E.03436
G1 X96.64 Y80.779 E.01421
G1 X96.804 Y80.973 E.00947
G1 X97.029 Y81.926 E.03647
G1 X97.58 Y82.074 E.02123
G1 X98.175 Y82.3 E.02373
G1 X98.904 Y83.077 E.03967
G1 X98.973 Y83.334 E.00991
G1 X99.168 Y83.332 E.00725
G1 X99.617 Y83.545 E.0185
G1 X99.947 Y82.886 E.02744
G1 X100.403 Y82.324 E.02695
G1 X101.027 Y81.878 E.02857
G1 X101.6 Y81.659 E.02287
G1 X102.093 Y81.553 E.01875
G1 X102.538 Y81.556 E.01658
G1 X102.919 Y81.593 E.01426
G1 X103.865 Y81.889 E.03691
G1 X104.299 Y82.369 E.02413
G1 X104.684 Y82.599 E.0167
G1 X105.08 Y83.374 E.03242
G1 X105.464 Y83.375 E.01428
G1 X106.434 Y83.754 E.03881
G1 X106.564 Y83.881 E.00677
G1 X107.283 Y84.014 E.02723
G1 X108.025 Y84.358 E.03048
G1 X108.572 Y84.864 E.02775
G1 X108.82 Y85.204 E.01567
G1 X109.193 Y85.332 E.01469
