; HEADER_BLOCK_START
; generated by OrcaSlicer 2.2.0-beta2 on 2024-10-09 at 21:08:56
; total layer number: 31
; filament_density: 1.24
; filament_diameter: 1.75
; max_z_height: 6.20
; HEADER_BLOCK_END

; THUMBNAIL_BLOCK_START

;
; THUMBNAIL_BLOCK_END

; THUMBNAIL_BLOCK_START

;
; THUMBNAIL_BLOCK_END

; external perimeters extrusion width = 0.40mm
; perimeters extrusion width = 0.45mm
; infill extrusion width = 0.45mm
; solid infill extrusion width = 0.40mm
; top infill extrusion width = 0.40mm
; support material extrusion width = 0.40mm
; first layer extrusion width = 0.50mm

; EXECUTABLE_BLOCK_START
EXCLUDE_OBJECT_DEFINE NAME=Tehen-1.stl_id_0_copy_0 CENTER=110,110 POLYGON=[[93,110],[93.0097,109.426],[93.0388,108.852],[93.0872,108.28],[93.155,107.71],[93.2419,107.142],[93.348,106.578],[93.4731,106.017],[93.617,105.462],[93.7796,104.911],[93.9608,104.366],[94.1602,103.827],[94.3777,103.296],[94.6131,102.772],[94.8659,102.257],[95.1361,101.75],[95.4232,101.253],[95.727,100.765],[96.047,100.288],[96.383,99.8227],[96.7345,99.3686],[97.1011,98.9267],[97.4825,98.4973],[97.8781,98.0811],[98.2876,97.6785],[98.7104,97.29],[99.1461,96.9159],[99.5942,96.5568],[100.054,96.213],[100.525,95.885],[101.008,95.573],[101.5,95.2776],[102.002,94.9989],[102.513,94.7373],[103.033,94.4932],[103.561,94.2667],[104.096,94.0582],[104.638,93.8679],[105.186,93.696],[105.739,93.5427],[106.297,93.4082],[106.86,93.2926],[107.426,93.196],[107.995,93.1187],[108.566,93.0606],[109.139,93.0218],[109.713,93.0024],[110.287,93.0024],[110.861,93.0218],[111.434,93.0606],[112.005,93.1187],[112.574,93.196],[113.14,93.2926],[113.703,93.4082],[114.261,93.5427],[114.814,93.696],[115.362,93.8679],[115.904,94.0582],[116.439,94.2667],[116.967,94.4932],[117.487,94.7373],[117.998,94.9989],[118.5,95.2776],[118.992,95.573],[119.475,95.885],[119.946,96.213],[120.406,96.5568],[120.854,96.9159],[121.29,97.29],[121.712,97.6785],[122.122,98.0811],[122.518,98.4973],[122.899,98.9267],[123.266,99.3686],[123.617,99.8227],[123.953,100.288],[124.273,100.765],[124.577,101.253],[124.864,101.75],[125.134,102.257],[125.387,102.772],[125.622,103.296],[125.84,103.827],[126.039,104.366],[126.22,104.911],[126.383,105.462],[126.527,106.017],[126.652,106.578],[126.758,107.142],[126.845,107.71],[126.913,108.28],[126.961,108.852],[126.99,109.426],[127,110],[126.99,110.574],[126.961,111.148],[126.913,111.72],[126.845,112.29],[126.758,112.858],[126.652,113.422],[126.527,113.983],[126.383,114.538],[126.22,115.089],[126.039,115.634],[125.84,116.173],[125.622,116.704],[125.387,117.228],[125.134,117.743],[124.864,118.25],[124.577,118.747],[124.273,119.235],[123.953,119.712],[123.617,120.177],[123.266,120.631],[122.899,121.073],[122.518,121.503],[122.122,121.919],[121.712,122.321],[121.29,122.71],[120.854,123.084],[120.406,123.443],[119.946,123.787],[119.475,124.115],[118.992,124.427],[118.5,124.722],[117.998,125.001],[117.487,125.263],[116.967,125.507],[116.439,125.733],[115.904,125.942],[115.362,126.132],[114.814,126.304],[114.261,126.457],[113.703,126.592],[113.14,126.707],[112.574,126.804],[112.005,126.881],[111.434,126.939],[110.861,126.978],[110.287,126.998],[109.713,126.998],[109.139,126.978],[108.566,126.939],[107.995,126.881],[107.426,126.804],[106.86,126.707],[106.297,126.592],[105.739,126.457],[105.186,126.304],[104.638,126.132],[104.096,125.942],[103.561,125.733],[103.033,125.507],[102.513,125.263],[102.002,125.001],[101.5,124.722],[101.008,124.427],[100.525,124.115],[100.054,123.787],[99.5942,123.443],[99.1461,123.084],[98.7104,122.71],[98.2876,122.321],[97.8781,121.919],[97.4825,121.503],[97.1011,121.073],[96.7345,120.631],[96.383,120.177],[96.047,119.712],[95.727,119.235],[95.4232,118.747],[95.1361,118.25],[94.8659,117.743],[94.6131,117.228],[94.3777,116.704],[94.1602,116.173],[93.9608,115.634],[93.7796,115.089],[93.617,114.538],[93.4731,113.983],[93.348,113.422],[93.2419,112.858],[93.155,112.29],[93.0872,111.72],[93.0388,111.148],[93.0097,110.574],[93,110]]
M73 P0 R17
;TYPE:Custom
M117 ; clear display for KAMP meshing
START_PRINT BED_TEMP=60 EXTRUDER_TEMP=220
G90
G21
M83 ; use relative distances for extrusion
; filament start gcode
M106 S0
;LAYER_CHANGE
;Z:0.2
;HEIGHT:0.2
;BEFORE_LAYER_CHANGE
;0.2
G92 E0

G1 E-5 F3600
;_SET_FAN_SPEED_CHANGING_LAYER
SET_VELOCITY_LIMIT ACCEL=500 ACCEL_TO_DECEL=250
; printing object Tehen-1.stl id:0 copy 0
EXCLUDE_OBJECT_START NAME=Tehen-1.stl_id_0_copy_0
G1 Z.4 F9000
G1 X110.342 Y105.614
G1 Z.4
G1 Z.2
G1 E5 F2400
;TYPE:Support
;WIDTH:0.5
G1 F900
G1 X110.884 Y105.69 E.02036
G1 X111.15 Y105.753 E.01019
G1 X111.668 Y105.929 E.02038
G1 X112.154 Y106.164 E.02011
G1 X112.395 Y106.309 E.01047
G1 X112.834 Y106.635 E.02036
G1 X113.23 Y107.012 E.02038
G1 X113.409 Y107.219 E.01019
G1 X113.728 Y107.663 E.02038
G1 X113.866 Y107.9 E.01019
G1 X114.097 Y108.396 E.02038
G1 X114.189 Y108.653 E.01019
G1 X114.323 Y109.184 E.02037
G1 X114.366 Y109.454 E.01019
G1 X114.4 Y110 E.02038
G1 X114.391 Y110.274 E.01019
G1 X114.323 Y110.817 E.02039
G1 X114.264 Y111.084 E.01018
G1 X114.097 Y111.604 E.02038
G1 X113.869 Y112.094 E.02011
G1 X113.728 Y112.337 E.01047
G1 X113.409 Y112.781 E.02036
G1 X113.043 Y113.178 E.02011
G1 X112.834 Y113.366 E.01047
G1 X112.394 Y113.691 E.02036
G1 X112.16 Y113.833 E.01019
G1 X111.668 Y114.071 E.02038
G1 X111.412 Y114.167 E.01019
G1 X111.15 Y114.247 E.01019
G1 X110.614 Y114.357 E.02038
G1 X110.068 Y114.399 E.02038
G1 X109.795 Y114.395 E.01019
G1 X109.251 Y114.335 E.02038
G1 X108.719 Y114.209 E.02038
G1 X108.46 Y114.121 E.01019
G1 X107.96 Y113.898 E.02038
G1 X107.722 Y113.764 E.01019
G1 X107.272 Y113.452 E.02038
G1 X106.87 Y113.092 E.02011
G1 X106.679 Y112.886 E.01047
G1 X106.347 Y112.451 E.02036
G1 X106.201 Y112.22 E.01019
G1 X105.955 Y111.731 E.02039
G1 X105.855 Y111.476 E.01018
G1 X105.704 Y110.95 E.02038
G1 X105.653 Y110.682 E.01019
G1 X105.602 Y110.136 E.02039
G1 X105.602 Y109.863 E.01018
G1 X105.653 Y109.318 E.02039
G1 X105.704 Y109.05 E.01018
G1 X105.855 Y108.524 E.02038
G1 X105.955 Y108.269 E.01019
G1 X106.201 Y107.78 E.02038
G1 X106.347 Y107.549 E.01019
G1 X106.679 Y107.114 E.02038
G1 X107.063 Y106.724 E.02038
G1 X107.272 Y106.548 E.01019
G1 X107.722 Y106.236 E.02038
G1 X108.206 Y105.983 E.02038
G1 X108.46 Y105.879 E.01019
G1 X108.983 Y105.719 E.02038
G1 X109.251 Y105.665 E.01019
G1 X109.795 Y105.605 E.02038
G1 X110.274 Y105.611 E.01784
G1 X113.555 Y112.225 F9000
G1 F900
G1 X113.555 Y108.197 E.15003
G1 X113.379 Y107.882 E.01343
G1 X113.047 Y107.429 E.0209
G1 X113.047 Y112.571 E.19149
G1 X112.758 Y112.88 E.01578
G1 X112.539 Y113.074 E.01089
G1 X112.539 Y106.926 E.22899
G1 X112.171 Y106.655 E.01704
G1 X112.031 Y106.57 E.00607
G1 X112.031 Y113.43 E.25549
G1 X111.524 Y113.685 E.02117
G1 X111.524 Y106.315 E.27452
G1 X111.016 Y106.144 E.01996
G1 X111.016 Y113.856 E.28723
G1 X110.801 Y113.907 E.00823
G1 X110.508 Y113.954 E.01106
G1 X110.508 Y106.046 E.29458
G1 X110 Y106.013 E.01895
G1 X110 Y113.987 E.29698
G1 X109.492 Y113.954 E.01896
G1 X109.492 Y106.046 E.29455
G1 X108.984 Y106.145 E.01927
G1 X108.984 Y113.855 E.28715
G1 X108.476 Y113.684 E.01996
G1 X108.476 Y106.316 E.2744
G1 X107.969 Y106.569 E.02113
G1 X107.969 Y113.431 E.25557
G1 X107.727 Y113.277 E.01068
G1 X107.461 Y113.073 E.01248
G1 X107.461 Y106.927 E.22891
G1 X107.158 Y107.202 E.01523
G1 X106.953 Y107.429 E.01141
G1 X106.953 Y112.571 E.1915
M73 P1 R17
G1 X106.688 Y112.222 E.0163
M73 P1 R17
G1 X106.445 Y111.807 E.01794
G1 X106.445 Y107.779 E.15002
G1 E-3.5 F3600
;WIPE_START
G1 F900
G1 X106.445 Y108.779 E-1.5
;WIPE_END
G1 Z.6 F9000
G1 X107.188 Y125.58 Z.6
G1 Z.2
G1 E5 F2400
;TYPE:Inner wall
;WIDTH:0.499999
G1 F900
G1 X107.065 Y125.561 E.00464
G1 X105.972 Y125.314 E.04175
G1 X104.998 Y125.025 E.03782
G1 X104.443 Y124.827 E.02194
G1 X103.504 Y124.442 E.03782
G1 X102.972 Y124.189 E.02194
G1 X102.074 Y123.709 E.03791
G1 X101.632 Y123.444 E.01921
G1 X100.727 Y122.837 E.04057
G1 X100.315 Y122.528 E.01919
G1 X99.476 Y121.833 E.04057
G1 X99.097 Y121.484 E.01919
G1 X98.335 Y120.709 E.04049
G1 X97.946 Y120.268 E.02192
G1 X97.316 Y119.481 E.03754
G1 X96.699 Y118.594 E.04023
G1 X96.423 Y118.15 E.01947
G1 X96.126 Y117.631 E.02228
G1 X95.668 Y116.735 E.03748
G1 X95.221 Y115.683 E.04259
G1 X94.888 Y114.732 E.03752
G1 X94.592 Y113.65 E.04177
G1 X94.389 Y112.655 E.03782
G1 X94.302 Y112.073 E.02194
G1 X94.2 Y111.062 E.03782
G1 X94.173 Y110.474 E.02194
G1 X94.174 Y109.466 E.03754
G1 X94.247 Y108.388 E.04023
G1 X94.388 Y107.348 E.03911
G1 X94.605 Y106.29 E.04021
G1 X94.894 Y105.25 E.04021
G1 X95.059 Y104.754 E.01947
G1 X95.268 Y104.194 E.02228
G1 X95.67 Y103.261 E.03782
G1 X95.931 Y102.733 E.02194
G1 X96.426 Y101.844 E.03791
G1 X96.699 Y101.406 E.01922
G1 X97.32 Y100.514 E.04049
G1 X97.682 Y100.05 E.02191
G1 X98.34 Y99.286 E.03754
G1 X99.097 Y98.516 E.04023
G1 X99.476 Y98.167 E.01919
G1 X100.315 Y97.472 E.04057
G1 X100.727 Y97.163 E.01919
G1 X101.63 Y96.557 E.04049
G1 X102.136 Y96.257 E.02191
G1 X103.026 Y95.783 E.03754
G1 X104.011 Y95.341 E.04023
G1 X104.5 Y95.15 E.01956
G1 X104.996 Y94.976 E.01956
G1 X106.031 Y94.67 E.04021
G1 X107.084 Y94.435 E.04021
G1 X107.602 Y94.347 E.01956
G1 X108.122 Y94.276 E.01956
G1 X109.196 Y94.185 E.04014
G1 X110.339 Y94.169 E.04256
G1 X111.345 Y94.222 E.03752
G1 X111.858 Y94.274 E.01922
G1 X112.935 Y94.439 E.04057
G1 X113.449 Y94.545 E.01956
G1 X113.96 Y94.668 E.01955
G1 X114.995 Y94.973 E.04021
G1 X116.007 Y95.348 E.04021
G1 X116.49 Y95.555 E.01956
G1 X116.965 Y95.778 E.01956
G1 X117.926 Y96.291 E.04057
G1 X118.368 Y96.556 E.01919
G1 X119.273 Y97.163 E.04057
G1 X119.685 Y97.472 E.01919
G1 X120.524 Y98.167 E.04057
G1 X120.903 Y98.516 E.01919
G1 X121.665 Y99.291 E.04049
G1 X122.054 Y99.732 E.02192
G1 X122.684 Y100.519 E.03754
G1 X123.301 Y101.406 E.04023
G1 X123.578 Y101.852 E.01956
G1 X123.841 Y102.306 E.01955
G1 X124.332 Y103.266 E.04014
G1 X124.779 Y104.317 E.04256
G1 X125.112 Y105.268 E.03752
G1 X125.408 Y106.35 E.04177
G1 X125.611 Y107.345 E.03782
G1 X125.698 Y107.927 E.02194
G1 X125.806 Y109.067 E.04263
G1 X125.827 Y109.642 E.02145
G1 X125.826 Y110.534 E.03322
G1 X125.753 Y111.612 E.04023
G1 X125.612 Y112.652 E.03911
G1 X125.395 Y113.71 E.04021
G1 X125.109 Y114.74 E.03984
G1 X124.751 Y115.759 E.04021
G1 X124.556 Y116.236 E.01919
G1 X124.093 Y117.222 E.04057
G1 X123.851 Y117.676 E.01919
G1 X123.29 Y118.61 E.04057
G1 X122.69 Y119.472 E.03911
G1 X122.009 Y120.322 E.04057
G1 X121.667 Y120.708 E.01919
G1 X120.903 Y121.484 E.04057
G1 X120.524 Y121.833 E.01919
G1 X119.685 Y122.528 E.04057
G1 X119.273 Y122.837 E.01919
G1 X118.376 Y123.438 E.04021
G1 X117.441 Y123.978 E.0402
G1 X116.984 Y124.212 E.01913
G1 X115.932 Y124.681 E.04293
G1 X114.986 Y125.03 E.03752
G1 X113.979 Y125.328 E.03913
G1 X112.925 Y125.563 E.04021
G1 X111.858 Y125.726 E.04021
G1 X111.346 Y125.778 E.01919
G1 X110.258 Y125.833 E.04057
G1 X109.742 Y125.833 E.01919
G1 X108.654 Y125.778 E.04057
G1 X108.142 Y125.726 E.01919
G1 X107.228 Y125.586 E.03444
G1 X107.119 Y126.032 F9000
G1 F900
G1 X106.984 Y126.011 E.00507
G1 X105.853 Y125.755 E.04323
G1 X104.857 Y125.46 E.03869
G1 X104.28 Y125.254 E.0228
G1 X103.319 Y124.86 E.03869
G1 X102.766 Y124.597 E.0228
G1 X101.849 Y124.107 E.03874
G1 X101.387 Y123.83 E.02007
G1 X100.463 Y123.21 E.04144
G1 X100.032 Y122.888 E.02006
G1 X99.176 Y122.177 E.04143
G1 X98.779 Y121.813 E.02005
G1 X98 Y121.021 E.04138
G1 X97.596 Y120.562 E.02279
G1 X96.95 Y119.754 E.03851
G1 X96.318 Y118.846 E.04123
G1 X96.03 Y118.385 E.02023
G1 X95.724 Y117.849 E.02301
G1 X95.254 Y116.928 E.03848
G1 X94.794 Y115.848 E.04374
G1 X94.453 Y114.872 E.03851
G1 X94.146 Y113.752 E.04324
G1 X93.938 Y112.735 E.03869
G1 X93.848 Y112.129 E.0228
G1 X93.744 Y111.096 E.03869
G1 X93.716 Y110.484 E.0228
G1 X93.717 Y109.45 E.03852
G1 X93.791 Y108.346 E.04123
G1 X93.938 Y107.267 E.04055
G1 X94.161 Y106.183 E.04121
G1 X94.456 Y105.117 E.04121
G1 X94.628 Y104.602 E.02023
G1 X94.844 Y104.023 E.02301
G1 X95.255 Y103.069 E.03869
G1 X95.527 Y102.52 E.0228
G1 X96.033 Y101.612 E.03874
G1 X96.318 Y101.154 E.02007
G1 X96.952 Y100.242 E.04138
G1 X97.329 Y99.76 E.02279
G1 X98.003 Y98.976 E.03851
G1 X98.779 Y98.187 E.04123
G1 X99.176 Y97.823 E.02005
G1 X100.032 Y97.112 E.04143
G1 X100.463 Y96.79 E.02005
G1 X101.386 Y96.171 E.04138
G1 X101.911 Y95.858 E.02279
G1 X102.824 Y95.373 E.03852
G1 X103.834 Y94.919 E.04123
G1 X104.341 Y94.721 E.02027
G1 X104.855 Y94.541 E.02028
M73 P2 R17
G1 X105.916 Y94.228 E.04121
M73 P2 R17
G1 X106.996 Y93.987 E.04121
G1 X107.533 Y93.895 E.02028
G1 X108.072 Y93.822 E.02028
G1 X109.174 Y93.728 E.04117
G1 X110.347 Y93.712 E.04372
G1 X111.38 Y93.766 E.0385
G1 X111.916 Y93.82 E.02007
G1 X113.016 Y93.989 E.04144
G1 X113.549 Y94.098 E.02028
G1 X114.078 Y94.226 E.02027
G1 X115.139 Y94.539 E.04121
G1 X116.177 Y94.924 E.04121
G1 X116.677 Y95.138 E.02028
G1 X117.17 Y95.37 E.02028
G1 X118.152 Y95.893 E.04144
G1 X118.613 Y96.17 E.02005
G1 X119.537 Y96.79 E.04144
G1 X119.968 Y97.112 E.02006
G1 X120.824 Y97.823 E.04143
G1 X121.221 Y98.187 E.02005
G1 X122 Y98.979 E.04138
G1 X122.404 Y99.438 E.02279
G1 X123.05 Y100.246 E.03851
G1 X123.682 Y101.154 E.04123
G1 X123.97 Y101.616 E.02028
G1 X124.243 Y102.088 E.02027
G1 X124.746 Y103.072 E.04117
G1 X125.206 Y104.152 E.04372
G1 X125.547 Y105.128 E.0385
G1 X125.854 Y106.248 E.04324
G1 X126.062 Y107.265 E.03869
G1 X126.152 Y107.871 E.0228
G1 X126.262 Y109.045 E.04394
G1 X126.284 Y109.643 E.02227
G1 X126.283 Y110.55 E.03378
G1 X126.209 Y111.654 E.04123
G1 X126.062 Y112.733 E.04055
G1 X125.839 Y113.817 E.04121
G1 X125.545 Y114.877 E.04099
G1 X125.179 Y115.921 E.04121
G1 X124.975 Y116.42 E.02005
G1 X124.502 Y117.427 E.04144
G1 X124.248 Y117.902 E.02005
G1 X123.676 Y118.856 E.04143
G1 X123.054 Y119.749 E.04055
G1 X122.358 Y120.617 E.04144
G1 X122.001 Y121.02 E.02005
G1 X121.221 Y121.813 E.04143
G1 X120.824 Y122.177 E.02005
G1 X119.968 Y122.888 E.04144
G1 X119.537 Y123.21 E.02005
G1 X118.618 Y123.827 E.04121
G1 X117.66 Y124.38 E.04121
G1 X117.182 Y124.625 E.02001
G1 X116.104 Y125.105 E.04394
G1 X115.134 Y125.463 E.0385
G1 X114.09 Y125.771 E.04056
G1 X113.01 Y126.012 E.04121
G1 X111.916 Y126.18 E.04121
G1 X111.38 Y126.234 E.02005
G1 X110.269 Y126.29 E.04144
G1 X109.731 Y126.29 E.02005
G1 X108.62 Y126.234 E.04144
G1 X108.084 Y126.18 E.02005
G1 X107.159 Y126.038 E.03487
G1 X107.05 Y126.484 F9000
;TYPE:Outer wall
G1 F900
G1 X106.904 Y126.461 E.0055
G1 X105.733 Y126.196 E.04471
G1 X104.715 Y125.894 E.03955
G1 X104.116 Y125.681 E.02367
G1 X103.134 Y125.278 E.03955
G1 X102.56 Y125.006 E.02367
G1 X101.623 Y124.505 E.03957
G1 X101.142 Y124.216 E.02092
G1 X100.199 Y123.583 E.0423
G1 X99.749 Y123.247 E.02092
G1 X98.875 Y122.522 E.0423
G1 X98.461 Y122.142 E.02092
G1 X97.666 Y121.332 E.04228
G1 X97.245 Y120.856 E.02366
G1 X96.583 Y120.028 E.03949
G1 X95.936 Y119.097 E.04223
G1 X95.638 Y118.619 E.02098
G1 X95.321 Y118.066 E.02374
G1 X94.84 Y117.122 E.03948
G1 X94.368 Y116.013 E.04489
G1 X94.018 Y115.012 E.03949
G1 X93.701 Y113.855 E.04471
G1 X93.488 Y112.814 E.03955
G1 X93.394 Y112.186 E.02366
G1 X93.288 Y111.129 E.03955
G1 X93.258 Y110.495 E.02366
G1 X93.26 Y109.434 E.03949
G1 X93.336 Y108.303 E.04222
G1 X93.488 Y107.186 E.04199
G1 X93.716 Y106.076 E.04222
G1 X94.019 Y104.984 E.04222
G1 X94.197 Y104.449 E.02098
G1 X94.42 Y103.852 E.02374
G1 X94.84 Y102.877 E.03955
G1 X95.122 Y102.308 E.02367
G1 X95.639 Y101.38 E.03957
G1 X95.936 Y100.903 E.02092
G1 X96.584 Y99.971 E.04228
G1 X96.975 Y99.47 E.02366
G1 X97.667 Y98.667 E.03949
G1 X98.461 Y97.858 E.04223
G1 X98.875 Y97.478 E.02092
G1 X99.749 Y96.753 E.0423
G1 X100.199 Y96.417 E.02092
G1 X101.141 Y95.784 E.04228
G1 X101.687 Y95.46 E.02366
G1 X102.623 Y94.962 E.03949
G1 X103.657 Y94.497 E.04223
G1 X104.183 Y94.293 E.02099
G1 X104.715 Y94.106 E.021
G1 X105.802 Y93.785 E.04222
G1 X106.908 Y93.538 E.04222
G1 X107.464 Y93.443 E.02099
G1 X108.022 Y93.367 E.021
G1 X109.151 Y93.272 E.0422
G1 X110.356 Y93.255 E.04488
G1 X111.415 Y93.31 E.03949
G1 X111.974 Y93.367 E.02092
G1 X113.096 Y93.539 E.0423
G1 X113.648 Y93.652 E.021
G1 X114.196 Y93.784 E.02099
G1 X115.283 Y94.105 E.04222
G1 X116.346 Y94.499 E.04222
G1 X116.864 Y94.721 E.02099
