; HEADER_BLOCK_START
; generated by OrcaSlicer 2.0.0 on 2024-06-06 at 08:44:51
; total layer number: 295
; filament_density: 1.27
; filament_diameter: 1.75
; max_z_height: 59.00
; HEADER_BLOCK_END

; THUMBNAIL_BLOCK_START

;
; THUMBNAIL_BLOCK_END

; external perimeters extrusion width = 0.40mm
; perimeters extrusion width = 0.45mm
; infill extrusion width = 0.45mm
; solid infill extrusion width = 0.40mm
; top infill extrusion width = 0.40mm
; support material extrusion width = 0.40mm
; first layer extrusion width = 0.50mm

; EXECUTABLE_BLOCK_START
EXCLUDE_OBJECT_DEFINE NAME=shaker_siphon.stl_id_0_copy_0 CENTER=110,110 POLYGON=[[98,110],[98.0657,108.746],[98.2622,107.505],[98.5873,106.292],[99.0375,105.119],[99.6077,104],[100.292,102.947],[101.082,101.97],[101.97,101.082],[102.947,100.292],[104,99.6077],[105.119,99.0375],[106.292,98.5873],[107.505,98.2622],[108.746,98.0657],[110,98],[111.254,98.0657],[112.495,98.2622],[113.708,98.5873],[114.881,99.0375],[116,99.6077],[117.053,100.292],[118.03,101.082],[118.918,101.97],[119.708,102.947],[120.392,104],[120.963,105.119],[121.413,106.292],[121.738,107.505],[121.934,108.746],[122,110],[121.934,111.254],[121.738,112.495],[121.413,113.708],[120.963,114.881],[120.392,116],[119.708,117.053],[118.918,118.03],[118.03,118.918],[117.053,119.708],[116,120.392],[114.881,120.963],[113.708,121.413],[112.495,121.738],[111.254,121.934],[110,122],[108.746,121.934],[107.505,121.738],[106.292,121.413],[105.119,120.963],[104,120.392],[102.947,119.708],[101.97,118.918],[101.082,118.03],[100.292,117.053],[99.6077,116],[99.0375,114.881],[98.5873,113.708],[98.2622,112.495],[98.0657,111.254],[98,110]]
M73 P0 R65
;TYPE:Custom
M117 ; clear display for KAMP meshing
START_PRINT BED_TEMP=80 EXTRUDER_TEMP=255
G90
G21
M83 ; use relative distances for extrusion
; filament start gcode
M106 S0
;LAYER_CHANGE
;Z:0.2
;HEIGHT:0.2
;BEFORE_LAYER_CHANGE
;0.2
G92 E0

G1 E-5 F3600
;_SET_FAN_SPEED_CHANGING_LAYER
SET_VELOCITY_LIMIT ACCEL=500 ACCEL_TO_DECEL=250
; printing object shaker_siphon.stl id:0 copy 0
EXCLUDE_OBJECT_START NAME=shaker_siphon.stl_id_0_copy_0
G1 Z.4 F9000
G1 X101.601 Y101.462
G1 Z.4
G1 Z.2
G1 E5 F2400
;TYPE:Brim
;WIDTH:0.5
G1 F900
G1 X101.804 Y101.258 E.01039
G1 X102.15 Y100.946 E.01684
G1 X102.763 Y100.449 E.02846
G1 X103.14 Y100.175 E.01684
G1 X103.801 Y99.745 E.02846
G1 X104.204 Y99.512 E.01684
G1 X104.906 Y99.153 E.02846
G1 X105.332 Y98.963 E.01684
G1 X106.068 Y98.68 E.02846
G1 X106.512 Y98.536 E.01684
G1 X107.273 Y98.331 E.02846
G1 X107.729 Y98.234 E.01684
G1 X108.507 Y98.11 E.02845
G1 X108.981 Y98.061 E.01721
G1 X109.792 Y98.019 E.02929
G1 X110.251 Y98.02 E.01659
G1 X111.015 Y98.06 E.02763
G1 X111.476 Y98.108 E.01673
G1 X112.255 Y98.231 E.02846
G1 X112.711 Y98.328 E.01684
G1 X113.473 Y98.531 E.02846
G1 X113.916 Y98.675 E.01684
G1 X114.652 Y98.957 E.02846
G1 X115.079 Y99.146 E.01684
G1 X115.781 Y99.504 E.02846
G1 X116.185 Y99.737 E.01684
G1 X116.847 Y100.166 E.02846
G1 X117.224 Y100.439 E.01684
G1 X117.837 Y100.935 E.02846
G1 X118.184 Y101.247 E.01684
G1 X118.742 Y101.804 E.02846
G1 X119.054 Y102.15 E.01684
G1 X119.551 Y102.763 E.02846
G1 X119.825 Y103.14 E.01684
G1 X120.255 Y103.801 E.02846
G1 X120.488 Y104.204 E.01684
G1 X120.847 Y104.906 E.02846
G1 X121.037 Y105.332 E.01684
G1 X121.32 Y106.068 E.02846
G1 X121.464 Y106.512 E.01684
G1 X121.669 Y107.273 E.02846
G1 X121.766 Y107.729 E.01684
G1 X121.89 Y108.508 E.02846
G1 X121.939 Y108.971 E.01684
G1 X121.981 Y109.759 E.02846
G1 X121.981 Y110.225 E.01684
G1 X121.94 Y111.012 E.02846
G1 X121.892 Y111.476 E.01684
G1 X121.769 Y112.255 E.02846
G1 X121.672 Y112.711 E.01684
G1 X121.469 Y113.473 E.02846
G1 X121.325 Y113.916 E.01684
G1 X121.043 Y114.652 E.02846
G1 X120.854 Y115.079 E.01684
G1 X120.496 Y115.781 E.02846
G1 X120.263 Y116.185 E.01684
G1 X119.834 Y116.847 E.02846
G1 X119.561 Y117.224 E.01684
G1 X119.065 Y117.837 E.02846
G1 X118.753 Y118.184 E.01684
G1 X118.196 Y118.742 E.02846
G1 X117.85 Y119.054 E.01684
G1 X117.237 Y119.551 E.02846
G1 X116.86 Y119.825 E.01684
G1 X116.199 Y120.255 E.02846
G1 X115.796 Y120.488 E.01684
G1 X115.094 Y120.847 E.02846
G1 X114.668 Y121.037 E.01684
G1 X113.944 Y121.315 E.02801
G1 X113.507 Y121.458 E.01659
G1 X112.734 Y121.667 E.0289
G1 X112.271 Y121.766 E.0171
G1 X111.493 Y121.89 E.02846
G1 X111.029 Y121.939 E.01685
G1 X110.241 Y121.981 E.02846
G1 X109.775 Y121.981 E.01684
G1 X108.988 Y121.94 E.02846
G1 X108.524 Y121.892 E.01684
G1 X107.745 Y121.769 E.02846
G1 X107.289 Y121.672 E.01684
G1 X106.527 Y121.469 E.02846
G1 X106.084 Y121.325 E.01684
G1 X105.348 Y121.043 E.02846
G1 X104.921 Y120.854 E.01684
G1 X104.219 Y120.496 E.02846
G1 X103.815 Y120.263 E.01684
G1 X103.153 Y119.834 E.02846
G1 X102.776 Y119.561 E.01684
G1 X102.163 Y119.065 E.02846
G1 X101.816 Y118.753 E.01684
G1 X101.258 Y118.196 E.02846
G1 X100.946 Y117.85 E.01684
G1 X100.449 Y117.237 E.02846
G1 X100.175 Y116.86 E.01684
G1 X99.745 Y116.199 E.02846
G1 X99.512 Y115.796 E.01684
G1 X99.153 Y115.094 E.02846
G1 X98.963 Y114.668 E.01684
G1 X98.68 Y113.932 E.02846
G1 X98.536 Y113.488 E.01684
G1 X98.331 Y112.727 E.02846
G1 X98.234 Y112.271 E.01684
G1 X98.11 Y111.492 E.02846
G1 X98.061 Y111.029 E.01684
G1 X98.019 Y110.241 E.02846
G1 X98.019 Y109.775 E.01684
G1 X98.06 Y108.988 E.02846
G1 X98.108 Y108.524 E.01684
G1 X98.231 Y107.745 E.02846
G1 X98.328 Y107.289 E.01684
G1 X98.531 Y106.527 E.02846
G1 X98.675 Y106.084 E.01684
G1 X98.957 Y105.348 E.02846
G1 X99.146 Y104.921 E.01684
G1 X99.504 Y104.219 E.02846
G1 X99.737 Y103.815 E.01684
G1 X100.166 Y103.153 E.02846
G1 X100.439 Y102.776 E.01684
G1 X100.935 Y102.163 E.02846
G1 X101.247 Y101.816 E.01684
G1 X101.572 Y101.49 E.01663
G1 X101.896 Y101.813 F9000
G1 F900
G1 X102.116 Y101.592 E.01127
G1 X102.45 Y101.291 E.01624
G1 X103.044 Y100.81 E.02759
G1 X103.402 Y100.55 E.01598
G1 X104.043 Y100.133 E.0276
G1 X104.426 Y99.912 E.01598
G1 X105.107 Y99.564 E.0276
G1 X105.511 Y99.384 E.01598
G1 X106.218 Y99.113 E.02734
G1 X106.645 Y98.973 E.01624
G1 X107.383 Y98.775 E.0276
G1 X107.816 Y98.683 E.01598
G1 X108.564 Y98.564 E.02732
G1 X109.021 Y98.516 E.01659
G1 X109.799 Y98.477 E.02816
G1 X110.235 Y98.477 E.01573
G1 X110.976 Y98.516 E.02678
G1 X111.413 Y98.561 E.01587
G1 X112.168 Y98.68 E.0276
G1 X112.601 Y98.772 E.01598
G1 X113.34 Y98.969 E.02759
G1 X113.761 Y99.105 E.01598
G1 X114.474 Y99.378 E.0276
G1 X114.879 Y99.558 E.01598
G1 X115.56 Y99.904 E.0276
G1 X115.944 Y100.125 E.01598
G1 X116.591 Y100.545 E.02785
G1 X116.949 Y100.805 E.01598
G1 X117.543 Y101.285 E.0276
G1 X117.872 Y101.581 E.01598
G1 X118.408 Y102.116 E.02733
G1 X118.709 Y102.45 E.01624
G1 X119.19 Y103.044 E.02759
G1 X119.45 Y103.402 E.01598
G1 X119.863 Y104.037 E.02734
G1 X120.088 Y104.426 E.01624
G1 X120.432 Y105.1 E.02734
G1 X120.616 Y105.511 E.01624
G1 X120.887 Y106.218 E.02734
G1 X121.025 Y106.638 E.01598
G1 X121.223 Y107.376 E.0276
G1 X121.316 Y107.809 E.01598
G1 X121.436 Y108.564 E.02759
G1 X121.483 Y109.004 E.01598
G1 X121.523 Y109.767 E.0276
G1 X121.524 Y110.21 E.01598
G1 X121.485 Y110.973 E.02759
G1 X121.439 Y111.413 E.01598
G1 X121.32 Y112.168 E.0276
G1 X121.228 Y112.601 E.01598
G1 X121.029 Y113.346 E.02785
G1 X120.893 Y113.767 E.01598
G1 X120.619 Y114.481 E.0276
G1 X120.439 Y114.885 E.01598
G1 X120.092 Y115.566 E.0276
G1 X119.871 Y115.95 E.01598
G1 X119.455 Y116.591 E.02759
G1 X119.195 Y116.949 E.01598
G1 X118.715 Y117.543 E.0276
G1 X118.419 Y117.872 E.01598
G1 X117.884 Y118.408 E.02734
G1 X117.55 Y118.709 E.01624
G1 X116.962 Y119.186 E.02734
G1 X116.598 Y119.45 E.01624
G1 X115.963 Y119.863 E.02734
G1 X115.58 Y120.085 E.01598
G1 X114.9 Y120.432 E.02759
G1 X114.489 Y120.616 E.01623
G1 X113.794 Y120.883 E.0269
G1 X113.38 Y121.019 E.01573
G1 X112.63 Y121.221 E.02804
G1 X112.191 Y121.316 E.01622
G1 X111.436 Y121.436 E.02759
G1 X110.996 Y121.483 E.01598
G1 X110.233 Y121.523 E.0276
G1 X109.79 Y121.524 E.01598
G1 X109.027 Y121.485 E.0276
G1 X108.587 Y121.439 E.01598
G1 X107.832 Y121.32 E.02759
G1 X107.399 Y121.228 E.01598
G1 X106.654 Y121.029 E.02785
G1 X106.233 Y120.893 E.01598
G1 X105.519 Y120.619 E.0276
G1 X105.115 Y120.439 E.01598
G1 X104.434 Y120.092 E.0276
G1 X104.05 Y119.871 E.01598
G1 X103.409 Y119.455 E.02759
G1 X103.051 Y119.195 E.01598
G1 X102.457 Y118.715 E.02759
G1 X102.128 Y118.419 E.01598
G1 X101.592 Y117.884 E.02733
G1 X101.291 Y117.55 E.01624
G1 X100.81 Y116.956 E.02759
G1 X100.55 Y116.598 E.01598
G1 X100.137 Y115.963 E.02734
G1 X99.912 Y115.574 E.01624
G1 X99.568 Y114.9 E.02734
G1 X99.384 Y114.489 E.01624
G1 X99.113 Y113.782 E.02734
G1 X98.975 Y113.362 E.01598
G1 X98.777 Y112.624 E.0276
G1 X98.684 Y112.191 E.01598
G1 X98.564 Y111.436 E.02759
G1 X98.517 Y110.996 E.01598
G1 X98.477 Y110.233 E.0276
G1 X98.476 Y109.79 E.01598
G1 X98.515 Y109.027 E.0276
G1 X98.561 Y108.587 E.01598
G1 X98.68 Y107.832 E.02759
G1 X98.772 Y107.399 E.01598
G1 X98.971 Y106.654 E.02785
G1 X99.107 Y106.233 E.01598
G1 X99.381 Y105.519 E.0276
G1 X99.561 Y105.115 E.01598
G1 X99.908 Y104.434 E.0276
G1 X100.129 Y104.05 E.01598
G1 X100.545 Y103.409 E.02759
G1 X100.805 Y103.051 E.01598
G1 X101.285 Y102.457 E.02759
G1 X101.581 Y102.128 E.01598
G1 X101.868 Y101.841 E.01462
G1 X102.191 Y102.164 F9000
G1 F900
G1 X102.429 Y101.926 E.01215
G1 X102.75 Y101.636 E.01563
G1 X103.326 Y101.17 E.02673
G1 X103.664 Y100.924 E.01511
G1 X104.285 Y100.521 E.02673
G1 X104.648 Y100.312 E.01511
G1 X105.307 Y99.976 E.02673
G1 X105.69 Y99.805 E.01511
G1 X106.367 Y99.545 E.02622
G1 X106.779 Y99.411 E.01563
G1 X107.494 Y99.219 E.02673
G1 X107.903 Y99.132 E.01512
G1 X108.62 Y99.018 E.02619
G1 X109.06 Y98.972 E.01597
G1 X109.807 Y98.934 E.02704
G1 X110.22 Y98.934 E.01488
G1 X110.937 Y98.971 E.02592
G1 X111.35 Y99.014 E.01502
G1 X112.082 Y99.129 E.02674
G1 X112.491 Y99.216 E.01511
G1 X113.207 Y99.406 E.02673
G1 X113.605 Y99.535 E.01511
G1 X114.296 Y99.8 E.02673
G1 X114.679 Y99.969 E.01511
G1 X115.339 Y100.305 E.02673
G1 X115.702 Y100.513 E.01511
G1 X116.335 Y100.924 E.02724
G1 X116.674 Y101.17 E.01511
G1 X117.249 Y101.636 E.02673
G1 X117.56 Y101.916 E.01512
G1 X118.074 Y102.429 E.02621
G1 X118.364 Y102.75 E.01563
G1 X118.83 Y103.326 E.02673
G1 X119.076 Y103.664 E.01511
G1 X119.472 Y104.273 E.02622
G1 X119.688 Y104.648 E.01563
G1 X120.018 Y105.294 E.02621
G1 X120.195 Y105.69 E.01563
G1 X120.455 Y106.367 E.02622
G1 X120.585 Y106.765 E.01511
G1 X120.778 Y107.48 E.02673
G1 X120.865 Y107.89 E.01511
G1 X120.982 Y108.621 E.02673
G1 X121.027 Y109.037 E.01511
G1 X121.066 Y109.776 E.02673
G1 X121.067 Y110.195 E.01511
G1 X121.029 Y110.934 E.02673
G1 X120.986 Y111.35 E.01511
G1 X120.871 Y112.082 E.02673
G1 X120.784 Y112.491 E.01511
G1 X120.59 Y113.22 E.02724
G1 X120.46 Y113.618 E.01511
G1 X120.195 Y114.309 E.02673
G1 X120.025 Y114.692 E.01511
G1 X119.689 Y115.352 E.02673
G1 X119.479 Y115.714 E.01511
G1 X119.076 Y116.335 E.02673
G1 X118.83 Y116.674 E.01511
G1 X118.364 Y117.249 E.02673
G1 X118.084 Y117.56 E.01511
G1 X117.571 Y118.074 E.02622
G1 X117.25 Y118.364 E.01563
G1 X116.686 Y118.821 E.02621
G1 X116.336 Y119.076 E.01563
G1 X115.727 Y119.472 E.02622
G1 X115.365 Y119.681 E.01511
G1 X114.706 Y120.018 E.02673
G1 X114.31 Y120.195 E.01563
G1 X113.644 Y120.451 E.02578
G1 X113.252 Y120.579 E.01488
G1 X112.526 Y120.776 E.02717
G1 X112.11 Y120.865 E.01534
G1 X111.379 Y120.982 E.02672
G1 X110.963 Y121.027 E.01512
G1 X110.224 Y121.066 E.02673
G1 X109.805 Y121.067 E.01511
G1 X109.066 Y121.029 E.02673
G1 X108.65 Y120.986 E.01511
G1 X107.918 Y120.871 E.02673
G1 X107.509 Y120.784 E.01511
G1 X106.78 Y120.59 E.02724
G1 X106.382 Y120.46 E.01511
G1 X105.691 Y120.195 E.02673
G1 X105.308 Y120.025 E.01511
G1 X104.648 Y119.689 E.02673
G1 X104.286 Y119.479 E.01511
G1 X103.665 Y119.076 E.02673
G1 X103.326 Y118.83 E.01511
G1 X102.751 Y118.364 E.02673
G1 X102.44 Y118.084 E.01512
G1 X101.926 Y117.571 E.02621
G1 X101.636 Y117.25 E.01563
G1 X101.17 Y116.674 E.02673
G1 X100.924 Y116.336 E.01511
G1 X100.528 Y115.727 E.02622
G1 X100.312 Y115.352 E.01563
G1 X99.982 Y114.706 E.02621
G1 X99.805 Y114.31 E.01563
G1 X99.545 Y113.633 E.02622
G1 X99.415 Y113.235 E.01511
G1 X99.222 Y112.52 E.02673
G1 X99.135 Y112.11 E.01511
G1 X99.018 Y111.379 E.02673
G1 X98.973 Y110.963 E.01511
G1 X98.934 Y110.224 E.02673
G1 X98.933 Y109.805 E.01511
G1 X98.971 Y109.066 E.02673
G1 X99.014 Y108.65 E.01511
G1 X99.129 Y107.918 E.02673
G1 X99.216 Y107.509 E.01511
G1 X99.41 Y106.78 E.02724
G1 X99.54 Y106.382 E.01511
G1 X99.805 Y105.691 E.02673
G1 X99.975 Y105.308 E.01511
G1 X100.311 Y104.648 E.02673
G1 X100.521 Y104.286 E.01511
G1 X100.924 Y103.665 E.02673
G1 X101.17 Y103.326 E.01511
G1 X101.636 Y102.751 E.02673
G1 X101.916 Y102.44 E.01512
G1 X102.163 Y102.193 E.01262
G1 X102.486 Y102.516 F9000
G1 F900
G1 X102.741 Y102.26 E.01303
G1 X103.05 Y101.982 E.01502
G1 X103.607 Y101.531 E.02585
G1 X103.926 Y101.299 E.01425
G1 X104.527 Y100.909 E.02587
G1 X104.869 Y100.712 E.01425
G1 X105.507 Y100.387 E.02587
G1 X105.868 Y100.227 E.01425
G1 X106.517 Y99.977 E.0251
G1 X106.912 Y99.848 E.01502
G1 X107.604 Y99.663 E.02585
G1 X107.99 Y99.581 E.01425
G1 X108.676 Y99.472 E.02506
G1 X109.099 Y99.428 E.01535
G1 X109.816 Y99.391 E.02592
G1 X110.211 Y99.391 E.01429
G1 X110.898 Y99.427 E.02481
G1 X111.288 Y99.467 E.01416
G1 X111.996 Y99.578 E.02587
G1 X112.382 Y99.66 E.01425
G1 X113.074 Y99.844 E.02587
G1 X113.45 Y99.965 E.01425
G1 X114.119 Y100.221 E.02587
G1 X114.48 Y100.381 E.01424
G1 X115.118 Y100.705 E.02587
G1 X115.46 Y100.902 E.01424
G1 X116.079 Y101.303 E.02663
G1 X116.398 Y101.535 E.01424
G1 X116.955 Y101.986 E.02587
G1 X117.248 Y102.25 E.01425
G1 X117.74 Y102.741 E.0251
G1 X118.018 Y103.05 E.01502
G1 X118.469 Y103.607 E.02585
G1 X118.701 Y103.926 E.01425
G1 X119.08 Y104.509 E.0251
G1 X119.288 Y104.869 E.01503
G1 X119.604 Y105.488 E.02509
G1 X119.774 Y105.868 E.01503
G1 X120.023 Y106.517 E.0251
G1 X120.146 Y106.892 E.01425
G1 X120.332 Y107.584 E.02587
G1 X120.415 Y107.97 E.01425
G1 X120.528 Y108.677 E.02587
G1 X120.57 Y109.07 E.01425
G1 X120.609 Y109.785 E.02587
G1 X120.61 Y110.18 E.01425
G1 X120.573 Y110.895 E.02587
G1 X120.533 Y111.288 E.01425
G1 X120.422 Y111.996 E.02587
G1 X120.341 Y112.381 E.01424
G1 X120.15 Y113.094 E.02663
G1 X120.028 Y113.469 E.01424
G1 X119.771 Y114.138 E.02587
G1 X119.61 Y114.498 E.01425
G1 X119.285 Y115.136 E.02587
G1 X119.088 Y115.478 E.01425
G1 X118.697 Y116.079 E.02587
G1 X118.465 Y116.398 E.01425
G1 X118.014 Y116.955 E.02587
G1 X117.75 Y117.248 E.01425
G1 X117.259 Y117.74 E.02511
G1 X116.95 Y118.019 E.01502
G1 X116.404 Y118.461 E.02535
G1 X116.073 Y118.701 E.01477
G1 X115.491 Y119.08 E.0251
G1 X115.143 Y119.282 E.01451
G1 X114.512 Y119.604 E.02559
G1 X114.129 Y119.774 E.01511
G1 X113.118 Y120.142 E.03887
G1 X112.421 Y120.331 E.02604
G1 X112.03 Y120.415 E.01446
G1 X111.323 Y120.528 E.02586
G1 X110.93 Y120.57 E.01425
G1 X110.215 Y120.609 E.02587
G1 X109.82 Y120.61 E.01425
G1 X109.105 Y120.573 E.02587
G1 X108.712 Y120.533 E.01425
G1 X108.004 Y120.422 E.02587
G1 X107.619 Y120.341 E.01424
G1 X106.906 Y120.15 E.02663
G1 X106.531 Y120.028 E.01424
G1 X105.862 Y119.771 E.02587
M73 P0 R64
G1 X105.502 Y119.61 E.01425
G1 X104.864 Y119.285 E.02587
G1 X104.522 Y119.088 E.01425
G1 X103.921 Y118.697 E.02587
G1 X103.602 Y118.465 E.01425
G1 X103.045 Y118.014 E.02587
G1 X102.752 Y117.75 E.01425
G1 X102.26 Y117.259 E.0251
G1 X101.982 Y116.95 E.01502
G1 X101.531 Y116.393 E.02585
G1 X101.299 Y116.074 E.01425
G1 X100.92 Y115.491 E.0251
G1 X100.712 Y115.131 E.01503
G1 X100.396 Y114.512 E.02509
G1 X100.226 Y114.132 E.01503
G1 X99.977 Y113.483 E.0251
G1 X99.854 Y113.108 E.01425
G1 X99.668 Y112.416 E.02587
G1 X99.585 Y112.03 E.01425
G1 X99.472 Y111.323 E.02587
G1 X99.43 Y110.93 E.01425
G1 X99.391 Y110.215 E.02587
G1 X99.39 Y109.82 E.01425
G1 X99.427 Y109.105 E.02587
G1 X99.467 Y108.712 E.01425
G1 X99.578 Y108.004 E.02587
G1 X99.659 Y107.619 E.01424
G1 X99.85 Y106.906 E.02663
G1 X99.972 Y106.531 E.01424
G1 X100.229 Y105.862 E.02587
G1 X100.39 Y105.502 E.01425
G1 X100.715 Y104.864 E.02587
G1 X100.912 Y104.522 E.01425
G1 X101.303 Y103.921 E.02587
G1 X101.535 Y103.602 E.01425
G1 X101.986 Y103.045 E.02587
G1 X102.25 Y102.752 E.01425
G1 X102.458 Y102.544 E.01062
