; HEADER_BLOCK_START
; generated by OrcaSlicer 1.9.0 on 2024-02-10 at 10:56:46
; total layer number: 7
; filament_density: 1.27
; filament_diameter: 1.75
; max_z_height: 1.40
; HEADER_BLOCK_END

; THUMBNAIL_BLOCK_START

;
; THUMBNAIL_BLOCK_END

; THUMBNAIL_BLOCK_START

;
; THUMBNAIL_BLOCK_END

; external perimeters extrusion width = 0.40mm
; perimeters extrusion width = 0.45mm
; infill extrusion width = 0.45mm
; solid infill extrusion width = 0.40mm
; top infill extrusion width = 0.40mm
; support material extrusion width = 0.40mm
; first layer extrusion width = 0.50mm

; EXECUTABLE_BLOCK_START
EXCLUDE_OBJECT_DEFINE NAME=CowBookmark.stl_id_0_copy_0 CENTER=110,110 POLYGON=[[82.9066,156.936],[82.9164,156.551],[82.9454,156.171],[82.9931,155.796],[83.0591,155.427],[100.015,67.3738],[100.06,67.2055],[100.134,67.0475],[109.134,51.459],[109.234,51.3162],[109.357,51.193],[109.5,51.093],[109.658,51.0193],[109.826,50.9742],[110,50.959],[110.174,50.9742],[110.342,51.0193],[110.5,51.093],[110.643,51.193],[110.766,51.3162],[110.866,51.459],[119.866,67.0475],[119.94,67.2055],[119.985,67.3738],[136.941,155.427],[137.007,155.796],[137.055,156.171],[137.084,156.551],[137.093,156.936],[137.093,161.124],[137.078,161.298],[137.033,161.466],[136.959,161.624],[136.859,161.767],[136.736,161.89],[136.593,161.99],[136.435,162.064],[118.462,168.875],[118.177,168.97],[117.884,169.024],[117.582,169.041],[102.307,169.041],[102.004,169.021],[101.711,168.963],[101.426,168.865],[83.5646,162.063],[83.4066,161.99],[83.2638,161.89],[83.1406,161.767],[83.0406,161.624],[82.9669,161.466],[82.9218,161.297],[82.9066,161.124],[82.9066,156.936]]
M73 P0 R28
;TYPE:Custom
M117 ; clear display for KAMP meshing
START_PRINT BED_TEMP=75 EXTRUDER_TEMP=240
G90
G21
M83 ; use relative distances for extrusion
; filament start gcode
SET_PRESSURE_ADVANCE ADVANCE=0.018; Override pressure advance value
M106 S0
;LAYER_CHANGE
;Z:0.2
;HEIGHT:0.2
;BEFORE_LAYER_CHANGE
;0.2
G92 E0

G10 ; retract
;_SET_FAN_SPEED_CHANGING_LAYER
SET_VELOCITY_LIMIT ACCEL=500 ACCEL_TO_DECEL=250
G1 Z.4 F9000
G1 X101.978 Y58.947
G1 Z.2
G11 ; unretract
;TYPE:Skirt
;WIDTH:0.5
G1 F3000
G1 X107.121 Y50.05 E.38961
G1 X107.62 Y49.456 E.0294
G1 X108.461 Y48.866 E.03896
G1 X109.19 Y48.601 E.02941
G1 X110.227 Y48.512 E.03942
G1 X110.978 Y48.646 E.02893
G1 X111.909 Y49.08 E.03896
G1 X112.38 Y49.456 E.02283
G1 X112.879 Y50.05 E.0294
G1 X121.994 Y65.819 E.69052
G1 X122.358 Y66.738 E.03748
G1 X139.359 Y154.994 E3.40743
G1 X139.54 Y156.488 E.05706
G1 X139.541 Y161.338 E.18386
G1 X139.406 Y162.102 E.02941
G1 X138.972 Y163.033 E.03896
G1 X138.474 Y163.627 E.0294
G1 X137.632 Y164.217 E.03896
G1 X118.951 Y171.302 E.75743
G1 X117.582 Y171.498 E.05243
G1 X101.849 Y171.473 E.59648
G1 X100.552 Y171.162 E.05056
G1 X82.69 Y164.36 E.7246
G1 X81.854 Y163.902 E.03611
G1 X81.403 Y163.504 E.02283
G1 X81.028 Y163.033 E.02283
G1 X80.74 Y162.504 E.02283
G1 X80.548 Y161.933 E.02283
G1 X80.45 Y161.124 E.03092
G1 X80.466 Y156.364 E.18046
G1 X80.646 Y154.963 E.05355
G1 X97.687 Y66.57 E3.4128
G1 X98.006 Y65.819 E.03092
G1 X101.958 Y58.982 E.2994
; printing object CowBookmark.stl id:0 copy 0
G10 ; retract
EXCLUDE_OBJECT_START NAME=CowBookmark.stl_id_0_copy_0
G1 Z.6 F9000
G1 X94.491 Y156.536 Z.6
G1 Z.2
G11 ; unretract
;TYPE:Inner wall
;WIDTH:0.499999
G1 F900
G1 X94.31 Y156.618 E.00753
G1 X93.941 Y157.058 E.02178
G1 X93.704 Y157.554 E.02084
G1 X93.223 Y158.331 E.03463
G1 X92.701 Y158.961 E.03105
G1 X92.315 Y159.34 E.02051
G1 X91.694 Y159.829 E.02996
G1 X91.208 Y160.137 E.02178
G1 X90.42 Y160.515 E.03315
G1 X89.945 Y160.682 E.01911
G1 X89.189 Y160.86 E.02942
G1 X88.579 Y160.94 E.02332
G1 X88.073 Y160.96 E.01923
G1 X84.071 Y160.96 E.1517
G1 X84.08 Y156.611 E.16486
G1 X84.145 Y155.972 E.02434
G1 X84.272 Y155.356 E.02385
G1 X84.452 Y154.776 E.02303
G1 X84.844 Y153.911 E.03598
G1 X85.154 Y153.401 E.02263
G1 X85.511 Y152.924 E.02259
G1 X86.159 Y152.245 E.0356
G1 X86.618 Y151.866 E.02256
G1 X87.123 Y151.524 E.02312
G1 X87.661 Y151.232 E.0232
G1 X88.228 Y150.992 E.02334
G1 X88.821 Y150.807 E.02355
G1 X89.437 Y150.68 E.02385
G1 X90.077 Y150.615 E.02439
G1 X92.157 Y150.606 E.07883
G1 X92.698 Y150.467 E.02118
G1 X92.991 Y150.238 E.01411
G1 X93.144 Y150.029 E.0098
G1 X93.239 Y149.815 E.00889
G1 X93.294 Y149.463 E.0135
G1 X93.294 Y139.676 E.37105
G1 X93.34 Y138.896 E.0296
G1 X93.467 Y138.173 E.02784
G1 X93.676 Y137.477 E.02753
G1 X93.96 Y136.815 E.02735
G1 X94.218 Y136.364 E.0197
G1 X94.555 Y135.867 E.02276
G1 X94.883 Y135.46 E.01982
G1 X95.449 Y134.898 E.03022
G1 X95.886 Y134.522 E.02187
G1 X96.114 Y134.222 E.0143
G1 X96.226 Y133.9 E.01292
G1 X96.234 Y133.531 E.01398
G1 X95.882 Y132.424 E.04404
G1 X95.728 Y131.767 E.02561
G1 X95.611 Y130.805 E.03671
G1 X95.607 Y125.788 E.19024
G1 X95.62 Y125.337 E.01707
G1 X95.679 Y124.782 E.02119
G1 X95.837 Y123.952 E.03204
G1 X95.988 Y123.438 E.02029
G1 X96.188 Y122.91 E.02141
G1 X96.426 Y122.401 E.02129
G1 X96.7 Y121.913 E.02121
G1 X97.009 Y121.448 E.02116
G1 X97.351 Y121.008 E.02114
G1 X97.725 Y120.595 E.02113
G1 X98.128 Y120.21 E.02114
G1 X98.56 Y119.855 E.02116
G1 X99.017 Y119.533 E.0212
G1 X99.498 Y119.245 E.02126
G1 X100.628 Y118.711 E.04739
G1 X100.941 Y118.42 E.01621
G1 X101.116 Y118.071 E.01478
G1 X101.164 Y117.742 E.0126
;WIDTH:0.535767
G1 X101.182 Y117.375 E.01503
;WIDTH:0.571535
G1 X101.2 Y117.008 E.01612
;WIDTH:0.607302
G1 X101.218 Y116.641 E.01721
G1 X101.218 Y68.078 E2.2733
;WIDTH:0.632928
G1 X101.231 Y67.654 E.02074
G1 X101.454 Y67.197 E.02488
;WIDTH:0.607301
G1 X108.475 Y55.036 E.65737
G1 X108.602 Y54.78 E.01335
;WIDTH:0.571534
G1 X108.729 Y54.525 E.0125
;WIDTH:0.535767
G1 X108.855 Y54.27 E.01165
;WIDTH:0.499999
G1 X110 Y52.287 E.08678
M73 P1 R28
G1 X111.144 Y54.27 E.08678
;WIDTH:0.535766
G1 X111.271 Y54.525 E.01165
;WIDTH:0.571533
G1 X111.398 Y54.78 E.0125
;WIDTH:0.607302
G1 X111.525 Y55.036 E.01335
G1 X118.546 Y67.197 E.65737
;WIDTH:0.632929
G1 X118.747 Y67.57 E.02074
G1 X118.782 Y68.078 E.02488
;WIDTH:0.607301
G1 X118.782 Y116.641 E2.27329
;WIDTH:0.618503
G1 X118.777 Y116.898 E.01229
G1 X118.812 Y117.289 E.01874
;WIDTH:0.579002
G1 X118.848 Y117.68 E.01746
;WIDTH:0.539501
G1 X118.884 Y118.071 E.01617
;WIDTH:0.499999
G1 X118.973 Y118.286 E.00881
G1 X119.186 Y118.565 E.01331
G1 X119.53 Y118.793 E.01565
G1 X120.101 Y119.037 E.02353
G1 X120.597 Y119.295 E.02121
G1 X121.072 Y119.588 E.02114
G1 X121.522 Y119.915 E.0211
G1 X121.947 Y120.273 E.02107
G1 X122.344 Y120.662 E.02106
G1 X122.711 Y121.079 E.02107
G1 X123.047 Y121.522 E.02109
G1 X123.35 Y121.99 E.02113
G1 X123.618 Y122.48 E.02119
G1 X123.85 Y122.992 E.02128
G1 X124.043 Y123.523 E.02141
G1 X124.196 Y124.071 E.02158
G1 X124.305 Y124.624 E.02139
G1 X124.393 Y125.52 E.03411
G1 X124.389 Y130.777 E.19932
G1 X124.252 Y131.892 E.04257
G1 X124.108 Y132.464 E.02237
G1 X123.766 Y133.531 E.04249
G1 X123.774 Y133.9 E.01398
G1 X123.89 Y134.23 E.01327
G1 X124.154 Y134.558 E.01596
G1 X124.767 Y135.083 E.0306
G1 X125.257 Y135.611 E.02732
G1 X125.683 Y136.19 E.02725
G1 X126.04 Y136.814 E.02726
G1 X126.324 Y137.477 E.02735
G1 X126.533 Y138.173 E.02753
G1 X126.66 Y138.896 E.02784
G1 X126.706 Y139.676 E.0296
G1 X126.706 Y148.869 E.34854
G1 X126.717 Y149.622 E.02856
G1 X126.856 Y150.029 E.0163
G1 X127.009 Y150.238 E.0098
G1 X127.304 Y150.468 E.01419
G1 X127.849 Y150.606 E.0213
G1 X129.556 Y150.606 E.06472
G1 X130.276 Y150.645 E.02733
G1 X131.075 Y150.795 E.03086
G1 X131.818 Y151.011 E.02932
G1 X132.357 Y151.244 E.02225
G1 X133.296 Y151.819 E.04177
G1 X133.885 Y152.287 E.02851
G1 X134.293 Y152.701 E.02203
G1 X134.945 Y153.576 E.04138
G1 X135.322 Y154.24 E.02896
G1 X135.548 Y154.784 E.0223
G1 X135.83 Y155.862 E.04226
G1 X135.92 Y156.617 E.02883
G1 X135.929 Y160.96 E.16463
G1 X131.938 Y160.96 E.1513
G1 X131.442 Y160.941 E.01881
G1 X130.925 Y160.882 E.01972
G1 X130.433 Y160.784 E.01903
G1 X129.618 Y160.531 E.03235
G1 X129.159 Y160.331 E.01898
G1 X128.441 Y159.921 E.03137
G1 X128.002 Y159.607 E.02046
G1 X127.46 Y159.124 E.0275
G1 X127.028 Y158.656 E.02414
G1 X126.571 Y158.025 E.02954
G1 X126.276 Y157.518 E.02226
G1 X126.026 Y156.995 E.02196
G1 X125.69 Y156.618 E.01916
G1 X125.283 Y156.435 E.0169
G1 X124.925 Y156.41 E.01361
G1 X124.459 Y156.556 E.01852
G1 X123.681 Y157.16 E.03733
G1 X123.208 Y157.498 E.02207
G1 X122.657 Y157.857 E.02491
G1 X122.339 Y158.369 E.02284
G1 X121.921 Y159.773 E.05555
G1 X121.135 Y162.162 E.09533
G1 X120.582 Y163.658 E.06047
G1 X120.184 Y164.635 E.04001
G1 X119.802 Y165.474 E.03492
G1 X119.44 Y166.174 E.0299
G1 X119.102 Y166.73 E.02467
G1 X118.722 Y167.227 E.0237
G1 X118.396 Y167.545 E.01726
G1 X118.02 Y167.787 E.01697
G1 X117.616 Y167.859 E.01557
G1 X117.278 Y167.815 E.0129
G1 X116.949 Y167.662 E.01376
G1 X116.501 Y167.271 E.02253
G1 X116.089 Y166.72 E.02609
G1 X115.633 Y165.93 E.0346
G1 X115.273 Y165.182 E.03144
G1 X115.027 Y164.613 E.02353
G1 X114.638 Y163.631 E.04003
G1 X113.888 Y161.494 E.08587
G1 X113.256 Y159.458 E.08083
G1 X113.102 Y159.142 E.01331
G1 X112.723 Y158.799 E.01938
G1 X112.165 Y158.654 E.02186
G1 X107.834 Y158.654 E.16418
G1 X107.637 Y158.671 E.00751
G1 X107.275 Y158.8 E.01457
G1 X106.895 Y159.145 E.01942
G1 X106.744 Y159.455 E.01309
G1 X106.378 Y160.621 E.04635
G1 X105.926 Y161.973 E.05402
G1 X105.586 Y162.923 E.03825
G1 X105.173 Y163.995 E.04356
G1 X104.781 Y164.925 E.03827
G1 X104.408 Y165.716 E.03317
G1 X104.056 Y166.364 E.02792
G1 X103.642 Y166.987 E.02836
G1 X103.281 Y167.403 E.0209
G1 X102.989 Y167.643 E.01431
G1 X102.613 Y167.831 E.01593
G1 X102.201 Y167.852 E.01566
G1 X101.847 Y167.757 E.01388
G1 X101.412 Y167.464 E.0199
G1 X101.031 Y167.031 E.02188
G1 X100.47 Y166.141 E.03986
G1 X100.122 Y165.451 E.0293
G1 X99.749 Y164.609 E.03492
G1 X99.091 Y162.894 E.06961
G1 X98.596 Y161.444 E.05812
G1 X98.093 Y159.834 E.06394
G1 X97.632 Y158.261 E.06212
G1 X97.348 Y157.858 E.01872
G1 X96.291 Y157.143 E.04835
G1 X95.541 Y156.556 E.03614
G1 X95.075 Y156.41 E.01852
G1 X94.716 Y156.434 E.01362
G1 X94.527 Y156.52 E.00785
G1 X94.708 Y156.93 F9000
G1 F900
G1 X94.636 Y156.951 E.00285
G1 X94.374 Y157.216 E.01414
G1 X93.897 Y158.141 E.03943
G1 X93.609 Y158.579 E.0199
G1 X93.286 Y158.992 E.01986
G1 X92.76 Y159.547 E.02899
G1 X92.292 Y159.956 E.02357
G1 X91.869 Y160.266 E.01988
G1 X91.421 Y160.542 E.01993
G1 X90.761 Y160.865 E.02787
G1 X90.137 Y161.101 E.0253
G1 X89.618 Y161.244 E.02039
G1 X89.122 Y161.339 E.01914
G1 X88.614 Y161.396 E.01939
G1 X88.081 Y161.417 E.02022
G1 X84.931 Y161.417 E.11945
G1 X83.81 Y161.389 E.04249
G1 X83.694 Y161.302 E.00549
G1 X83.614 Y161.094 E.00848
G1 X83.623 Y156.587 E.17084
G1 X83.693 Y155.903 E.02607
G1 X83.829 Y155.242 E.02559
G1 X84.024 Y154.613 E.02496
G1 X84.439 Y153.697 E.0381
G1 X84.775 Y153.145 E.02451
G1 X85.161 Y152.629 E.02446
G1 X85.847 Y151.909 E.03767
G1 X86.344 Y151.499 E.02442
G1 X86.885 Y151.133 E.02479
G1 X87.462 Y150.819 E.02488
G1 X88.07 Y150.562 E.02504
G1 X88.707 Y150.364 E.02527
G1 X89.368 Y150.228 E.02559
G1 X90.053 Y150.158 E.02611
G1 X92.147 Y150.149 E.07937
G1 X92.479 Y150.065 E.013
G1 X92.655 Y149.928 E.00847
G1 X92.804 Y149.674 E.01115
G1 X92.837 Y149.463 E.0081
G1 X92.837 Y139.662 E.37156
G1 X92.885 Y138.843 E.03111
G1 X93.022 Y138.068 E.02985
G1 X93.245 Y137.321 E.02953
G1 X93.55 Y136.61 E.02933
G1 X93.933 Y135.941 E.02924
G1 X94.39 Y135.32 E.02923
G1 X94.916 Y134.753 E.02931
G1 X95.549 Y134.211 E.0316
G1 X95.71 Y134.009 E.00979
G1 X95.788 Y133.715 E.01151
G1 X95.749 Y133.461 E.00978
G1 X95.481 Y132.705 E.03038
G1 X95.296 Y131.968 E.02884
G1 X95.205 Y131.353 E.02355
G1 X95.153 Y130.823 E.0202
G1 X95.15 Y125.788 E.19087
G1 X95.164 Y125.302 E.01844
G1 X95.229 Y124.702 E.02287
G1 X95.397 Y123.828 E.03372
G1 X95.559 Y123.282 E.02162
G1 X95.771 Y122.721 E.02273
G1 X96.024 Y122.181 E.0226
G1 X96.316 Y121.665 E.0225
G1 X96.645 Y121.172 E.02245
G1 X97.008 Y120.706 E.02242
G1 X97.405 Y120.268 E.0224
G1 X97.834 Y119.86 E.02241
G1 X98.291 Y119.485 E.02244
G1 X98.777 Y119.144 E.02249
G1 X99.287 Y118.839 E.02255
G1 X100.468 Y118.263 E.0498
G1 X100.625 Y118.068 E.00947
G1 X100.707 Y117.742 E.01275
G1 X100.707 Y67.688 E1.89761
M73 P2 R28
G1 X100.762 Y67.374 E.01209
G1 X109.716 Y51.865 E.67893
G1 X109.901 Y51.695 E.00952
G1 X110.095 Y51.693 E.00739
G1 X110.284 Y51.865 E.00968
G1 X119.183 Y67.279 E.67476
G1 X119.293 Y67.578 E.01208
G1 X119.293 Y116.898 E1.86978
M73 P2 R27
G1 X119.322 Y117.94 E.0395
G1 X119.469 Y118.201 E.01137
G1 X119.709 Y118.373 E.01121
G1 X120.296 Y118.623 E.02418
G1 X120.823 Y118.897 E.02251
G1 X121.326 Y119.208 E.02243
G1 X121.804 Y119.555 E.02238
G1 X122.255 Y119.935 E.02235
G1 X122.676 Y120.347 E.02234
G1 X123.065 Y120.789 E.02234
G1 X123.422 Y121.26 E.02237
G1 X123.743 Y121.756 E.02242
G1 X124.027 Y122.276 E.02249
G1 X124.273 Y122.819 E.02259
G1 X124.478 Y123.383 E.02273
G1 X124.641 Y123.965 E.02292
G1 X124.758 Y124.557 E.02291
G1 X124.85 Y125.498 E.03581
G1 X124.847 Y130.806 E.20124
G1 X124.702 Y131.976 E.04469
G1 X124.519 Y132.705 E.02851
G1 X124.251 Y133.46 E.03038
G1 X124.212 Y133.716 E.00978
G1 X124.266 Y133.958 E.0094
G1 X124.451 Y134.211 E.01189
G1 X125.085 Y134.753 E.03159
G1 X125.61 Y135.319 E.02931
G1 X126.067 Y135.941 E.02923
G1 X126.45 Y136.61 E.02924
G1 X126.755 Y137.321 E.02933
G1 X126.978 Y138.067 E.02953
G1 X127.115 Y138.843 E.02985
G1 X127.163 Y139.662 E.03111
G1 X127.163 Y149.446 E.37093
G1 X127.196 Y149.674 E.00873
G1 X127.345 Y149.928 E.01115
G1 X127.522 Y150.066 E.00851
G1 X127.849 Y150.149 E.01278
G1 X129.582 Y150.149 E.0657
G1 X130.293 Y150.185 E.02701
G1 X130.958 Y150.287 E.02549
G1 X131.938 Y150.565 E.03863
G1 X132.531 Y150.816 E.02441
G1 X133.39 Y151.311 E.03758
G1 X134.165 Y151.92 E.0374
G1 X134.615 Y152.37 E.0241
G1 X135.076 Y152.956 E.02827
G1 X135.341 Y153.348 E.01795
G1 X135.778 Y154.144 E.03443
G1 X135.987 Y154.659 E.02105
G1 X136.282 Y155.793 E.04442
G1 X136.377 Y156.616 E.03142
G1 X136.384 Y160.099 E.13204
G1 X136.359 Y161.221 E.04252
G1 X136.272 Y161.337 E.00549
G1 X136.063 Y161.417 E.00851
G1 X131.938 Y161.417 E.15637
G1 X131.347 Y161.392 E.02242
G1 X130.577 Y161.281 E.02949
G1 X129.936 Y161.124 E.02502
G1 X129.431 Y160.95 E.02024
G1 X128.947 Y160.735 E.02009
G1 X128.162 Y160.286 E.03429
G1 X127.736 Y159.98 E.01987
G1 X127.337 Y159.641 E.01984
G1 X126.958 Y159.266 E.0202
G1 X126.413 Y158.609 E.03239
G1 X126.12 Y158.173 E.01989
G1 X125.863 Y157.713 E.01997
G1 X125.626 Y157.216 E.02088
G1 X125.364 Y156.951 E.01414
G1 X125.069 Y156.864 E.01166
G1 X124.686 Y156.953 E.0149
G1 X123.948 Y157.531 E.03553
G1 X123.443 Y157.89 E.0235
G1 X122.968 Y158.192 E.02133
G1 X122.777 Y158.499 E.01371
G1 X122.358 Y159.908 E.05573
G1 X121.566 Y162.315 E.09605
G1 X121.009 Y163.824 E.06098
G1 X120.603 Y164.816 E.04064
G1 X120.214 Y165.673 E.03571
G1 X119.838 Y166.398 E.03094
G1 X119.48 Y166.989 E.02619
G1 X119.018 Y167.592 E.0288
G1 X118.591 Y167.987 E.02208
G1 X118.193 Y168.214 E.01734
G1 X117.797 Y168.317 E.01554
G1 X117.374 Y168.315 E.016
G1 X116.977 Y168.208 E.0156
G1 X116.582 Y167.976 E.01736
G1 X116.159 Y167.577 E.02207
G1 X115.706 Y166.972 E.02862
G1 X115.229 Y166.143 E.03628
G1 X114.858 Y165.372 E.03243
G1 X114.604 Y164.788 E.02415
G1 X114.209 Y163.791 E.04065
G1 X113.454 Y161.637 E.08653
G1 X112.777 Y159.488 E.08544
G1 X112.499 Y159.198 E.0152
G1 X112.165 Y159.111 E.01312
G1 X107.834 Y159.111 E.16418
G1 X107.498 Y159.199 E.01315
G1 X107.271 Y159.405 E.01165
G1 X107.18 Y159.591 E.00785
G1 X106.813 Y160.762 E.04652
G1 X106.358 Y162.122 E.05437
G1 X106.014 Y163.082 E.03863
G1 X105.597 Y164.166 E.04404
G1 X105.199 Y165.112 E.03892
G1 X104.815 Y165.923 E.03402
G1 X104.448 Y166.6 E.02917
G1 X103.975 Y167.312 E.03241
G1 X103.532 Y167.807 E.02519
G1 X103.122 Y168.114 E.01943
G1 X102.732 Y168.276 E.01604
G1 X102.321 Y168.328 E.0157
G1 X101.896 Y168.274 E.01623
G1 X101.506 Y168.11 E.01602
G1 X101.099 Y167.8 E.01941
G1 X100.664 Y167.305 E.02499
G1 X100.072 Y166.367 E.04206
G1 X99.708 Y165.647 E.03057
G1 X99.328 Y164.785 E.0357
G1 X98.66 Y163.047 E.07059
G1 X98.161 Y161.586 E.05854
G1 X97.655 Y159.965 E.06436
G1 X97.236 Y158.512 E.05735
G1 X97.04 Y158.195 E.01413
G1 X96.004 Y157.499 E.04731
G1 X95.314 Y156.953 E.03338
