; HEADER_BLOCK_START
; generated by OrcaSlicer 2.2.0-rc on 2024-10-15 at 16:22:16
; total layer number: 83
; filament_density: 1.24
; filament_diameter: 1.75
; max_z_height: 16.60
; HEADER_BLOCK_END

; THUMBNAIL_BLOCK_START

;
; THUMBNAIL_BLOCK_END

; THUMBNAIL_BLOCK_START

;
; THUMBNAIL_BLOCK_END

; external perimeters extrusion width = 0.40mm
; perimeters extrusion width = 0.45mm
; infill extrusion width = 0.45mm
; solid infill extrusion width = 0.40mm
; top infill extrusion width = 0.40mm
; support material extrusion width = 0.40mm
; first layer extrusion width = 0.50mm

; EXECUTABLE_BLOCK_START
EXCLUDE_OBJECT_DEFINE NAME=Sizer.stl_id_0_copy_0 CENTER=110,110 POLYGON=[[97.7201,109.786],[97.8204,106.389],[98.0192,105.439],[99.4972,102.535],[120.503,102.535],[121.981,105.439],[122.18,106.389],[122.28,109.786],[121.981,114.743],[121.583,117.465],[98.4171,117.465],[98.0192,114.743],[97.7201,109.786]]
M73 P0 R17
;TYPE:Custom
M117 ; clear display for KAMP meshing
START_PRINT BED_TEMP=60 EXTRUDER_TEMP=220
G90
G21
M83 ; use relative distances for extrusion
; filament start gcode
M106 S0
;LAYER_CHANGE
;Z:0.2
;HEIGHT:0.2
;BEFORE_LAYER_CHANGE
;0.2
G92 E0

G1 E-5 F3600
;_SET_FAN_SPEED_CHANGING_LAYER
SET_VELOCITY_LIMIT ACCEL=500 ACCEL_TO_DECEL=250
; printing object Sizer.stl id:0 copy 0
EXCLUDE_OBJECT_START NAME=Sizer.stl_id_0_copy_0
G1 Z.6 F9000
G1 X115.093 Y99.811
G1 Z.6
G1 Z.2
G1 E5 F2400
;TYPE:Brim
;WIDTH:0.5
G1 F900
G1 X115.519 Y99.332 E.02386
G1 X116.012 Y98.921 E.0239
G1 X116.558 Y98.588 E.0238
G1 X117.343 Y98.277 E.03148
G1 X118.023 Y98.131 E.02589
G1 X118.601 Y98.093 E.02157
G1 X119.85 Y98.093 E.04653
G1 X120.499 Y98.141 E.02422
G1 X121.121 Y98.282 E.02377
G1 X121.964 Y98.639 E.03411
G1 X122.583 Y99.035 E.02737
G1 X123.062 Y99.461 E.02386
G1 X123.473 Y99.954 E.0239
G1 X123.807 Y100.502 E.0239
G1 X124.056 Y101.092 E.02388
G1 X124.227 Y101.77 E.02601
G1 X124.296 Y102.409 E.02394
G1 X124.27 Y103.054 E.02404
G1 X123.901 Y105.003 E.07387
G1 X123.946 Y107.886 E.10742
G1 X123.909 Y111.066 E.11842
G1 X123.938 Y112.132 E.03974
G1 X123.903 Y114.105 E.07351
G1 X123.941 Y117.385 E.12218
G1 X123.903 Y118.035 E.02424
G1 X123.772 Y118.659 E.02373
G1 X123.384 Y119.592 E.03766
G1 X123.042 Y120.133 E.02381
G1 X122.623 Y120.619 E.0239
G1 X122.137 Y121.038 E.0239
G1 X121.597 Y121.379 E.02379
G1 X120.783 Y121.712 E.03279
G1 X120.104 Y121.864 E.02591
G1 X119.491 Y121.907 E.02288
G1 X118.602 Y121.907 E.03312
G1 X117.953 Y121.859 E.02422
G1 X117.331 Y121.718 E.02377
G1 X116.487 Y121.361 E.03411
G1 X115.869 Y120.965 E.02737
G1 X115.39 Y120.539 E.02386
G1 X114.979 Y120.046 E.0239
G1 X114.646 Y119.5 E.0238
G1 X114.335 Y118.715 E.03148
G1 X114.189 Y118.035 E.02589
G1 X114.151 Y117.457 E.02157
G1 X114.151 Y102.544 E.55547
G1 X114.199 Y101.895 E.02422
G1 X114.34 Y101.273 E.02377
G1 X114.697 Y100.429 E.03411
G1 X115.072 Y99.845 E.02588
G1 X115.458 Y100.092 F9000
G1 F900
G1 X115.466 Y100.08 E.00054
G1 X115.846 Y99.655 E.02123
G1 X116.271 Y99.3 E.02062
G1 X116.773 Y98.995 E.02189
G1 X117.466 Y98.72 E.02775
G1 X118.077 Y98.587 E.02329
G1 X118.62 Y98.55 E.0203
G1 X119.838 Y98.551 E.04536
G1 X120.441 Y98.597 E.02251
G1 X120.992 Y98.723 E.02106
G1 X121.74 Y99.04 E.03025
G1 X122.314 Y99.408 E.02541
G1 X122.739 Y99.788 E.02123
G1 X123.094 Y100.213 E.02062
G1 X123.394 Y100.702 E.02137
G1 X123.624 Y101.248 E.02207
G1 X123.773 Y101.841 E.02278
G1 X123.837 Y102.414 E.02147
G1 X123.815 Y102.992 E.02153
G1 X123.445 Y105.023 E.07691
G1 X123.489 Y107.885 E.10662
G1 X123.452 Y111.058 E.11817
G1 X123.48 Y112.137 E.04021
G1 X123.446 Y114.113 E.07359
G1 X123.483 Y117.38 E.12169
G1 X123.449 Y117.965 E.02183
G1 X123.336 Y118.51 E.02075
G1 X122.981 Y119.37 E.03465
G1 X122.667 Y119.867 E.02191
G1 X122.292 Y120.301 E.02137
G1 X121.872 Y120.663 E.02062
G1 X121.376 Y120.975 E.02185
G1 X120.634 Y121.277 E.02983
G1 X120.027 Y121.411 E.02314
G1 X119.47 Y121.45 E.0208
G1 X118.614 Y121.449 E.0319
G1 X118.011 Y121.403 E.02251
G1 X117.46 Y121.277 E.02106
G1 X116.712 Y120.96 E.03025
G1 X116.138 Y120.592 E.02541
G1 X115.713 Y120.212 E.02123
G1 X115.358 Y119.787 E.02062
G1 X115.063 Y119.306 E.02102
G1 X114.778 Y118.592 E.02862
G1 X114.645 Y117.981 E.02329
G1 X114.608 Y117.438 E.0203
G1 X114.608 Y102.556 E.5543
G1 X114.652 Y101.973 E.02176
G1 X114.774 Y101.425 E.0209
G1 X115.098 Y100.654 E.03116
G1 X115.436 Y100.126 E.02338
G1 X115.823 Y100.373 F9000
G1 F900
G1 X115.838 Y100.349 E.00106
G1 X116.158 Y99.992 E.01784
G1 X116.53 Y99.679 E.0181
G1 X116.988 Y99.401 E.01998
G1 X117.589 Y99.163 E.02407
G1 X118.131 Y99.043 E.02069
G1 X118.641 Y99.007 E.01901
G1 X119.816 Y99.008 E.04376
G1 X120.362 Y99.049 E.0204
G1 X120.862 Y99.164 E.01911
G1 X121.515 Y99.441 E.02643
G1 X122.045 Y99.78 E.02343
G1 X122.402 Y100.1 E.01784
G1 X122.715 Y100.473 E.01814
G1 X122.981 Y100.903 E.01883
G1 X123.192 Y101.404 E.02025
G1 X123.324 Y101.932 E.02026
G1 X123.378 Y102.441 E.01907
G1 X123.358 Y102.951 E.01901
G1 X122.988 Y105.043 E.07914
G1 X123.031 Y107.885 E.10584
M73 P1 R17
G1 X122.995 Y111.05 E.11791
M73 P1 R17
G1 X123.023 Y112.142 E.04068
G1 X122.989 Y114.12 E.07367
G1 X123.025 Y117.374 E.1212
G1 X122.995 Y117.895 E.01945
G1 X122.9 Y118.363 E.01779
G1 X122.578 Y119.148 E.03162
G1 X122.292 Y119.602 E.01997
G1 X121.974 Y119.969 E.01809
G1 X121.607 Y120.287 E.0181
G1 X121.155 Y120.572 E.0199
G1 X120.486 Y120.842 E.02686
G1 X119.952 Y120.958 E.02038
G1 X119.45 Y120.993 E.01875
G1 X118.626 Y120.992 E.03068
G1 X118.09 Y120.951 E.02001
G1 X117.59 Y120.836 E.01911
G1 X116.937 Y120.559 E.02643
G1 X116.407 Y120.22 E.02343
G1 X116.036 Y119.886 E.01858
G1 X115.725 Y119.511 E.01814
G1 X115.479 Y119.11 E.01752
G1 X115.221 Y118.468 E.02577
G1 X115.101 Y117.927 E.02067
G1 X115.065 Y117.417 E.01901
G1 X115.066 Y102.567 E.5531
G1 X115.104 Y102.05 E.01933
G1 X115.208 Y101.577 E.01805
G1 X115.499 Y100.879 E.02818
G1 X115.801 Y100.407 E.02086
G1 X116.188 Y100.654 F9000
G1 F900
G1 X116.211 Y100.618 E.00158
G1 X116.484 Y100.315 E.01521
G1 X116.789 Y100.059 E.01483
G1 X117.203 Y99.807 E.01805
G1 X117.713 Y99.606 E.02043
G1 X118.187 Y99.499 E.0181
G1 X118.662 Y99.464 E.01771
G1 X119.793 Y99.465 E.04214
G1 X120.282 Y99.501 E.01828
G1 X120.731 Y99.605 E.01716
G1 X121.291 Y99.842 E.02263
G1 X121.776 Y100.153 E.02145
G1 X122.079 Y100.426 E.01521
G1 X122.337 Y100.733 E.01495
G1 X122.568 Y101.104 E.01626
G1 X122.753 Y101.539 E.0176
G1 X122.873 Y102.021 E.01851
G1 X122.92 Y102.466 E.01667
G1 X122.901 Y102.91 E.01655
G1 X122.531 Y105.063 E.08136
G1 X122.574 Y107.884 E.10507
G1 X122.538 Y111.042 E.11766
G1 X122.566 Y112.147 E.04115
G1 X122.532 Y114.127 E.07376
G1 X122.568 Y117.368 E.12071
G1 X122.541 Y117.826 E.0171
G1 X122.463 Y118.217 E.01484
G1 X122.175 Y118.927 E.02856
G1 X121.917 Y119.337 E.01802
G1 X121.643 Y119.652 E.01555
G1 X121.342 Y119.912 E.01482
G1 X120.935 Y120.168 E.01791
G1 X120.34 Y120.406 E.02387
G1 X119.877 Y120.505 E.01763
G1 X119.429 Y120.536 E.01671
G1 X118.639 Y120.535 E.02945
G1 X118.17 Y120.499 E.01751
G1 X117.721 Y120.395 E.01716
G1 X117.161 Y120.158 E.02263
G1 X116.677 Y119.847 E.02143
G1 X116.36 Y119.561 E.0159
G1 X116.104 Y119.252 E.01495
G1 X115.895 Y118.914 E.0148
G1 X115.663 Y118.343 E.02293
G1 X115.557 Y117.871 E.01805
G1 X115.522 Y117.396 E.01771
G1 X115.523 Y102.579 E.55188
G1 X115.557 Y102.126 E.01693
G1 X115.643 Y101.727 E.01521
G1 X115.901 Y101.102 E.02517
G1 X116.166 Y100.688 E.01834
G1 X116.553 Y100.934 F9000
G1 F900
G1 X116.583 Y100.888 E.00207
G1 X116.81 Y100.638 E.01255
G1 X117.065 Y100.426 E.01237
G1 X117.418 Y100.214 E.01533
G1 X117.838 Y100.048 E.01684
G1 X118.245 Y99.955 E.01552
G1 X118.683 Y99.921 E.01638
G1 X119.771 Y99.922 E.04051
G1 X120.203 Y99.954 E.01613
G1 X120.6 Y100.046 E.0152
G1 X121.086 Y100.255 E.01971
G1 X121.506 Y100.525 E.0186
G1 X121.742 Y100.738 E.01185
G1 X121.96 Y100.995 E.01254
G1 X122.155 Y101.307 E.0137
G1 X122.321 Y101.695 E.01573
G1 X122.423 Y102.11 E.01591
G1 X122.461 Y102.49 E.01423
G1 X122.444 Y102.869 E.01414
G1 X122.074 Y105.083 E.08357
G1 X122.117 Y107.883 E.10431
G1 X122.081 Y111.035 E.11741
G1 X122.109 Y112.151 E.0416
G1 X122.075 Y114.134 E.07385
G1 X122.11 Y117.362 E.12023
G1 X122.087 Y117.758 E.0148
G1 X122.026 Y118.072 E.01192
G1 X121.771 Y118.707 E.02548
G1 X121.542 Y119.072 E.01603
G1 X121.326 Y119.32 E.01227
G1 X121.078 Y119.537 E.01228
G1 X120.715 Y119.763 E.0159
G1 X120.195 Y119.97 E.02086
G1 X119.803 Y120.052 E.0149
G1 X119.409 Y120.079 E.01471
G1 X118.651 Y120.077 E.02824
G1 X118.229 Y120.043 E.01577
G1 X117.852 Y119.954 E.01444
G1 X117.365 Y119.745 E.01971
G1 X116.947 Y119.475 E.01856
G1 X116.685 Y119.236 E.01319
G1 X116.482 Y118.992 E.01184
G1 X116.31 Y118.716 E.0121
G1 X116.105 Y118.217 E.02011
G1 X116.013 Y117.813 E.01542
G1 X115.979 Y117.375 E.01638
G1 X115.981 Y102.591 E.55063
G1 X116.01 Y102.201 E.01458
G1 X116.079 Y101.875 E.01239
G1 X116.304 Y101.326 E.02213
G1 X116.532 Y100.968 E.01579
G1 X116.886 Y101.269 F9000
G1 F900
G1 X117.124 Y100.989 E.01368
G1 X117.456 Y100.728 E.01574
G1 X117.781 Y100.557 E.01369
G1 X118.041 Y100.464 E.01027
G1 X118.466 Y100.391 E.01608
G1 X120.141 Y100.411 E.06239
G1 X120.511 Y100.502 E.0142
G1 X120.97 Y100.709 E.01876
G1 X121.32 Y100.981 E.01651
G1 X121.666 Y101.41 E.02052
G1 X121.734 Y101.525 E.00497
G1 X121.901 Y101.915 E.0158
G1 X121.995 Y102.409 E.01875
G1 X121.967 Y102.989 E.02163
G1 X121.606 Y104.874 E.07147
G1 X121.66 Y107.799 E.10897
G1 X121.624 Y111.084 E.12235
G1 X121.652 Y112.105 E.03804
G1 X121.617 Y114.098 E.07426
M73 P2 R17
G1 X121.634 Y117.682 E.13347
M73 P2 R17
G1 X121.568 Y118.015 E.01266
G1 X121.484 Y118.259 E.00961
G1 X121.39 Y118.458 E.00821
G1 X121.04 Y118.933 E.02197
G1 X120.896 Y119.079 E.00765
G1 X120.562 Y119.316 E.01525
G1 X120.236 Y119.474 E.01349
G1 X119.862 Y119.578 E.01445
G1 X119.463 Y119.622 E.01495
G1 X118.623 Y119.622 E.03131
G1 X118.262 Y119.582 E.01353
G1 X117.768 Y119.433 E.01921
G1 X117.362 Y119.202 E.01738
G1 X117.096 Y118.981 E.01287
G1 X116.963 Y118.844 E.00715
G1 X116.675 Y118.403 E.01963
G1 X116.499 Y117.92 E.01913
G1 X116.436 Y117.427 E.01851
G1 X116.452 Y102.388 E.56013
G1 X116.518 Y102.015 E.01414
G1 X116.646 Y101.649 E.01442
G1 X116.846 Y101.316 E.01447
G1 X116.861 Y101.3 E.00081
G1 X117.212 Y101.591 F9000
G1 F900
G1 X117.432 Y101.326 E.01284
G1 X117.533 Y101.232 E.00513
G1 X117.724 Y101.097 E.00872
G1 X117.994 Y100.961 E.01125
G1 X118.194 Y100.894 E.00786
G1 X118.545 Y100.841 E.01323
G1 X120.032 Y100.855 E.05538
G1 X120.324 Y100.918 E.01115
G1 X120.701 Y101.078 E.01525
G1 X120.883 Y101.204 E.00823
G1 X121.025 Y101.33 E.00705
G1 X121.31 Y101.697 E.01733
G1 X121.484 Y102.103 E.01645
G1 X121.546 Y102.494 E.01475
G1 X121.521 Y102.893 E.0149
G1 X121.147 Y104.828 E.07343
G1 X121.169 Y105.306 E.0178
G1 X121.203 Y107.807 E.09316
G1 X121.167 Y111.091 E.12232
G1 X121.195 Y112.094 E.03738
G1 X121.16 Y114.095 E.07454
G1 X121.187 Y117.587 E.13008
G1 X121.135 Y117.869 E.01069
G1 X121.075 Y118.056 E.0073
G1 X120.971 Y118.274 E.00899
G1 X120.674 Y118.66 E.01817
G1 X120.576 Y118.753 E.00501
G1 X120.296 Y118.945 E.01263
G1 X120.038 Y119.062 E.01056
G1 X119.817 Y119.123 E.00853
G1 X119.471 Y119.164 E.013
G1 X118.615 Y119.164 E.03187
G1 X118.391 Y119.144 E.00838
G1 X117.994 Y119.035 E.01535
G1 X117.664 Y118.859 E.01393
G1 X117.383 Y118.625 E.0136
G1 X117.292 Y118.526 E.00503
G1 X117.104 Y118.246 E.01254
G1 X116.953 Y117.865 E.01529
G1 X116.894 Y117.436 E.01614
G1 X116.9 Y102.48 E.55706
G1 X116.971 Y102.083 E.015
G1 X117.077 Y101.801 E.01124
G1 X117.188 Y101.623 E.00781
G1 X117.538 Y101.914 F9000
G1 F900
G1 X117.79 Y101.611 E.01466
G1 X117.996 Y101.465 E.00943
G1 X118.193 Y101.372 E.00811
G1 X118.335 Y101.329 E.00551
G1 X118.612 Y101.293 E.01042
G1 X119.94 Y101.302 E.04946
G1 X120.149 Y101.34 E.0079
G1 X120.444 Y101.456 E.0118
G1 X120.573 Y101.54 E.00574
G1 X120.729 Y101.678 E.00774
G1 X120.896 Y101.888 E.00998
G1 X121.034 Y102.18 E.01206
G1 X121.09 Y102.459 E.01058
G1 X121.074 Y102.797 E.01259
G1 X120.687 Y104.779 E.07522
G1 X120.712 Y105.31 E.0198
G1 X120.746 Y107.815 E.09331
G1 X120.709 Y111.098 E.12228
G1 X120.739 Y112.082 E.0367
G1 X120.703 Y114.091 E.07483
G1 X120.738 Y117.504 E.12711
G1 X120.702 Y117.721 E.00821
G1 X120.637 Y117.925 E.00797
G1 X120.56 Y118.075 E.00626
G1 X120.314 Y118.379 E.01456
G1 X120.107 Y118.529 E.00954
G1 X119.908 Y118.624 E.0082
G1 X119.765 Y118.669 E.0056
G1 X119.479 Y118.707 E.01074
G1 X118.609 Y118.707 E.0324
G1 X118.428 Y118.689 E.00679
G1 X118.113 Y118.594 E.01222
G1 X117.967 Y118.517 E.00617
G1 X117.669 Y118.268 E.01445
G1 X117.523 Y118.062 E.00943
G1 X117.43 Y117.865 E.00811
G1 X117.387 Y117.723 E.00551
G1 X117.351 Y117.445 E.01044
G1 X117.351 Y102.558 E.55449
G1 X117.4 Y102.24 E.01198
G1 X117.471 Y102.032 E.00819
G1 X117.519 Y101.948 E.00359
G1 X117.898 Y102.196 F9000
G1 F900
G1 X118.066 Y101.974 E.01037
G1 X118.18 Y101.883 E.00541
G1 X118.396 Y101.782 E.00892
G1 X118.604 Y101.75 E.00781
G1 X119.846 Y101.75 E.04627
G1 X120.08 Y101.792 E.00884
G1 X120.262 Y101.875 E.00745
G1 X120.434 Y102.028 E.00857
G1 X120.53 Y102.162 E.00615
G1 X120.619 Y102.37 E.00842
G1 X120.638 Y102.522 E.00574
G1 X120.627 Y102.698 E.00655
G1 X120.226 Y104.728 E.07708
G1 X120.255 Y105.314 E.02183
G1 X120.289 Y107.823 E.09346
G1 X120.252 Y111.105 E.12225
G1 X120.282 Y112.071 E.03601
G1 X120.246 Y114.088 E.07513
G1 X120.284 Y117.447 E.1251
G1 X120.27 Y117.572 E.00471
G1 X120.198 Y117.796 E.00877
G1 X120.034 Y118.019 E.01031
G1 X119.92 Y118.111 E.00546
G1 X119.701 Y118.216 E.00903
G1 X119.488 Y118.25 E.00804
G1 X118.602 Y118.25 E.03301
G1 X118.476 Y118.234 E.00475
G1 X118.25 Y118.159 E.00884
G1 X118.032 Y117.992 E.01023
G1 X117.941 Y117.878 E.00541
G1 X117.84 Y117.662 E.00892
G1 X117.808 Y117.454 E.00781
G1 X117.808 Y102.548 E.55521
G1 X117.85 Y102.314 E.00884
G1 X117.883 Y102.233 E.00326
G1 X118.293 Y102.425 F9000
G1 F900
G1 X118.34 Y102.34 E.00361
G1 X118.477 Y102.231 E.00652
G1 X118.593 Y102.207 E.00442
G1 X119.859 Y102.207 E.04713
G1 X119.969 Y102.235 E.00426
G1 X120.054 Y102.282 E.00361
G1 X120.168 Y102.441 E.00728
G1 X120.181 Y102.514 E.00275
G1 X120.181 Y102.6 E.0032
G1 X119.766 Y104.678 E.07893
G1 X119.798 Y105.318 E.02386
G1 X119.832 Y107.831 E.09361
G1 X119.795 Y111.112 E.12223
M73 P3 R17
G1 X119.825 Y112.06 E.03531
M73 P3 R17
G1 X119.789 Y114.085 E.07543
G1 X119.827 Y117.461 E.12574
G1 X119.801 Y117.571 E.00422
G1 X119.755 Y117.656 E.00361
G1 X119.618 Y117.768 E.00658
G1 X119.499 Y117.793 E.00455
G1 X118.593 Y117.793 E.03373
G1 X118.483 Y117.765 E.00426
G1 X118.398 Y117.718 E.00361
G1 X118.289 Y117.581 E.00652
G1 X118.265 Y117.465 E.00442
G1 X118.265 Y102.535 E.55606
G1 X118.283 Y102.463 E.00277
G1 E-3.5 F3600
;WIPE_START
G1 F900
G1 X118.34 Y102.34 E-.20388
G1 X118.477 Y102.231 E-.26238
G1 X118.593 Y102.207 E-.17817
G1 X119.164 Y102.207 E-.85557
;WIPE_END
G1 Z.6 F9000
G1 X107.275 Y102.543 Z.6
G1 Z.2
G1 E5 F2400
G1 F900
G1 X107.275 Y117.456 E.55547
G1 X107.227 Y118.105 E.02422
G1 X107.087 Y118.727 E.02377
G1 X106.73 Y119.571 E.03411
G1 X106.333 Y120.189 E.02737
G1 X105.907 Y120.668 E.02386
G1 X105.414 Y121.079 E.0239
G1 X104.869 Y121.412 E.0238
G1 X104.083 Y121.723 E.03148
G1 X103.403 Y121.869 E.02589
G1 X102.825 Y121.907 E.02157
G1 X100.506 Y121.907 E.08641
G1 X99.857 Y121.859 E.02422
G1 X99.235 Y121.718 E.02377
G1 X98.391 Y121.361 E.03411
G1 X97.773 Y120.965 E.02737
G1 X97.294 Y120.539 E.02386
G1 X96.883 Y120.046 E.0239
G1 X96.551 Y119.501 E.02377
G1 X96.217 Y118.635 E.03459
G1 X96.09 Y118.008 E.02384
G1 X96.055 Y117.401 E.02264
G1 X96.097 Y114.098 E.12302
M73 P3 R16
G1 X96.062 Y112.137 E.07305
M73 P3 R16
G1 X96.09 Y111.067 E.03989
G1 X96.053 Y107.773 E.1227
G1 X96.099 Y105.003 E.10317
G1 X95.787 Y103.413 E.06037
G1 X95.707 Y102.767 E.02422
G1 X95.723 Y102.13 E.02373
G1 X95.937 Y101.142 E.03766
G1 X96.176 Y100.549 E.02381
G1 X96.5 Y99.996 E.0239
G1 X96.903 Y99.496 E.0239
G1 X97.375 Y99.061 E.0239
G1 X97.905 Y98.701 E.02388
G1 X98.536 Y98.401 E.02601
G1 X99.149 Y98.209 E.02394
G1 X99.787 Y98.108 E.02404
G1 X100.146 Y98.093 E.01339
G1 X102.825 Y98.093 E.09976
G1 X103.473 Y98.141 E.02422
G1 X104.096 Y98.282 E.02377
G1 X104.939 Y98.639 E.03411
