; HEADER_BLOCK_START
; generated by OrcaSlicer 1.9.1 on 2024-02-23 at 22:26:28
; total layer number: 43
; filament_density: 1.27
; filament_diameter: 1.75
; max_z_height: 8.60
; HEADER_BLOCK_END

; THUMBNAIL_BLOCK_START

;
; THUMBNAIL_BLOCK_END

; external perimeters extrusion width = 0.40mm
; perimeters extrusion width = 0.45mm
; infill extrusion width = 0.45mm
; solid infill extrusion width = 0.40mm
; top infill extrusion width = 0.40mm
; support material extrusion width = 0.40mm
; first layer extrusion width = 0.50mm

; EXECUTABLE_BLOCK_START
EXCLUDE_OBJECT_DEFINE NAME=spider.stl_id_0_copy_0 CENTER=110,110 POLYGON=[[83.6468,129.25],[83.6494,129.214],[88.6392,98.0271],[88.6474,97.9833],[88.6592,97.9385],[88.6743,97.8931],[88.6923,97.8476],[88.7132,97.8024],[88.7365,97.7581],[101.211,74.5851],[101.236,74.543],[101.261,74.5125],[101.288,74.4909],[101.318,74.4753],[101.349,74.4631],[101.383,74.454],[101.419,74.448],[101.456,74.4449],[101.495,74.4448],[118.505,74.4448],[118.544,74.4449],[118.581,74.448],[118.617,74.454],[118.651,74.4631],[118.682,74.4753],[118.712,74.4909],[118.739,74.5125],[118.764,74.543],[118.789,74.5851],[131.264,97.7581],[131.287,97.8024],[131.308,97.8476],[131.326,97.8931],[131.341,97.9385],[131.353,97.9833],[131.361,98.0271],[136.351,129.214],[136.353,129.25],[136.352,129.288],[136.346,129.327],[136.337,129.368],[136.324,129.409],[136.308,129.45],[136.289,129.492],[136.267,129.532],[136.243,129.572],[136.217,129.61],[124.615,145.44],[124.596,145.466],[124.575,145.486],[124.551,145.504],[124.525,145.519],[124.497,145.532],[124.467,145.542],[124.436,145.549],[124.405,145.553],[124.373,145.555],[95.6271,145.555],[95.5951,145.553],[95.5635,145.549],[95.5328,145.542],[95.5033,145.532],[95.4753,145.519],[95.4491,145.504],[95.4252,145.486],[95.4037,145.466],[95.3848,145.44],[83.7831,129.61],[83.7569,129.572],[83.7328,129.532],[83.7111,129.492],[83.6922,129.45],[83.6761,129.409],[83.6633,129.368],[83.654,129.327],[83.6484,129.288],[83.6468,129.25]]
M73 P0 R14
;TYPE:Custom
M117 ; clear display for KAMP meshing
START_PRINT BED_TEMP=80 EXTRUDER_TEMP=255
G90
G21
M83 ; use relative distances for extrusion
; filament start gcode
M106 S0
;LAYER_CHANGE
;Z:0.2
;HEIGHT:0.2
;BEFORE_LAYER_CHANGE
;0.2
G92 E0

G1 E-5 F3600
;_SET_FAN_SPEED_CHANGING_LAYER
SET_VELOCITY_LIMIT ACCEL=500 ACCEL_TO_DECEL=250
G1 Z.4 F9000
G1 X96.214 Y70.696
G1 Z.4
G1 Z.2
G1 E5 F2400
;TYPE:Skirt
;WIDTH:0.5
G1 F3000
G1 X96.717 Y70.011 E.03066
G1 X97.171 Y69.558 E.02316
G1 X98.002 Y68.92 E.03783
G1 X98.558 Y68.599 E.02316
G1 X99.526 Y68.198 E.03783
G1 X100.145 Y68.032 E.02316
G1 X101.184 Y67.896 E.03783
G1 X118.287 Y67.919 E.61753
G1 X119.64 Y68.077 E.04919
G1 X120.26 Y68.243 E.02316
G1 X121.228 Y68.643 E.03783
G1 X121.783 Y68.964 E.02316
G1 X122.615 Y69.602 E.03783
G1 X123.068 Y70.056 E.02316
G1 X123.706 Y70.887 E.03783
G1 X137.055 Y94.698 E.98561
G1 X137.582 Y95.925 E.04822
G1 X137.742 Y96.505 E.02174
G1 X142.475 Y128.456 E1.16619
G1 X142.612 Y129.495 E.03783
G1 X142.612 Y130.136 E.02316
G1 X142.475 Y131.175 E.03783
G1 X142.309 Y131.795 E.02316
G1 X141.616 Y133.28 E.0592
G1 X129.286 Y149.97 E.74921
G1 X128.833 Y150.424 E.02316
G1 X128.001 Y151.062 E.03783
G1 X127.446 Y151.382 E.02316
G1 X126.478 Y151.783 E.03783
G1 X125.858 Y151.949 E.02316
G1 X124.496 Y152.107 E.04952
G1 X95.852 Y152.074 E1.03423
G1 X94.495 Y151.916 E.04932
G1 X93.875 Y151.75 E.02316
G1 X92.907 Y151.349 E.03783
G1 X92.352 Y151.029 E.02316
G1 X91.52 Y150.391 E.03783
G1 X91.067 Y149.937 E.02316
G1 X78.147 Y132.928 E.77123
G1 X77.834 Y132.382 E.02271
G1 X77.433 Y131.414 E.03783
G1 X77.267 Y130.795 E.02316
G1 X77.13 Y129.756 E.03783
G1 X77.13 Y129.114 E.02316
G1 X77.276 Y128.012 E.04016
G1 X82.234 Y96.729 E1.14361
G1 X82.391 Y96.173 E.02084
G1 X82.904 Y94.97 E.04722
G1 X95.871 Y71.163 E.97879
G1 X96.191 Y70.728 E.0195
; printing object spider.stl id:0 copy 0
G1 E-3.8 F3600
;WIPE_START
G1 F3000
G1 X96.717 Y70.011 E-1.06698
G1 X96.796 Y69.933 E-.13302
;WIPE_END
EXCLUDE_OBJECT_START NAME=spider.stl_id_0_copy_0
G1 Z.6 F9000
G1 X134.27 Y126.539 Z.6
G1 Z.2
G1 E5 F2400
;TYPE:Brim
G1 F900
G1 X135.183 Y126.161 E.03566
G1 X136.162 Y126.032 E.03566
G1 X137.141 Y126.161 E.03566
G1 X138.053 Y126.539 E.03566
G1 X138.837 Y127.14 E.03566
G1 X139.438 Y127.924 E.03566
G1 X139.816 Y128.836 E.03566
G1 X139.945 Y129.815 E.03566
G1 X139.816 Y130.795 E.03566
G1 X139.438 Y131.707 E.03566
G1 X138.837 Y132.491 E.03566
G1 X138.053 Y133.092 E.03566
G1 X137.141 Y133.47 E.03566
G1 X136.162 Y133.599 E.03566
G1 X135.183 Y133.47 E.03566
G1 X134.27 Y133.092 E.03566
G1 X133.487 Y132.491 E.03566
G1 X132.886 Y131.707 E.03566
G1 X132.508 Y130.795 E.03566
G1 X132.379 Y129.815 E.03566
G1 X132.508 Y128.836 E.03566
M73 P1 R14
G1 X132.853 Y128.001 E.03263
G1 X134.901 Y129.603 E.09386
G1 X135.409 Y129.965 E.02254
G1 X135.609 Y130.077 E.00828
G1 X135.809 Y130.142 E.00759
G1 X136.018 Y130.137 E.00754
G1 X136.148 Y130.092 E.00498
G1 X136.224 Y130.049 E.00314
G1 X136.457 Y129.836 E.0114
G1 X136.546 Y129.705 E.00571
G1 X136.629 Y129.529 E.00703
G1 X136.667 Y129.393 E.00509
G1 X136.676 Y129.195 E.00717
G1 X136.6 Y128.959 E.00894
G1 X136.505 Y128.83 E.0058
G1 X136.215 Y128.561 E.01428
G1 X133.948 Y126.787 E.10395
G1 X134.239 Y126.563 E.01324
G1 X134.883 Y126.878 F9000
G1 F900
G1 X134.968 Y126.745 E.00568
G1 X135.285 Y126.613 E.01242
G1 X136.144 Y126.496 E.03129
G1 X137.004 Y126.604 E.03129
G1 X137.837 Y126.949 E.03257
G1 X138.497 Y127.455 E.03001
G1 X139.028 Y128.14 E.03129
G1 X139.373 Y128.973 E.03257
G1 X139.482 Y129.798 E.03001
G1 X139.373 Y130.657 E.03129
G1 X139.028 Y131.491 E.03257
G1 X138.522 Y132.15 E.03001
G1 X137.837 Y132.682 E.03129
G1 X137.004 Y133.027 E.03257
G1 X136.18 Y133.135 E.03001
G1 X135.32 Y133.027 E.03129
G1 X134.486 Y132.682 E.03257
G1 X133.827 Y132.176 E.03001
G1 X133.296 Y131.491 E.03129
G1 X132.951 Y130.657 E.03257
G1 X132.842 Y129.833 E.03001
G1 X132.951 Y128.973 E.03129
G1 X132.977 Y128.899 E.00286
G1 X133.06 Y128.821 E.00413
G1 X133.188 Y128.843 E.00466
G1 X134.638 Y129.977 E.06648
G1 X135.139 Y130.334 E.02218
G1 X135.377 Y130.471 E.00994
G1 X135.66 Y130.574 E.01086
G1 X135.831 Y130.599 E.00623
G1 X136.017 Y130.595 E.00674
G1 X136.175 Y130.566 E.00579
G1 X136.382 Y130.484 E.00804
G1 X136.54 Y130.379 E.00683
G1 X136.756 Y130.182 E.01058
G1 X136.921 Y129.966 E.0098
G1 X137.039 Y129.73 E.00952
G1 X137.104 Y129.527 E.00771
G1 X137.132 Y129.226 E.0109
G1 X137.108 Y129.043 E.00667
G1 X137.039 Y128.83 E.00809
G1 X136.878 Y128.567 E.01112
G1 X136.528 Y128.229 E.01756
G1 X134.936 Y126.98 E.0731
G1 X134.901 Y126.913 E.00269
G1 X135.923 Y127.113 F9000
G1 F900
G1 X135.966 Y127.007 E.00413
G1 X136.042 Y126.971 E.00302
G1 X136.129 Y126.959 E.00316
G1 X136.867 Y127.048 E.02687
G1 X137.621 Y127.36 E.02945
G1 X138.183 Y127.796 E.02568
G1 X138.618 Y128.357 E.02564
G1 X138.93 Y129.111 E.02945
G1 X139.019 Y129.816 E.02568
G1 X138.93 Y130.521 E.02564
G1 X138.618 Y131.275 E.02945
G1 X138.181 Y131.836 E.02568
G1 X137.62 Y132.271 E.02564
G1 X136.867 Y132.584 E.02945
G1 X136.161 Y132.672 E.02568
G1 X135.456 Y132.583 E.02564
G1 X134.703 Y132.271 E.02945
G1 X134.141 Y131.835 E.02568
G1 X133.706 Y131.274 E.02564
G1 X133.403 Y130.555 E.02817
G1 X133.309 Y129.815 E.02692
G1 X133.344 Y129.706 E.00413
G1 X133.45 Y129.662 E.00413
G1 X133.53 Y129.691 E.00308
G1 X134.354 Y130.335 E.03779
G1 X134.869 Y130.702 E.02281
G1 X135.141 Y130.862 E.0114
G1 X135.493 Y130.999 E.01364
G1 X135.852 Y131.055 E.01314
G1 X136.246 Y131.018 E.01429
G1 X136.541 Y130.913 E.01131
G1 X136.787 Y130.763 E.01036
G1 X137.125 Y130.451 E.01665
G1 X137.334 Y130.161 E.01287
G1 X137.443 Y129.944 E.0088
G1 X137.536 Y129.676 E.01022
G1 X137.586 Y129.279 E.01445
G1 X137.561 Y128.99 E.01047
G1 X137.477 Y128.701 E.01087
G1 X137.271 Y128.334 E.01518
G1 X137.19 Y128.232 E.00471
G1 X136.805 Y127.866 E.01918
G1 X135.976 Y127.215 E.03807
G1 X135.942 Y127.149 E.00269
G1 E-3.5 F3600
;WIPE_START
G1 F900
G1 X135.966 Y127.007 E-.21557
G1 X136.042 Y126.971 E-.12527
G1 X136.129 Y126.959 E-.1314
G1 X136.809 Y127.041 E-1.02776
;WIPE_END
G1 Z.6 F9000
G1 X137.962 Y128.547 Z.6
G1 Z.2
G1 E5 F2400
G1 F900
G1 X138.061 Y128.489 E.00413
G1 X138.182 Y128.541 E.00478
G1 X138.226 Y128.606 E.00281
G1 X138.487 Y129.247 E.02499
G1 X138.556 Y129.799 E.02008
G1 X138.486 Y130.385 E.02129
G1 X138.208 Y131.057 E.0263
G1 X137.866 Y131.497 E.02008
G1 X137.403 Y131.861 E.02129
G1 X136.73 Y132.14 E.0263
G1 X136.178 Y132.209 E.02008
G1 X135.593 Y132.14 E.02129
G1 X134.92 Y131.861 E.0263
G1 X134.481 Y131.52 E.02008
G1 X134.116 Y131.057 E.02128
G1 X134.09 Y130.945 E.00413
G1 X134.157 Y130.853 E.00413
G1 X134.304 Y130.861 E.0053
G1 X134.598 Y131.071 E.01306
G1 X134.9 Y131.251 E.01267
G1 X135.436 Y131.453 E.02068
G1 X135.773 Y131.506 E.01232
G1 X136.282 Y131.473 E.0184
G1 X136.406 Y131.446 E.0046
G1 X136.787 Y131.297 E.01478
G1 X137.105 Y131.091 E.01368
G1 X137.427 Y130.795 E.01579
G1 X137.7 Y130.435 E.01632
G1 X137.849 Y130.155 E.01144
G1 X137.964 Y129.836 E.01223
G1 X138.038 Y129.347 E.01787
G1 X138.017 Y128.96 E.01397
G1 X137.941 Y128.659 E.01122
G1 X137.955 Y128.586 E.00269
G1 E-3.5 F3600
;WIPE_START
G1 F900
G1 X138.061 Y128.489 E-.21557
G1 X138.182 Y128.541 E-.19857
G1 X138.226 Y128.606 E-.11676
G1 X138.469 Y129.204 E-.9691
;WIPE_END
G1 Z.6 F9000
G1 X127.017 Y142.841 Z.6
G1 Z.2
G1 E5 F2400
G1 F900
G1 X127.174 Y142.961 E.00716
G1 X127.775 Y143.745 E.03566
G1 X128.153 Y144.657 E.03566
G1 X128.282 Y145.636 E.03566
G1 X128.153 Y146.616 E.03566
G1 X127.775 Y147.528 E.03566
G1 X127.174 Y148.312 E.03566
G1 X126.39 Y148.913 E.03566
G1 X125.478 Y149.291 E.03566
G1 X124.499 Y149.42 E.03566
G1 X123.52 Y149.291 E.03566
G1 X122.607 Y148.913 E.03566
G1 X121.824 Y148.312 E.03566
G1 X121.222 Y147.528 E.03566
G1 X120.844 Y146.616 E.03566
G1 X120.716 Y145.636 E.03566
G1 X120.844 Y144.657 E.03566
G1 X121.222 Y143.745 E.03566
G1 X121.824 Y142.961 E.03566
G1 X122.607 Y142.36 E.03566
G1 X123.504 Y141.989 E.03505
G1 X123.689 Y145.06 E.11109
G1 X123.753 Y145.469 E.01498
G1 X123.836 Y145.63 E.00652
G1 X123.9 Y145.701 E.00343
G1 X124.106 Y145.835 E.00888
G1 X124.249 Y145.873 E.00535
G1 X124.393 Y145.881 E.00521
G1 X124.665 Y145.811 E.01016
G1 X124.845 Y145.674 E.00816
G1 X124.926 Y145.551 E.00532
G1 X124.988 Y145.321 E.00859
G1 X125.007 Y145.096 E.00816
G1 X125.006 Y144.478 E.0223
G1 X124.909 Y141.907 E.0929
G1 X125.478 Y141.982 E.02071
G1 X126.39 Y142.36 E.03566
G1 X126.985 Y142.816 E.02706
G1 X126.704 Y143.183 F9000
G1 F900
G1 X126.859 Y143.302 E.00706
G1 X127.383 Y143.992 E.03129
G1 X127.701 Y144.76 E.03001
G1 X127.819 Y145.654 E.03257
G1 X127.71 Y146.478 E.03001
G1 X127.383 Y147.281 E.03129
G1 X126.834 Y147.997 E.03257
M73 P2 R14
G1 X126.143 Y148.52 E.03129
G1 X125.375 Y148.839 E.03001
G1 X124.481 Y148.956 E.03257
G1 X123.657 Y148.848 E.03001
G1 X122.854 Y148.52 E.03129
G1 X122.139 Y147.971 E.03257
G1 X121.615 Y147.281 E.03129
G1 X121.297 Y146.513 E.03001
G1 X121.179 Y145.619 E.03257
G1 X121.287 Y144.794 E.03001
G1 X121.615 Y143.992 E.03129
G1 X122.164 Y143.276 E.03257
G1 X122.823 Y142.77 E.03001
G1 X122.909 Y142.73 E.00341
G1 X123.023 Y142.734 E.00413
G1 X123.098 Y142.848 E.00493
G1 X123.238 Y145.137 E.0828
G1 X123.3 Y145.53 E.01434
G1 X123.352 Y145.689 E.00605
G1 X123.425 Y145.829 E.00568
G1 X123.559 Y146.003 E.00795
G1 X123.847 Y146.212 E.01283
G1 X124 Y146.28 E.00608
G1 X124.123 Y146.312 E.00457
G1 X124.358 Y146.337 E.00853
G1 X124.518 Y146.321 E.00581
G1 X124.766 Y146.257 E.00927
G1 X124.953 Y146.167 E.00748
G1 X125.113 Y146.045 E.00725
G1 X125.234 Y145.916 E.00638
G1 X125.371 Y145.659 E.01051
G1 X125.427 Y145.45 E.0078
G1 X125.464 Y145.088 E.01315
G1 X125.464 Y144.48 E.02195
G1 X125.395 Y142.653 E.06603
G1 X125.439 Y142.547 E.00413
G1 X125.584 Y142.521 E.00535
G1 X126.143 Y142.752 E.02184
G1 X126.672 Y143.158 E.02407
G1 X126.389 Y143.521 F9000
G1 F900
G1 X126.543 Y143.642 E.00707
G1 X126.972 Y144.207 E.02564
G1 X127.258 Y144.897 E.02696
G1 X127.355 Y145.636 E.02692
G1 X127.267 Y146.343 E.0257
G1 X126.971 Y147.066 E.02821
G1 X126.494 Y147.681 E.02811
G1 X125.897 Y148.127 E.0269
G1 X125.238 Y148.396 E.0257
G1 X124.499 Y148.493 E.02692
G1 X123.792 Y148.405 E.0257
G1 X123.069 Y148.109 E.02821
G1 X122.454 Y147.631 E.02811
G1 X122.008 Y147.035 E.0269
G1 X121.74 Y146.376 E.0257
G1 X121.642 Y145.636 E.02692
G1 X121.731 Y144.93 E.0257
G1 X122.026 Y144.207 E.02821
G1 X122.449 Y143.656 E.02506
G1 X122.55 Y143.603 E.00413
G1 X122.656 Y143.645 E.00413
G1 X122.694 Y143.731 E.00341
G1 X122.788 Y145.214 E.05364
G1 X122.869 Y145.681 E.01714
G1 X123.015 Y146.031 E.01369
G1 X123.191 Y146.275 E.01087
G1 X123.298 Y146.378 E.00535
G1 X123.668 Y146.632 E.01621
G1 X124.002 Y146.752 E.0128
G1 X124.413 Y146.79 E.01489
G1 X124.641 Y146.762 E.0083
G1 X124.87 Y146.702 E.00855
G1 X125.142 Y146.582 E.01076
G1 X125.452 Y146.351 E.01394
G1 X125.642 Y146.121 E.01076
G1 X125.815 Y145.766 E.01426
G1 X125.882 Y145.488 E.01033
G1 X125.918 Y145.142 E.01256
G1 X125.92 Y144.46 E.02462
G1 X125.881 Y143.41 E.03794
G1 X125.924 Y143.305 E.00413
G1 X126.033 Y143.269 E.00413
G1 X126.101 Y143.296 E.00265
G1 X126.357 Y143.496 E.01173
G1 X126.536 Y144.518 F9000
G1 F900
G1 X126.641 Y144.601 E.00483
G1 X126.815 Y145.034 E.01687
G1 X126.892 Y145.62 E.02135
G1 X126.814 Y146.243 E.02265
G1 X126.579 Y146.818 E.02242
G1 X126.182 Y147.337 E.02362
G1 X125.654 Y147.733 E.02381
G1 X125.103 Y147.952 E.02143
G1 X124.515 Y148.03 E.02142
G1 X123.892 Y147.952 E.02265
G1 X123.318 Y147.717 E.02242
G1 X122.798 Y147.319 E.02362
G1 X122.402 Y146.792 E.02381
G1 X122.183 Y146.24 E.02143
G1 X122.105 Y145.652 E.02142
G1 X122.112 Y145.562 E.00326
G1 X122.172 Y145.465 E.00413
G1 X122.285 Y145.447 E.00413
G1 X122.382 Y145.55 E.00509
G1 X122.452 Y145.867 E.01171
G1 X122.653 Y146.31 E.01757
G1 X122.815 Y146.535 E.01003
G1 X122.973 Y146.7 E.00825
G1 X123.405 Y147.005 E.01906
G1 X123.839 Y147.179 E.01689
G1 X124.358 Y147.244 E.01889
G1 X124.692 Y147.215 E.01213
G1 X124.976 Y147.147 E.01052
G1 X125.316 Y147.005 E.0133
G1 X125.72 Y146.72 E.01787
G1 X125.807 Y146.637 E.00433
G1 X126.058 Y146.309 E.01491
G1 X126.22 Y145.978 E.01331
G1 X126.325 Y145.602 E.0141
G1 X126.372 Y145.195 E.0148
G1 X126.377 Y144.652 E.0196
G1 X126.425 Y144.549 E.00413
G1 X126.497 Y144.529 E.00269
G1 E-3.5 F3600
;WIPE_START
G1 F900
G1 X126.641 Y144.601 E-.24106
G1 X126.815 Y145.034 E-.70066
G1 X126.863 Y145.403 E-.55828
;WIPE_END
G1 Z.6 F9000
G1 X99.638 Y145.603 Z.6
G1 Z.2
G1 E5 F2400
G1 F900
G1 X99.509 Y146.583 E.03566
G1 X99.131 Y147.495 E.03566
G1 X98.529 Y148.279 E.03566
G1 X97.746 Y148.88 E.03566
G1 X96.834 Y149.258 E.03566
G1 X95.854 Y149.387 E.03566
G1 X94.875 Y149.258 E.03566
G1 X93.963 Y148.88 E.03566
G1 X93.179 Y148.279 E.03566
G1 X92.578 Y147.495 E.03566
G1 X92.2 Y146.583 E.03566
G1 X92.071 Y145.603 E.03566
G1 X92.2 Y144.624 E.03566
G1 X92.578 Y143.712 E.03566
G1 X93.179 Y142.928 E.03566
G1 X93.963 Y142.327 E.03566
G1 X94.875 Y141.949 E.03566
G1 X95.09 Y141.921 E.00781
G1 X94.99 Y144.667 E.09921
G1 X95.015 Y145.333 E.02405
G1 X95.076 Y145.549 E.00811
G1 X95.141 Y145.654 E.00446
G1 X95.342 Y145.819 E.0094
G1 X95.481 Y145.866 E.00528
G1 X95.66 Y145.882 E.0065
G1 X95.837 Y145.854 E.00647
G1 X95.951 Y145.809 E.00443
G1 X96.148 Y145.647 E.0092
G1 X96.199 Y145.576 E.00317
G1 X96.254 Y145.443 E.00518
G1 X96.289 Y145.27 E.00639
G1 X96.501 Y141.905 E.12173
G1 X96.834 Y141.949 E.0121
G1 X97.746 Y142.327 E.03566
G1 X98.53 Y142.928 E.03566
G1 X99.131 Y143.712 E.03566
G1 X99.509 Y144.624 E.03566
G1 X99.632 Y145.564 E.03421
G1 X99.174 Y145.621 F9000
G1 F900
G1 X99.066 Y146.445 E.03001
G1 X98.738 Y147.248 E.03129
G1 X98.189 Y147.964 E.03257
G1 X97.499 Y148.487 E.03129
G1 X96.731 Y148.806 E.03001
G1 X95.836 Y148.923 E.03257
G1 X95.012 Y148.815 E.03001
G1 X94.21 Y148.487 E.03129
G1 X93.494 Y147.938 E.03257
G1 X92.97 Y147.248 E.03129
G1 X92.652 Y146.48 E.03001
G1 X92.535 Y145.586 E.03257
G1 X92.643 Y144.762 E.03001
G1 X92.97 Y143.959 E.03129
G1 X93.52 Y143.243 E.03257
G1 X94.179 Y142.737 E.03001
G1 X94.412 Y142.636 E.00918
G1 X94.526 Y142.64 E.00413
G1 X94.601 Y142.767 E.00534
G1 X94.533 Y144.689 E.06942
