; HEADER_BLOCK_START
; generated by OrcaSlicer 2.2.0 on 2024-12-19 at 15:36:18
; total layer number: 68
; filament_density: 1.24
; filament_diameter: 1.75
; max_z_height: 13.60
; HEADER_BLOCK_END

; THUMBNAIL_BLOCK_START

;
; THUMBNAIL_BLOCK_END

; THUMBNAIL_BLOCK_START

;
; THUMBNAIL_BLOCK_END

; external perimeters extrusion width = 0.40mm
; perimeters extrusion width = 0.45mm
; infill extrusion width = 0.45mm
; solid infill extrusion width = 0.40mm
; top infill extrusion width = 0.40mm
; support material extrusion width = 0.40mm
; first layer extrusion width = 0.50mm

; EXECUTABLE_BLOCK_START
EXCLUDE_OBJECT_DEFINE NAME=pixel8_case_flexible.stl_id_0_copy_0 CENTER=110,110 POLYGON=[[71.8419,43.6365],[71.8514,43.1739],[71.8614,43.0068],[71.8801,42.7121],[71.9278,42.2519],[71.9945,41.7941],[72.0801,41.3394],[72.1844,40.8886],[72.3072,40.4425],[72.4484,40.0019],[72.6076,39.5675],[72.7847,39.14],[72.9047,38.88],[72.9792,38.7203],[73.116,38.4537],[73.191,38.3089],[73.3431,38.0406],[73.4196,37.9066],[73.5826,37.6448],[73.6646,37.5141],[73.8383,37.2593],[73.9256,37.1321],[74.1097,36.8846],[74.2022,36.7612],[74.3963,36.5215],[74.4938,36.402],[74.6977,36.1706],[74.8001,36.0552],[75.0134,35.8324],[75.1204,35.7214],[75.3427,35.5076],[75.4543,35.401],[75.6852,35.1966],[75.8011,35.0948],[76.0403,34.9001],[76.1602,34.8031],[76.4073,34.6185],[76.5312,34.5265],[76.7856,34.3522],[76.9132,34.2655],[77.1747,34.1019],[77.3057,34.0205],[77.4396,33.944],[77.708,33.7919],[77.8527,33.717],[78.1193,33.5802],[78.279,33.5056],[78.5391,33.3856],[78.9666,33.2086],[79.401,33.0493],[79.8416,32.9082],[80.2877,32.7853],[80.7384,32.681],[81.1931,32.5955],[81.651,32.5288],[82.1112,32.481],[82.4058,32.4623],[82.573,32.4524],[83.0356,32.4428],[135.931,32.4428],[136.394,32.4524],[136.561,32.4623],[136.856,32.481],[137.316,32.5288],[137.774,32.5955],[138.229,32.681],[138.679,32.7853],[139.125,32.9082],[139.566,33.0493],[140,33.2086],[140.428,33.3856],[140.688,33.5056],[140.848,33.5802],[141.114,33.717],[141.259,33.7919],[141.527,33.944],[141.661,34.0205],[141.923,34.1836],[142.054,34.2655],[142.181,34.3522],[142.436,34.5265],[142.56,34.6185],[142.807,34.8031],[143.046,34.9973],[143.166,35.0948],[143.282,35.1966],[143.513,35.401],[143.624,35.5076],[143.847,35.7214],[144.06,35.9437],[144.167,36.0552],[144.269,36.1706],[144.473,36.402],[144.571,36.5215],[144.765,36.7612],[144.949,37.0083],[145.041,37.1321],[145.216,37.3866],[145.302,37.5141],[145.466,37.7756],[145.547,37.9066],[145.624,38.0406],[145.776,38.3089],[145.851,38.4537],[145.988,38.7203],[146.062,38.88],[146.182,39.14],[146.359,39.5675],[146.519,40.0019],[146.66,40.4425],[146.783,40.8886],[146.887,41.3394],[146.972,41.7941],[147.039,42.2519],[147.087,42.7121],[147.106,43.0068],[147.116,43.1739],[147.125,43.6365],[148.158,107.103],[148.158,145.164],[147.116,176.826],[147.106,176.993],[147.087,177.288],[147.039,177.748],[146.972,178.206],[146.887,178.661],[146.783,179.111],[146.66,179.557],[146.519,179.998],[146.359,180.432],[146.182,180.86],[146.062,181.12],[145.988,181.28],[145.851,181.546],[145.776,181.691],[145.624,181.959],[145.547,182.093],[145.384,182.355],[145.302,182.486],[145.129,182.741],[145.041,182.868],[144.857,183.115],[144.765,183.239],[144.571,183.478],[144.473,183.598],[144.269,183.829],[144.167,183.945],[143.954,184.168],[143.847,184.279],[143.624,184.492],[143.513,184.599],[143.282,184.803],[143.166,184.905],[142.927,185.1],[142.807,185.197],[142.56,185.382],[142.436,185.473],[142.181,185.648],[142.054,185.734],[141.792,185.898],[141.661,185.979],[141.527,186.056],[141.259,186.208],[141.114,186.283],[140.848,186.42],[140.688,186.494],[140.428,186.614],[140,186.791],[139.566,186.951],[139.125,187.092],[138.679,187.215],[138.229,187.319],[137.774,187.405],[137.316,187.471],[136.856,187.519],[136.561,187.538],[136.394,187.548],[135.931,187.557],[83.0356,187.557],[82.573,187.548],[82.4058,187.538],[82.1112,187.519],[81.651,187.471],[81.1931,187.405],[80.7384,187.319],[80.2877,187.215],[79.8416,187.092],[79.401,186.951],[78.9666,186.791],[78.5391,186.614],[78.279,186.494],[78.1193,186.42],[77.8527,186.283],[77.708,186.208],[77.4396,186.056],[77.3057,185.979],[77.0438,185.816],[76.9132,185.734],[76.7856,185.648],[76.5312,185.473],[76.4073,185.382],[76.1602,185.197],[75.9206,185.003],[75.8011,184.905],[75.6852,184.803],[75.4543,184.599],[75.3427,184.492],[75.1204,184.279],[74.9066,184.056],[74.8001,183.945],[74.6977,183.829],[74.4938,183.598],[74.3963,183.478],[74.2022,183.239],[74.0175,182.992],[73.9256,182.868],[73.7513,182.613],[73.6646,182.486],[73.501,182.224],[73.4196,182.093],[73.3431,181.959],[73.191,181.691],[73.116,181.546],[72.9792,181.28],[72.9047,181.12],[72.7847,180.86],[72.6076,180.432],[72.4484,179.998],[72.3072,179.557],[72.1844,179.111],[72.0801,178.661],[71.9945,178.206],[71.9278,177.748],[71.8801,177.288],[71.8614,176.993],[71.8514,176.826],[71.8419,176.363],[71.8419,43.6365]]
M73 P0 R335
;TYPE:Custom
M117 ; clear display for KAMP meshing
START_PRINT BED_TEMP=35 EXTRUDER_TEMP=240
G90
G21
M83 ; use relative distances for extrusion
; filament start gcode
M106 S0
;LAYER_CHANGE
;Z:0.2
;HEIGHT:0.2
;BEFORE_LAYER_CHANGE
;0.2
G92 E0

G1 E-.4 F3600
;_SET_FAN_SPEED_CHANGING_LAYER
SET_VELOCITY_LIMIT ACCEL=500 ACCEL_TO_DECEL=250
; printing object pixel8_case_flexible.stl id:0 copy 0
EXCLUDE_OBJECT_START NAME=pixel8_case_flexible.stl_id_0_copy_0
G1 Z.6 F9000
G1 X111.708 Y24.552
G1 Z.6
G1 Z.2
G1 E.4 F2400
;TYPE:Support
;WIDTH:0.5
G1 F900
G1 X112.101 Y24.57 E.01496
G1 X113.032 Y24.782 E.03628
G1 X113.91 Y25.157 E.03628
G1 X114.706 Y25.683 E.03628
G1 X115.396 Y26.343 E.03628
G1 X115.957 Y27.116 E.03628
G1 X116.369 Y27.97 E.03606
G1 X117.056 Y26.823 E.05084
G1 X117.685 Y26.106 E.03623
G1 X118.431 Y25.513 E.03622
G1 X119.27 Y25.062 E.03621
G1 X120.176 Y24.768 E.03621
G1 X121.12 Y24.641 E.03621
G1 X121.47 Y24.656 E.0133
G1 X122.072 Y24.683 E.02291
G1 X123.001 Y24.895 E.03621
G1 X123.877 Y25.269 E.03621
G1 X124.673 Y25.793 E.03622
G1 X125.093 Y26.193 E.02205
G1 X125.29 Y26.014 E.01015
G1 X126.103 Y25.511 E.03631
G1 X126.993 Y25.166 E.03631
G1 X127.932 Y24.99 E.03631
G1 X128.485 Y24.99 E.02099
G1 X128.888 Y24.99 E.01531
G1 X129.827 Y25.166 E.03631
G1 X130.717 Y25.511 E.0363
G1 X131.529 Y26.014 E.0363
G1 X132.235 Y26.658 E.0363
G1 X132.81 Y27.42 E.0363
G1 X133.236 Y28.275 E.0363
G1 X133.497 Y29.194 E.0363
G1 X133.585 Y30.145 E.0363
G1 X133.497 Y31.095 E.0363
G1 X133.235 Y32.014 E.03629
G1 X132.809 Y32.869 E.03629
G1 X132.234 Y33.631 E.03629
G1 X131.528 Y34.274 E.03629
G1 X130.716 Y34.776 E.03629
G1 X130.01 Y35.05 E.0288
G1 X126.809 Y35.05 E.12164
G1 X126.103 Y34.777 E.02877
G1 X125.291 Y34.274 E.03629
G1 X124.896 Y33.914 E.02034
G1 X124.683 Y34.118 E.01121
G1 X123.886 Y34.645 E.03633
G1 X123.007 Y35.021 E.03633
G1 X122.881 Y35.05 E.0049
G1 X119.868 Y35.05 E.1145
G1 X119.263 Y34.853 E.0242
G1 X118.421 Y34.399 E.03633
G1 X117.675 Y33.803 E.03633
G1 X117.047 Y33.082 E.03632
G1 X116.309 Y31.843 E.0548
G1 X115.956 Y32.576 E.03093
G1 X115.395 Y33.348 E.03627
G1 X114.705 Y34.008 E.03627
G1 X113.909 Y34.533 E.03627
G1 X113.032 Y34.908 E.03627
G1 X112.411 Y35.05 E.02418
G1 X110.308 Y35.05 E.07995
G1 X110.202 Y35.036 E.00405
G1 X109.295 Y34.741 E.03627
G1 X108.454 Y34.289 E.03627
G1 X108.215 Y34.099 E.0116
G1 X107.386 Y34.647 E.03779
G1 X106.507 Y35.023 E.03633
G1 X106.39 Y35.05 E.00457
G1 X103.364 Y35.05 E.11502
G1 X102.764 Y34.855 E.02396
G1 X101.923 Y34.401 E.03633
G1 X101.176 Y33.805 E.03632
G1 X100.363 Y32.872 E.04705
G1 X99.935 Y33.462 E.02771
G1 X99.245 Y34.123 E.03631
G1 X98.448 Y34.65 E.03631
G1 X97.57 Y35.026 E.03632
G1 X97.464 Y35.05 E.00411
G1 X94.418 Y35.05 E.11576
G1 X93.827 Y34.858 E.02362
G1 X92.986 Y34.405 E.03632
G1 X92.653 Y34.139 E.0162
G1 X91.8 Y34.702 E.03887
G1 X90.984 Y35.05 E.03369
G1 X87.62 Y35.05 E.12786
G1 X87.186 Y34.909 E.01737
G1 X86.345 Y34.457 E.03627
G1 X85.599 Y33.862 E.03627
G1 X84.971 Y33.144 E.03627
G1 X84.482 Y32.324 E.03627
G1 X84.146 Y31.431 E.03627
G1 X83.975 Y30.492 E.03627
G1 X83.975 Y29.538 E.03628
G1 X84.145 Y28.598 E.03628
G1 X84.48 Y27.705 E.03628
G1 X84.97 Y26.885 E.03628
G1 X85.598 Y26.166 E.03628
G1 X86.344 Y25.571 E.03628
G1 X87.185 Y25.118 E.03628
G1 X88.093 Y24.823 E.03629
G1 X89.039 Y24.695 E.03629
G1 X89.992 Y24.738 E.03629
G1 X90.923 Y24.95 E.03629
G1 X91.801 Y25.325 E.03628
G1 X92.585 Y25.843 E.03569
G1 X92.993 Y25.518 E.01982
G1 X93.833 Y25.067 E.03623
G1 X94.739 Y24.773 E.03623
G1 X95.684 Y24.645 E.03623
G1 X96.045 Y24.661 E.01375
G1 X96.636 Y24.688 E.02247
G1 X97.565 Y24.9 E.03623
G1 X98.442 Y25.274 E.03623
G1 X99.238 Y25.798 E.03623
G1 X99.928 Y26.457 E.03624
G1 X100.36 Y27.05 E.0279
G1 X101.185 Y26.109 E.04757
G1 X101.931 Y25.515 E.03623
G1 X102.77 Y25.064 E.03622
G1 X103.677 Y24.77 E.03622
G1 X104.621 Y24.643 E.03622
G1 X105.573 Y24.685 E.03622
G1 X106.502 Y24.897 E.03622
G1 X107.379 Y25.271 E.03622
G1 X108.057 Y25.718 E.03088
G1 X108.453 Y25.402 E.01925
G1 X109.294 Y24.95 E.03628
G1 X110.202 Y24.655 E.03628
G1 X111.148 Y24.527 E.03628
G1 X111.64 Y24.549 E.01872
G1 E-.28 F3600
;WIPE_START
G1 F900
G1 X111.148 Y24.527 E-.0591
G1 X110.645 Y24.595 E-.0609
;WIPE_END
G1 Z.6 F9000
G1 X132.854 Y32.318 Z.6
G1 Z.2
G1 E.4 F2400
G1 F900
G1 X132.854 Y28.436 E.14754
G1 X132.851 Y28.424 E.00046
G1 X132.459 Y27.637 E.0334
G1 X132.346 Y27.488 E.00713
G1 X132.346 Y32.799 E.20188
G1 X131.929 Y33.352 E.02633
G1 X131.838 Y33.435 E.00465
G1 X131.838 Y26.853 E.25016
G1 X131.33 Y26.389 E.02612
G1 X131.33 Y33.897 E.28535
G1 X131.279 Y33.944 E.00263
G1 X130.823 Y34.227 E.02042
G1 X130.823 Y26.06 E.31039
G1 X130.533 Y25.881 E.01294
G1 X130.315 Y25.796 E.0089
G1 X130.315 Y34.491 E.33045
G1 X129.933 Y34.639 E.01556
G1 X129.807 Y34.639 E.00479
G1 X129.807 Y25.599 E.34356
G1 X129.713 Y25.563 E.00381
G1 X129.299 Y25.486 E.01603
G1 X129.299 Y34.639 E.34788
G1 X128.791 Y34.639 E.0193
G1 X128.791 Y25.401 E.35107
G1 X128.485 Y25.401 E.01165
G1 X128.283 Y25.401 E.00765
G1 X128.283 Y34.639 E.35107
G1 X127.775 Y34.639 E.0193
G1 X127.775 Y25.438 E.34969
G1 X127.267 Y25.533 E.01964
G1 X127.267 Y34.639 E.34608
G1 X126.886 Y34.639 E.01449
G1 X126.76 Y34.59 E.00516
G1 X126.76 Y25.697 E.33797
G1 X126.287 Y25.88 E.01928
G1 X126.252 Y25.902 E.00156
G1 X126.252 Y34.385 E.32239
G1 X125.744 Y34.07 E.0227
G1 X125.744 Y26.217 E.2985
G1 X125.539 Y26.343 E.00914
G1 X125.236 Y26.62 E.0156
G1 X125.236 Y33.667 E.26784
G1 X124.889 Y33.351 E.01786
G1 X124.728 Y33.504 E.00845
G1 X124.728 Y26.414 E.26949
G1 X124.416 Y26.116 E.01639
G1 X124.22 Y25.987 E.00891
G1 X124.22 Y33.93 E.30189
G1 X123.712 Y34.266 E.02314
G1 X123.712 Y25.653 E.32737
G1 X123.682 Y25.633 E.00139
G1 X123.205 Y25.429 E.01973
G1 X123.205 Y34.489 E.34434
G1 X122.879 Y34.629 E.01346
G1 X122.835 Y34.639 E.00172
G1 X122.697 Y34.639 E.00525
G1 X122.697 Y25.248 E.35692
G1 X122.189 Y25.132 E.0198
G1 X122.189 Y34.639 E.36132
G1 X121.681 Y34.639 E.0193
G1 X121.681 Y25.078 E.36338
G1 X121.452 Y25.067 E.00873
G1 X121.173 Y25.055 E.01059
G1 X121.173 Y34.639 E.36424
G1 X120.665 Y34.639 E.0193
G1 X120.665 Y25.117 E.36187
G1 X120.268 Y25.171 E.01523
G1 X120.157 Y25.207 E.00443
G1 X120.157 Y34.639 E.35846
G1 X119.934 Y34.639 E.0085
G1 X119.649 Y34.546 E.01136
G1 X119.649 Y25.372 E.34869
G1 X119.432 Y25.442 E.00868
G1 X119.142 Y25.598 E.01253
G1 X119.142 Y34.32 E.33149
G1 X118.649 Y34.055 E.02125
G1 X118.634 Y34.042 E.00076
G1 X118.634 Y25.877 E.31033
G1 X118.126 Y26.281 E.02466
G1 X118.126 Y33.636 E.27955
G1 X117.961 Y33.504 E.00804
G1 X117.618 Y33.111 E.01982
G1 X117.618 Y26.807 E.23961
G1 X117.39 Y27.067 E.01313
G1 X117.11 Y27.534 E.0207
G1 X117.11 Y32.384 E.18434
G1 X116.602 Y31.531 E.03773
G1 X116.602 Y28.381 E.11973
G1 X116.329 Y28.836 E.02021
G1 X116.094 Y28.349 E.02054
G1 X116.094 Y31.342 E.11372
G1 X115.602 Y32.364 E.04315
G1 X115.587 Y32.385 E.00098
G1 X115.587 Y27.305 E.19306
G1 X115.085 Y26.615 E.03244
G1 X115.079 Y26.609 E.00033
G1 X115.079 Y33.082 E.24601
G1 X114.571 Y33.567 E.0267
G1 X114.571 Y26.123 E.28293
G1 X114.449 Y26.006 E.00642
G1 X114.063 Y25.752 E.01757
G1 X114.063 Y33.939 E.31117
G1 X113.713 Y34.17 E.01592
G1 X113.555 Y34.237 E.00654
G1 X113.555 Y25.453 E.33385
G1 X113.047 Y25.236 E.02099
G1 X113.047 Y34.454 E.35036
G1 X112.904 Y34.516 E.00592
G1 X112.539 Y34.599 E.01421
G1 X112.539 Y25.092 E.36134
G1 X112.046 Y24.979 E.01924
G1 X112.031 Y24.978 E.00055
G1 X112.031 Y34.639 E.36716
G1 X111.524 Y34.639 E.0193
G1 X111.524 Y24.955 E.36803
G1 X111.166 Y24.939 E.01359
G1 X111.016 Y24.96 E.00577
G1 X111.016 Y34.639 E.36786
G1 X110.508 Y34.639 E.0193
G1 X110.508 Y25.028 E.36525
G1 X110.294 Y25.057 E.00822
G1 X110 Y25.153 E.01174
G1 X110 Y34.538 E.35668
G1 X109.492 Y34.373 E.02029
G1 X109.492 Y25.318 E.34414
G1 X109.456 Y25.33 E.00144
G1 X108.984 Y25.584 E.02037
G1 X108.984 Y34.107 E.32395
G1 X108.682 Y33.944 E.01307
G1 X108.476 Y33.781 E.00997
G1 X108.476 Y25.91 E.29914
G1 X108.08 Y26.226 E.01926
G1 X107.969 Y26.152 E.00509
G1 X107.969 Y33.769 E.28948
G1 X107.461 Y34.104 E.02314
G1 X107.461 Y25.817 E.31496
G1 X107.183 Y25.635 E.01262
G1 X106.953 Y25.536 E.00953
G1 X106.953 Y34.385 E.3363
G1 X106.445 Y34.602 E.021
G1 X106.445 Y25.32 E.3528
G1 X106.375 Y25.29 E.0029
G1 X105.937 Y25.19 E.01706
G1 X105.937 Y34.639 E.35911
M73 P0 R334
G1 X105.429 Y34.639 E.0193
M73 P0 R334
G1 X105.429 Y25.091 E.36289
G1 X104.921 Y25.068 E.01932
G1 X104.921 Y34.639 E.36376
G1 X104.413 Y34.639 E.0193
G1 X104.413 Y25.086 E.36307
G1 X103.906 Y25.154 E.01948
G1 X103.906 Y34.639 E.36047
G1 X103.429 Y34.639 E.01812
G1 X103.398 Y34.629 E.00125
G1 X103.398 Y25.293 E.3548
G1 X102.932 Y25.444 E.01859
G1 X102.89 Y25.467 E.00184
G1 X102.89 Y34.455 E.34162
G1 X102.382 Y34.182 E.02193
G1 X102.382 Y25.74 E.32085
G1 X102.158 Y25.86 E.00967
G1 X101.874 Y26.086 E.01378
G1 X101.874 Y33.836 E.29455
G1 X101.462 Y33.507 E.02005
G1 X101.366 Y33.397 E.00554
G1 X101.366 Y26.526 E.26114
G1 X100.858 Y27.106 E.0293
G1 X100.858 Y32.814 E.21696
G1 X100.351 Y32.232 E.02938
G1 X100.351 Y27.686 E.17278
G1 X100.331 Y27.708 E.00115
G1 X99.843 Y27.038 E.0315
G1 X99.843 Y32.889 E.22235
G1 X99.624 Y33.191 E.01418
G1 X99.335 Y33.467 E.0152
G1 X99.335 Y26.459 E.26636
G1 X98.981 Y26.122 E.01859
G1 X98.827 Y26.02 E.00701
G1 X98.827 Y33.906 E.29973
G1 X98.319 Y34.242 E.02314
G1 X98.319 Y25.685 E.32521
G1 X98.247 Y25.638 E.0033
G1 X97.811 Y25.452 E.01799
G1 X97.811 Y34.475 E.34294
G1 X97.442 Y34.633 E.01528
G1 X97.418 Y34.639 E.00093
G1 X97.303 Y34.639 E.00435
G1 X97.303 Y25.262 E.35638
G1 X96.795 Y25.146 E.0198
G1 X96.795 Y34.639 E.36078
G1 X96.288 Y34.639 E.0193
G1 X96.288 Y25.084 E.36314
G1 X96.027 Y25.072 E.00992
G1 X95.78 Y25.061 E.0094
G1 X95.78 Y34.639 E.36401
G1 X95.272 Y34.639 E.0193
G1 X95.272 Y25.116 E.36193
G1 X94.831 Y25.175 E.01691
G1 X94.764 Y25.197 E.00268
G1 X94.764 Y34.639 E.35884
G1 X94.484 Y34.639 E.01065
G1 X94.256 Y34.565 E.00909
G1 X94.256 Y25.362 E.34976
G1 X93.995 Y25.447 E.01045
G1 X93.748 Y25.579 E.01063
G1 X93.748 Y34.348 E.33326
G1 X93.24 Y34.074 E.02193
G1 X93.24 Y25.852 E.31249
G1 X93.22 Y25.863 E.00088
G1 X92.733 Y26.251 E.02368
G1 X92.733 Y33.675 E.28217
G1 X92.676 Y33.63 E.00274
G1 X92.225 Y33.928 E.02056
G1 X92.225 Y26.098 E.2976
G1 X91.717 Y25.763 E.02313
G1 X91.717 Y34.264 E.32308
G1 X91.604 Y34.338 E.00514
G1 X91.209 Y34.507 E.01633
G1 X91.209 Y25.52 E.34157
G1 X90.796 Y25.343 E.01709
G1 X90.701 Y25.321 E.00368
G1 X90.701 Y34.639 E.35412
G1 X90.193 Y34.639 E.0193
G1 X90.193 Y25.205 E.35853
G1 X89.937 Y25.147 E.00999
G1 X89.685 Y25.136 E.00957
G1 X89.685 Y34.639 E.36118
G1 X89.178 Y34.639 E.0193
G1 X89.178 Y25.113 E.36205
G1 X89.057 Y25.107 E.00458
G1 X88.67 Y25.16 E.01486
G1 X88.67 Y34.639 E.36026
G1 X88.162 Y34.639 E.0193
G1 X88.162 Y25.233 E.35748
G1 X87.654 Y25.398 E.0203
G1 X87.654 Y34.628 E.35082
G1 X87.348 Y34.529 E.01222
G1 X87.146 Y34.42 E.00872
G1 X87.146 Y25.606 E.33501
G1 X86.638 Y25.879 E.02192
G1 X86.638 Y34.147 E.31423
G1 X86.573 Y34.112 E.00282
G1 X86.13 Y33.759 E.02151
G1 X86.13 Y26.267 E.28475
G1 X85.883 Y26.464 E.01202
G1 X85.622 Y26.763 E.01506
G1 X85.622 Y33.264 E.24707
G1 X85.305 Y32.901 E.01832
