; HEADER_BLOCK_START
; generated by OrcaSlicer 2.1.1 on 2024-09-11 at 15:18:47
; total layer number: 50
; filament_density: 1.24
; filament_diameter: 1.75
; max_z_height: 10.00
; HEADER_BLOCK_END

; THUMBNAIL_BLOCK_START

;
; THUMBNAIL_BLOCK_END

; THUMBNAIL_BLOCK_START

;
; THUMBNAIL_BLOCK_END

; external perimeters extrusion width = 0.40mm
; perimeters extrusion width = 0.45mm
; infill extrusion width = 0.45mm
; solid infill extrusion width = 0.40mm
; top infill extrusion width = 0.40mm
; support material extrusion width = 0.40mm
; first layer extrusion width = 0.50mm

; EXECUTABLE_BLOCK_START
EXCLUDE_OBJECT_DEFINE NAME=S22_Case_basic.STL_id_0_copy_0 CENTER=110,110 POLYGON=[[72.7525,45.027],[72.7646,44.7341],[72.7853,44.2327],[72.7875,44.2061],[72.8089,44.0345],[72.8179,43.9626],[72.8239,43.9144],[72.8837,43.4436],[72.8927,43.3911],[72.9176,43.2722],[72.9432,43.1505],[72.9532,43.1028],[73.0472,42.6653],[73.0672,42.5882],[73.1021,42.4714],[73.1516,42.3054],[73.2745,41.9034],[73.3099,41.8032],[73.3544,41.6892],[73.4175,41.528],[73.5641,41.1629],[73.6189,41.0419],[73.6729,40.9316],[73.7491,40.7763],[73.9141,40.4489],[73.9919,40.3098],[74.0552,40.204],[74.1193,40.0967],[74.1438,40.0557],[74.322,39.7664],[74.4263,39.6124],[74.4983,39.5118],[74.5711,39.4102],[74.5987,39.3716],[74.785,39.12],[74.9187,38.9546],[75.1108,38.7286],[75.3004,38.5134],[75.4658,38.3411],[75.5539,38.2534],[75.6421,38.1655],[75.6759,38.1318],[75.8643,37.9515],[76.0633,37.7767],[76.0999,37.7459],[76.1951,37.6655],[76.2901,37.5854],[76.4727,37.4382],[76.7069,37.2655],[76.7459,37.2377],[76.9487,37.0936],[77.1216,36.9771],[77.3919,36.8111],[77.4332,36.7867],[77.5407,36.723],[77.647,36.66],[77.8063,36.5713],[78.1132,36.4172],[78.269,36.3415],[78.3798,36.2877],[78.5224,36.2236],[78.8656,36.0864],[78.911,36.0689],[79.1419,35.9796],[79.2648,35.9365],[79.6437,35.8214],[79.6905,35.8076],[79.9275,35.7379],[80.0285,35.712],[80.6983,35.57],[80.7208,35.5662],[81.422,35.4718],[81.4804,35.4663],[81.6023,35.4589],[81.7266,35.4515],[81.7426,35.4505],[82.1282,35.4293],[82.2682,35.4275],[82.3517,35.4266],[104.901,35.4254],[134.902,35.424],[137.042,35.4239],[137.209,35.4307],[137.335,35.436],[137.837,35.4568],[137.863,35.4589],[137.997,35.4756],[138.106,35.4893],[138.155,35.4953],[138.626,35.5552],[138.678,35.5641],[138.797,35.589],[138.919,35.6146],[138.966,35.6246],[139.404,35.7187],[139.481,35.7386],[139.598,35.7734],[139.717,35.809],[139.764,35.8229],[140.166,35.946],[140.266,35.9812],[140.541,36.0889],[140.906,36.2356],[141.027,36.2903],[141.137,36.3443],[141.293,36.4204],[141.62,36.5856],[141.759,36.6633],[141.865,36.7265],[142.013,36.8152],[142.303,36.9935],[142.457,37.0977],[142.557,37.1697],[142.659,37.2425],[142.697,37.2701],[142.949,37.4565],[143.114,37.5901],[143.209,37.6704],[143.304,37.7512],[143.34,37.7821],[143.556,37.9719],[143.728,38.1372],[143.904,38.3134],[143.937,38.3473],[144.118,38.5358],[144.292,38.7347],[144.427,38.8945],[144.484,38.9615],[144.631,39.1443],[144.804,39.3783],[144.904,39.5191],[144.975,39.6201],[145.092,39.7931],[145.258,40.0633],[145.282,40.1046],[145.346,40.2121],[145.409,40.3184],[145.498,40.4779],[145.652,40.7846],[145.673,40.8281],[145.728,40.9404],[145.781,41.0512],[145.846,41.1939],[145.983,41.537],[146,41.5824],[146.045,41.6988],[146.089,41.8132],[146.133,41.9363],[146.248,42.3151],[146.261,42.3619],[146.297,42.4815],[146.331,42.5989],[146.357,42.7],[146.499,43.3697],[146.503,43.3923],[146.597,44.0935],[146.603,44.1517],[146.61,44.2737],[146.619,44.414],[146.64,44.7997],[146.642,45.0235],[147.246,110.051],[147.246,110.159],[147.246,110.755],[147.246,119.882],[147.248,145.815],[147.248,145.893],[146.497,175.521],[146.495,175.574],[146.487,175.757],[146.481,175.86],[146.474,175.962],[146.458,176.147],[146.453,176.197],[146.426,176.432],[146.411,176.539],[146.395,176.648],[146.393,176.661],[146.385,176.716],[146.345,176.945],[146.335,176.999],[146.318,177.086],[146.304,177.156],[146.277,177.28],[146.269,177.313],[146.22,177.52],[146.21,177.56],[146.169,177.713],[146.135,177.836],[146.126,177.866],[146.062,178.074],[146.05,178.112],[145.958,178.383],[145.857,178.652],[145.825,178.734],[145.791,178.817],[145.79,178.821],[145.748,178.918],[145.675,179.086],[145.631,179.181],[145.589,179.27],[145.546,179.359],[145.502,179.447],[145.457,179.535],[145.416,179.614],[145.373,179.694],[145.321,179.788],[145.268,179.882],[145.223,179.959],[145.178,180.037],[145.131,180.114],[145.084,180.19],[145.063,180.223],[144.973,180.364],[144.951,180.397],[144.905,180.465],[144.859,180.533],[144.812,180.6],[144.765,180.667],[144.727,180.72],[144.689,180.772],[144.65,180.824],[144.611,180.876],[144.571,180.929],[144.529,180.983],[144.517,180.998],[144.504,181.015],[144.492,181.031],[144.479,181.047],[144.466,181.063],[144.453,181.079],[144.44,181.095],[144.363,181.186],[144.286,181.276],[144.101,181.487],[143.937,181.657],[143.854,181.74],[143.768,181.826],[143.725,181.868],[143.537,182.049],[143.336,182.225],[143.115,182.412],[142.929,182.562],[142.688,182.739],[142.572,182.821],[142.459,182.902],[142.28,183.023],[141.998,183.196],[141.762,183.336],[141.595,183.429],[141.271,183.591],[141.03,183.708],[140.879,183.777],[140.512,183.923],[140.269,184.017],[140.137,184.064],[139.728,184.188],[139.64,184.213],[139.482,184.26],[139.373,184.288],[138.705,184.429],[138.681,184.434],[137.979,184.528],[137.915,184.534],[137.698,184.547],[137.273,184.571],[137.049,184.573],[82.3594,184.576],[81.5649,184.543],[81.5376,184.541],[81.4028,184.524],[81.2631,184.507],[80.7758,184.445],[80.7212,184.435],[80.5824,184.406],[80.4548,184.379],[79.9975,184.281],[79.9164,184.26],[79.7754,184.218],[79.6595,184.184],[79.2356,184.054],[79.1293,184.016],[78.9879,183.961],[78.8832,183.92],[78.4951,183.765],[78.3658,183.706],[78.2256,183.637],[78.1317,183.591],[77.7812,183.414],[77.6315,183.331],[77.4942,183.249],[77.4105,183.198],[77.0986,183.007],[76.9319,182.893],[76.7992,182.798],[76.7251,182.745],[76.4522,182.544],[76.2723,182.398],[76.0803,182.235],[75.8456,182.028],[75.6574,181.847],[75.4812,181.67],[75.2837,181.464],[75.092,181.246],[74.9324,181.057],[74.7705,180.856],[74.5803,180.598],[74.538,180.538],[74.438,180.398],[74.3093,180.207],[74.1262,179.908],[74.0018,179.698],[73.9035,179.522],[73.7331,179.183],[73.6271,178.964],[73.5558,178.806],[73.404,178.426],[73.3168,178.2],[73.2687,178.064],[73.1412,177.644],[73.1227,177.581],[73.0732,177.412],[73.0442,177.3],[72.9028,176.633],[72.8984,176.608],[72.804,175.907],[72.798,175.842],[72.7875,175.666],[72.7852,175.628],[72.7616,175.2],[72.7597,175.045],[72.7589,174.976],[72.7568,133.076],[72.7543,82.171],[72.7525,45.027]]
M73 P0 R149
;TYPE:Custom
M117 ; clear display for KAMP meshing
START_PRINT BED_TEMP=35 EXTRUDER_TEMP=240
G90
G21
M83 ; use relative distances for extrusion
; filament start gcode
M106 S0
;LAYER_CHANGE
;Z:0.2
;HEIGHT:0.2
;BEFORE_LAYER_CHANGE
;0.2
G92 E0

G1 E-.4 F3600
;_SET_FAN_SPEED_CHANGING_LAYER
SET_VELOCITY_LIMIT ACCEL=500 ACCEL_TO_DECEL=250
; printing object S22_Case basic.STL id:0 copy 0
EXCLUDE_OBJECT_START NAME=S22_Case_basic.STL_id_0_copy_0
G1 Z.4 F9000
G1 X107.828 Y29.846
G1 Z.4
G1 Z.2
G1 E.4 F2400
;TYPE:Support
;WIDTH:0.5
G1 F900
G1 X108.689 Y30.082 E.03391
G1 X109.664 Y30.624 E.04239
G1 X110.014 Y30.423 E.01533
G1 X110.445 Y30.282 E.01723
G1 X110.946 Y30.158 E.01963
G1 X111.822 Y30.135 E.03331
G1 X112.685 Y30.328 E.03361
G1 X113.524 Y30.75 E.03568
G1 X114.194 Y31.33 E.0337
G1 X114.712 Y32.07 E.03433
G1 X115.034 Y32.914 E.03434
G1 X115.139 Y33.808 E.03418
G1 X115.021 Y34.712 E.03466
G1 X114.69 Y35.55 E.03423
G1 X114.162 Y36.284 E.03437
G1 X113.482 Y36.857 E.03381
G1 X109.489 Y36.857 E.15174
G1 X109.41 Y36.808 E.00356
G1 X109.318 Y36.857 E.00398
G1 X105.181 Y36.858 E.15721
G1 X104.522 Y36.31 E.03256
G1 X104.26 Y35.999 E.01546
G1 X103.931 Y35.527 E.02187
G1 X103.61 Y34.778 E.03096
G1 X103.51 Y34.361 E.01633
G1 X103.446 Y33.862 E.01911
G1 X103.445 Y33.453 E.01553
G1 X103.501 Y32.965 E.0187
G1 X103.596 Y32.556 E.01596
G1 X103.763 Y32.105 E.01827
G1 X103.956 Y31.719 E.0164
G1 X104.219 Y31.33 E.01785
G1 X104.527 Y30.961 E.01828
G1 X105.199 Y30.408 E.03304
G1 X105.994 Y30.025 E.03356
G1 X106.458 Y29.908 E.01819
G1 X106.946 Y29.821 E.01884
G1 X107.76 Y29.844 E.03093
G1 X114.571 Y35.291 F9000
G1 F900
G1 X114.571 Y32.855 E.09261
G1 X114.346 Y32.264 E.02402
G1 X114.063 Y31.86 E.01875
G1 X114.063 Y35.717 E.14658
G1 X113.858 Y36.002 E.01336
G1 X113.555 Y36.257 E.01505
G1 X113.555 Y31.321 E.18761
G1 X113.29 Y31.092 E.01331
G1 X113.047 Y30.963 E.01044
G1 X113.047 Y36.446 E.20837
G1 X112.539 Y36.446 E.0193
G1 X112.539 Y30.717 E.21774
G1 X112.031 Y30.603 E.01978
G1 X112.031 Y36.446 E.22206
G1 X111.524 Y36.446 E.0193
G1 X111.524 Y30.554 E.22392
G1 X111.016 Y30.568 E.01931
G1 X111.016 Y36.446 E.2234
G1 X110.508 Y36.446 E.0193
G1 X110.508 Y30.694 E.21861
M73 P0 R148
G1 X110.182 Y30.8 E.01304
G1 X110 Y30.905 E.00796
G1 X110 Y36.446 E.21059
G1 X109.607 Y36.446 E.01492
G1 X109.492 Y36.374 E.00517
G1 X109.492 Y30.999 E.20426
G1 X108.984 Y30.706 E.02229
G1 X108.984 Y36.446 E.21815
G1 X108.476 Y36.446 E.0193
G1 X108.476 Y30.45 E.22789
G1 X107.969 Y30.311 E.02001
G1 X107.969 Y36.446 E.23316
G1 X107.461 Y36.446 E.0193
G1 X107.461 Y30.247 E.23559
G1 X106.953 Y30.238 E.01931
G1 X106.953 Y36.446 E.23595
G1 X106.445 Y36.446 E.0193
G1 X106.445 Y30.336 E.23224
G1 X106.135 Y30.414 E.01215
G1 X105.937 Y30.509 E.00835
G1 X105.937 Y36.446 E.22565
G1 X105.429 Y36.446 E.0193
G1 X105.429 Y30.754 E.21635
G1 X104.921 Y31.169 E.02494
G1 X104.921 Y36.108 E.18768
G1 X104.813 Y36.018 E.00535
G1 X104.587 Y35.749 E.01336
G1 X104.413 Y35.5 E.01152
G1 X104.413 Y31.777 E.14151
G1 X104.311 Y31.927 E.0069
G1 X104.141 Y32.269 E.01451
G1 X103.991 Y32.674 E.01645
G1 X103.907 Y33.035 E.01407
G1 X103.906 Y34.945 E.07261
G1 E-.28 F3600
;WIPE_START
G1 F900
G1 X103.906 Y33.945 E-.12
;WIPE_END
G1 Z.6 F9000
G1 X131.549 Y28.181 Z.6
G1 Z.2
G1 E.4 F2400
G1 F900
G1 X132.05 Y28.207 E.01906
G1 X132.93 Y28.417 E.03438
G1 X133.767 Y28.811 E.03516
G1 X134.504 Y29.369 E.03515
G1 X135.109 Y30.062 E.03495
G1 X135.355 Y30.494 E.01891
G1 X135.567 Y30.879 E.01669
G1 X135.842 Y31.756 E.03493
G1 X135.931 Y32.674 E.03505
G1 X135.89 Y33.068 E.01509
G1 X135.83 Y33.601 E.02038
G1 X135.542 Y34.48 E.03515
G1 X135.078 Y35.284 E.03526
G1 X134.459 Y35.975 E.03526
G1 X133.731 Y36.508 E.03428
G1 X132.978 Y36.855 E.03154
G1 X126.93 Y36.856 E.22986
G1 X126.834 Y36.816 E.00395
G1 X126.745 Y36.856 E.00371
G1 X123.447 Y36.856 E.12535
G1 X122.976 Y36.658 E.01941
G1 X122.678 Y36.474 E.01333
G1 X122.17 Y36.11 E.02372
G1 X121.549 Y35.461 E.03415
G1 X121.065 Y34.686 E.03472
G1 X120.764 Y33.876 E.03284
G1 X120.675 Y33.449 E.01659
G1 X120.618 Y32.945 E.01929
G1 X120.616 Y32.518 E.01621
G1 X120.663 Y32.03 E.01863
G1 X120.751 Y31.596 E.01684
G1 X120.895 Y31.144 E.01804
G1 X121.074 Y30.723 E.01739
G1 X121.302 Y30.322 E.01753
G1 X121.59 Y29.905 E.01926
G1 X122.213 Y29.264 E.03396
G1 X122.984 Y28.744 E.03536
G1 X123.819 Y28.405 E.03425
G1 X124.273 Y28.309 E.01761
G1 X124.78 Y28.232 E.01952
G1 X125.683 Y28.258 E.0343
G1 X126.582 Y28.473 E.03515
G1 X126.817 Y28.584 E.00988
G1 X127.304 Y28.387 E.01997
G1 X128.217 Y28.222 E.03525
G1 X129.143 Y28.248 E.0352
G1 X129.948 Y28.441 E.03149
G1 X130.166 Y28.352 E.00892
G1 X130.627 Y28.254 E.01794
G1 X131.105 Y28.181 E.01835
G1 X131.481 Y28.181 E.01429
G1 X135.393 Y34.273 F9000
G1 F900
G1 X135.393 Y31.701 E.09777
G1 X135.186 Y31.041 E.02626
G1 X134.885 Y30.501 E.0235
G1 X134.885 Y34.794 E.16317
G1 X134.743 Y35.041 E.01082
G1 X134.378 Y35.449 E.02081
G1 X134.378 Y29.849 E.21282
G1 X134.222 Y29.671 E.00897
G1 X133.87 Y29.405 E.0168
G1 X133.87 Y35.896 E.24673
G1 X133.518 Y36.155 E.0166
G1 X133.362 Y36.231 E.00659
G1 X133.362 Y29.075 E.27197
G1 X132.854 Y28.836 E.02134
G1 X132.854 Y36.444 E.28917
G1 X132.346 Y36.444 E.0193
G1 X132.346 Y28.7 E.29432
G1 X131.991 Y28.616 E.01386
G1 X131.838 Y28.608 E.00583
G1 X131.838 Y36.444 E.29783
G1 X131.33 Y36.444 E.0193
G1 X131.33 Y28.592 E.29842
G1 X131.136 Y28.592 E.0074
G1 X130.823 Y28.64 E.01204
G1 X130.823 Y36.444 E.29661
G1 X130.315 Y36.444 E.0193
G1 X130.315 Y28.741 E.29277
G1 X129.981 Y28.872 E.01362
G1 X129.807 Y28.83 E.00681
G1 X129.807 Y36.444 E.28939
G1 X129.299 Y36.444 E.0193
G1 X129.299 Y28.708 E.29401
G1 X129.088 Y28.658 E.00823
G1 X128.791 Y28.65 E.0113
G1 X128.791 Y36.444 E.29625
G1 X128.283 Y36.444 E.0193
G1 X128.283 Y28.635 E.2968
G1 X127.775 Y28.72 E.01957
G1 X127.775 Y36.444 E.2936
G1 X127.267 Y36.445 E.0193
G1 X127.267 Y28.845 E.28881
G1 X126.805 Y29.033 E.01899
G1 X126.76 Y29.012 E.00189
G1 X126.76 Y36.398 E.28069
G1 X126.656 Y36.445 E.00433
G1 X126.252 Y36.445 E.01536
G1 X126.252 Y28.817 E.2899
G1 X125.744 Y28.695 E.01985
G1 X125.744 Y36.445 E.29453
G1 X125.236 Y36.445 E.0193
G1 X125.236 Y28.656 E.29601
G1 X124.728 Y28.656 E.0193
G1 X124.728 Y36.445 E.29603
G1 X124.22 Y36.445 E.0193
G1 X124.22 Y28.741 E.2928
G1 X123.94 Y28.8 E.01088
G1 X123.712 Y28.893 E.00935
G1 X123.712 Y36.445 E.28703
G1 X123.529 Y36.445 E.00695
G1 X123.205 Y36.308 E.0134
G1 X123.205 Y29.099 E.27401
G1 X122.697 Y29.434 E.02312
G1 X122.697 Y35.981 E.24884
G1 X122.441 Y35.798 E.01194
G1 X122.189 Y35.534 E.01388
G1 X122.189 Y29.879 E.21493
G1 X121.909 Y30.167 E.01526
G1 X121.681 Y30.497 E.01525
G1 X121.681 Y34.896 E.16718
G1 X121.436 Y34.504 E.01756
G1 X121.173 Y33.795 E.02874
G1 X121.173 Y31.015 E.10567
G1 E-.28 F3600
;WIPE_START
G1 F900
G1 X121.173 Y32.015 E-.12
;WIPE_END
G1 Z.6 F9000
G1 X149.386 Y106.641 Z.6
G1 Z.2
G1 E.4 F2400
G1 F900
G1 X149.849 Y106.715 E.01781
G1 X150.692 Y107.023 E.03411
G1 X151.467 Y107.523 E.03508
G1 X152.105 Y108.173 E.0346
G1 X152.599 Y108.972 E.03571
G1 X152.896 Y109.834 E.03464
G1 X152.998 Y110.746 E.03488
G1 X152.895 Y111.664 E.03509
G1 X152.596 Y112.531 E.03487
G1 X152.112 Y113.314 E.03499
G1 X152.015 Y113.412 E.00523
G1 X152.09 Y113.613 E.00813
G1 X152.197 Y114.514 E.03451
G1 X152.151 Y114.901 E.01479
G1 X152.585 Y115.603 E.03139
G1 X152.885 Y116.473 E.03496
G1 X152.986 Y117.387 E.03495
G1 X152.884 Y118.308 E.03524
G1 X152.986 Y119.227 E.03515
G1 X152.884 Y120.141 E.03495
G1 X152.584 Y121.011 E.03496
G1 X152.106 Y121.783 E.03451
G1 X151.441 Y122.46 E.03605
G1 X150.678 Y122.952 E.03451
G1 X149.212 Y123.487 E.05933
G1 X150.681 Y124.024 E.05944
G1 X151.456 Y124.524 E.03507
G1 X152.101 Y125.182 E.03502
G1 X152.582 Y125.959 E.03473
G1 X152.886 Y126.84 E.03539
G1 X152.987 Y127.749 E.03476
G1 X152.885 Y128.662 E.03495
G1 X152.585 Y129.532 E.03496
G1 X152.069 Y130.365 E.03725
G1 X152.188 Y131.358 E.038
G1 X152.08 Y132.258 E.03444
G1 X151.765 Y133.099 E.03412
G1 X151.631 Y133.301 E.00923
G1 X151.759 Y133.489 E.00862
G1 X152.077 Y134.34 E.03452
G1 X152.185 Y135.241 E.03451
G1 X152.078 Y136.143 E.03451
G1 X151.772 Y136.964 E.0333
G1 X152.075 Y137.778 E.03302
G1 X152.182 Y138.68 E.03451
G1 X152.074 Y139.581 E.03451
G1 X151.723 Y140.52 E.03811
G1 X152.067 Y141.445 E.03751
G1 X152.174 Y142.347 E.03451
G1 X152.128 Y142.732 E.01474
G1 X152.568 Y143.444 E.0318
G1 X152.868 Y144.313 E.03496
G1 X152.969 Y145.227 E.03494
G1 X152.868 Y146.141 E.03495
G1 X152.568 Y147.01 E.03496
G1 X152.09 Y147.783 E.03451
G1 X151.745 Y148.144 E.01898
G1 X151.425 Y148.459 E.01707
G1 X150.662 Y148.951 E.03451
G1 X149.794 Y149.268 E.03512
G1 X148.876 Y149.386 E.03517
G1 X147.993 Y149.301 E.03372
G1 X147.58 Y149.184 E.01632
G1 X147.053 Y148.993 E.02131
G1 X146.281 Y148.527 E.03426
G1 X145.614 Y147.886 E.03517
G1 X145.111 Y147.121 E.03479
G1 X145.132 Y125.847 E.80853
G1 X145.618 Y125.11 E.03357
G1 X146.042 Y124.678 E.023
G1 X146.343 Y124.42 E.01507
G1 X147.092 Y123.968 E.03327
G1 X148.004 Y123.667 E.03649
G1 X147.996 Y123.297 E.01406
G1 X147.597 Y123.184 E.01577
G1 X147.068 Y122.993 E.02136
G1 X146.296 Y122.527 E.03427
G1 X145.63 Y121.885 E.03517
G1 X145.137 Y121.122 E.03452
G1 X145.149 Y108.838 E.46688
G1 X145.628 Y108.11 E.0331
G1 X146.053 Y107.677 E.02305
G1 X146.353 Y107.42 E.01502
G1 X147.103 Y106.968 E.03328
G1 X147.983 Y106.677 E.03524
G1 X148.882 Y106.59 E.03432
G1 X149.318 Y106.634 E.01664
G1 E-.28 F3600
