; generated by PrusaSlicer 2.7.1 on 2023-12-21 at 08:22:53 UTC
;FLAVOR:Marlin
;TIME:4396
;Filament used: 5.389870
;Layer height: 0.20
;MINX:0.000
;MINY:0.000
;MINZ:0.000
;MAXX:0.000
;MAXY:0.000
;MAXZ:0.000
;POSTPROCESSED
;Header generated for The Ender3v2 Professional Firmware
;https://github.com/mriscoc/Marlin_Ender3v2



;
;

;
;
; 

; external perimeters extrusion width = 0.42mm
; perimeters extrusion width = 0.44mm
; infill extrusion width = 0.44mm
; solid infill extrusion width = 0.44mm
; top infill extrusion width = 0.40mm
; first layer extrusion width = 0.42mm

; external perimeters extrusion width = 0.42mm
; perimeters extrusion width = 0.44mm
; infill extrusion width = 0.44mm
; solid infill extrusion width = 0.44mm
; top infill extrusion width = 0.40mm
; first layer extrusion width = 0.42mm

; external perimeters extrusion width = 0.42mm
; perimeters extrusion width = 0.44mm
; infill extrusion width = 0.44mm
; solid infill extrusion width = 0.44mm
; top infill extrusion width = 0.40mm
; first layer extrusion width = 0.42mm

; external perimeters extrusion width = 0.42mm
; perimeters extrusion width = 0.44mm
; infill extrusion width = 0.44mm
; solid infill extrusion width = 0.44mm
; top infill extrusion width = 0.40mm
; first layer extrusion width = 0.42mm

M73 P0 R73

EXCLUDE_OBJECT_DEFINE NAME=ender_3_bed_leveling_wheel_clips_v2_thicker_arms1_stl CENTER=137.917,77.588 POLYGON=[[140.942,59.721],[141.966,60.094],[142.435,60.412],[143.242,61.279],[143.611,61.920],[144.217,61.515],[145.312,61.003],[146.428,60.693],[147.556,60.589],[149.387,60.693],[150.643,61.003],[151.875,61.515],[153.070,62.226],[154.218,63.128],[155.307,64.213],[156.327,65.470],[157.268,66.887],[158.121,68.450],[158.877,70.145],[159.530,71.954],[160.073,73.862],[160.501,75.848],[160.809,77.895],[160.996,79.982],[161.058,82.089],[160.996,84.197],[160.809,86.284],[160.501,88.331],[160.073,90.317],[159.530,92.224],[158.877,94.034],[158.121,95.729],[157.268,97.292],[156.327,98.709],[155.307,99.966],[154.218,101.051],[153.070,101.953],[151.875,102.664],[149.900,103.461],[148.783,103.770],[147.656,103.874],[146.528,103.770],[146.161,103.668],[144.747,103.874],[142.794,103.111],[141.239,101.522],[140.498,99.534],[140.871,97.364],[142.083,96.139],[143.910,95.873],[145.862,96.637],[147.101,97.904],[147.820,97.975],[148.390,97.923],[149.216,97.694],[150.027,97.314],[150.813,96.788],[151.568,96.121],[152.285,95.318],[152.956,94.388],[153.574,93.340],[154.135,92.183],[155.062,89.589],[155.701,86.708],[156.026,83.649],[156.067,82.089],[155.904,78.986],[155.420,76.001],[155.062,74.590],[154.235,72.281],[153.674,71.124],[153.056,70.075],[152.385,69.145],[151.668,68.343],[150.913,67.675],[150.127,67.149],[149.316,66.770],[148.490,66.541],[147.656,66.464],[146.822,66.541],[145.995,66.770],[145.185,67.149],[144.158,67.888],[144.120,86.686],[143.819,87.956],[143.563,88.538],[142.864,89.538],[141.966,90.254],[140.942,90.627],[140.408,90.674],[122.374,90.627],[121.350,90.254],[120.452,89.538],[119.753,88.538],[119.310,87.334],[119.158,86.024],[119.158,64.324],[119.196,63.662],[119.497,62.392],[120.074,61.279],[120.452,60.810],[121.350,60.094],[122.374,59.721],[122.908,59.674]]
EXCLUDE_OBJECT_DEFINE NAME=ender_3_bed_leveling_wheel_clips_v2_thicker_arms1_stl CENTER=85.249,78.641 POLYGON=[[88.274,60.774],[89.298,61.147],[89.767,61.465],[90.574,62.332],[90.943,62.973],[91.549,62.568],[92.644,62.056],[93.760,61.746],[94.888,61.642],[96.719,61.746],[97.975,62.056],[99.207,62.568],[100.402,63.279],[101.550,64.181],[102.639,65.266],[103.659,66.523],[104.600,67.940],[105.453,69.503],[106.209,71.198],[106.862,73.007],[107.405,74.915],[107.833,76.901],[108.141,78.948],[108.328,81.035],[108.390,83.142],[108.328,85.250],[108.141,87.337],[107.833,89.384],[107.405,91.370],[106.862,93.277],[106.209,95.087],[105.453,96.782],[104.600,98.345],[103.659,99.762],[102.639,101.019],[101.550,102.104],[100.402,103.006],[99.207,103.717],[97.232,104.514],[96.115,104.823],[94.988,104.927],[93.860,104.823],[93.493,104.721],[92.079,104.927],[90.126,104.164],[88.571,102.575],[87.830,100.587],[88.203,98.417],[89.415,97.192],[91.242,96.926],[93.194,97.690],[94.434,98.957],[95.153,99.028],[95.722,98.976],[96.548,98.747],[97.359,98.367],[98.145,97.841],[98.900,97.174],[99.617,96.371],[100.288,95.441],[100.906,94.393],[101.467,93.236],[102.394,90.642],[103.033,87.761],[103.358,84.702],[103.399,83.142],[103.236,80.039],[102.752,77.054],[102.394,75.643],[101.567,73.334],[101.006,72.177],[100.388,71.128],[99.717,70.198],[99.000,69.396],[98.245,68.728],[97.459,68.202],[96.648,67.823],[95.822,67.594],[94.988,67.517],[94.154,67.594],[93.327,67.823],[92.517,68.202],[91.490,68.942],[91.452,87.739],[91.151,89.009],[90.895,89.591],[90.196,90.591],[89.298,91.307],[88.274,91.680],[87.740,91.727],[69.706,91.680],[68.682,91.307],[67.784,90.591],[67.085,89.591],[66.642,88.387],[66.490,87.077],[66.490,65.377],[66.528,64.715],[66.829,63.445],[67.406,62.332],[67.784,61.863],[68.682,61.147],[69.706,60.774],[70.240,60.727]]
EXCLUDE_OBJECT_DEFINE NAME=ender_3_bed_leveling_wheel_clips_v2_thicker_arms_stl CENTER=146.780,142.893 POLYGON=[[157.642,116.712],[158.759,117.021],[160.734,117.818],[161.929,118.529],[163.077,119.431],[164.166,120.516],[165.186,121.773],[166.127,123.190],[166.980,124.753],[167.736,126.448],[168.389,128.258],[168.932,130.165],[169.360,132.151],[169.668,134.198],[169.855,136.285],[169.917,138.393],[169.855,140.500],[169.668,142.587],[169.360,144.634],[168.932,146.620],[168.389,148.528],[167.736,150.337],[166.980,152.032],[166.127,153.595],[165.186,155.012],[164.166,156.269],[163.077,157.354],[161.929,158.256],[160.734,158.967],[159.502,159.479],[158.246,159.789],[156.978,159.893],[155.287,159.789],[154.171,159.479],[153.076,158.967],[152.470,158.562],[152.101,159.203],[151.294,160.070],[150.323,160.620],[149.267,160.808],[131.767,160.808],[131.233,160.761],[130.209,160.388],[129.311,159.672],[128.612,158.672],[128.356,158.090],[128.055,156.820],[128.017,134.458],[128.169,133.148],[128.612,131.944],[129.311,130.944],[130.209,130.228],[130.711,129.996],[131.767,129.808],[149.267,129.808],[149.801,129.855],[150.825,130.228],[151.723,130.944],[152.422,131.944],[152.678,132.526],[152.979,133.796],[153.017,152.594],[154.044,153.333],[154.854,153.712],[155.681,153.941],[156.515,154.018],[157.349,153.941],[158.175,153.712],[158.986,153.333],[159.772,152.807],[160.527,152.139],[161.244,151.337],[161.915,150.407],[162.533,149.358],[163.094,148.201],[163.921,145.892],[164.560,143.011],[164.885,139.952],[164.885,136.833],[164.560,133.774],[163.921,130.893],[162.994,128.299],[162.433,127.142],[161.815,126.094],[161.144,125.164],[160.427,124.361],[159.672,123.694],[158.886,123.168],[158.075,122.788],[157.249,122.559],[156.680,122.507],[156.039,122.559],[154.721,123.845],[152.769,124.609],[150.942,124.343],[149.730,123.118],[149.357,120.948],[150.098,118.960],[151.653,117.371],[153.606,116.608],[155.020,116.814],[155.387,116.712],[156.515,116.608]]
EXCLUDE_OBJECT_DEFINE NAME=ender_3_bed_leveling_wheel_clips_v2_thicker_arms_stl CENTER=91.545,149.938 POLYGON=[[102.407,123.758],[103.524,124.067],[105.499,124.864],[106.694,125.575],[107.842,126.477],[108.931,127.562],[109.951,128.819],[110.892,130.236],[111.745,131.799],[112.501,133.494],[113.154,135.304],[113.697,137.211],[114.125,139.197],[114.433,141.244],[114.620,143.331],[114.682,145.439],[114.620,147.546],[114.433,149.633],[114.125,151.680],[113.697,153.666],[113.154,155.574],[112.501,157.383],[111.745,159.078],[110.892,160.641],[109.951,162.058],[108.931,163.315],[107.842,164.400],[106.694,165.302],[105.499,166.013],[104.267,166.525],[103.011,166.835],[101.180,166.939],[100.052,166.835],[98.936,166.525],[97.841,166.013],[97.235,165.608],[96.866,166.249],[96.059,167.116],[95.088,167.666],[94.032,167.854],[76.532,167.854],[75.998,167.807],[74.974,167.434],[74.076,166.718],[73.377,165.718],[73.121,165.136],[72.820,163.866],[72.782,141.504],[72.934,140.194],[73.377,138.990],[74.076,137.990],[74.974,137.274],[75.476,137.042],[76.532,136.854],[94.032,136.854],[94.566,136.901],[95.590,137.274],[96.488,137.990],[97.187,138.990],[97.443,139.572],[97.744,140.842],[97.782,159.640],[98.809,160.379],[99.619,160.758],[100.446,160.987],[101.280,161.064],[102.114,160.987],[102.940,160.758],[103.751,160.379],[104.537,159.853],[105.292,159.185],[106.009,158.383],[106.680,157.453],[107.298,156.404],[107.859,155.247],[108.686,152.938],[109.325,150.057],[109.650,146.998],[109.650,143.879],[109.325,140.820],[108.686,137.939],[107.759,135.345],[107.198,134.188],[106.580,133.140],[105.909,132.210],[105.192,131.407],[104.437,130.740],[103.651,130.214],[102.840,129.834],[102.014,129.605],[101.445,129.553],[100.804,129.605],[99.486,130.891],[97.534,131.655],[95.707,131.389],[94.495,130.164],[94.122,127.994],[94.863,126.006],[96.418,124.417],[98.371,123.654],[99.785,123.860],[100.152,123.758],[101.280,123.654]]

M190 S60 ; set bed temperature and wait for it to be reached
M104 S215 ; set temperature
;TYPE:Custom
M117 ;fix for KAMP meshing
START_PRINT BED_TEMP=60 EXTRUDER_TEMP=215
M109 S215 ; set temperature and wait for it to be reached
G21 ; set units to millimeters
G90 ; use absolute coordinates
M83 ; use relative distances for extrusion
; Filament gcode
M107
;LAYER_CHANGE
;Z:0.2
;HEIGHT:0.2
;BEFORE_LAYER_CHANGE
G92 E0
;0.2


G10 ; retract
G1 Z.2 F15000
;AFTER_LAYER_CHANGE
;0.2
G1 X65.487 Y59.388
G11 ; unretract
M204 S500
;TYPE:Skirt/Brim
;WIDTH:0.42
G1 F2400
G1 X66.787 Y58.352 E.05212
G1 X68.303 Y57.655 E.05232
G1 X69.944 Y57.363 E.05226
G1 X122.84 Y56.298 E1.65885
G1 X140.704 Y56.31 E.56011
G1 X150.196 Y57.414 E.29962
G1 X151.939 Y57.885 E.05661
G1 X153.601 Y58.613 E.05689
G1 X154.796 Y59.324 E.0436
G1 X156.601 Y60.736 E.07185
G1 X157.929 Y62.085 E.05935
G1 X159.14 Y63.602 E.06086
G1 X160.232 Y65.269 E.06248
G1 X161.205 Y67.075 E.06432
G1 X162.053 Y68.999 E.06593
G1 X162.778 Y71.03 E.06762
G1 X163.374 Y73.151 E.06908
G1 X163.837 Y75.323 E.06963
G1 X172.696 Y131.626 E1.78706
G1 X173.007 Y133.696 E.06563
G1 X173.219 Y135.984 E.07205
G1 X173.293 Y138.294 E.07247
G1 X173.219 Y140.802 E.07867
G1 X173.007 Y143.09 E.07205
G1 X172.661 Y145.346 E.07156
G1 X172.233 Y147.332 E.0637
G1 X171.637 Y149.453 E.06908
G1 X170.912 Y151.484 E.06762
G1 X170.064 Y153.408 E.06593
G1 X169.091 Y155.213 E.06429
G1 X167.999 Y156.88 E.06248
G1 X166.788 Y158.397 E.06086
G1 X165.461 Y159.747 E.05935
G1 X164.015 Y160.912 E.05822
G1 X162.03 Y162.086 E.07231
G1 X160.311 Y162.758 E.05787
G1 X158.673 Y163.139 E.05273
G1 X103.438 Y170.185 E1.74589
G1 X94.328 Y171.218 E.28747
G1 X76.236 Y171.218 E.56726
G1 X74.595 Y170.926 E.05226
G1 X73.079 Y170.229 E.05232
G1 X71.779 Y169.194 E.0521
G1 X71.069 Y168.368 E.03415
G1 X70.487 Y167.465 E.03368
G1 X69.887 Y166.109 E.04649
G1 X69.608 Y165.099 E.03285
G1 X69.454 Y164.144 E.03033
G1 X63.162 Y88.017 E2.39505
G1 X63.119 Y65.184 E.71591
G1 X63.202 Y64.131 E.03312
G1 X63.408 Y63.095 E.03312
G1 X63.736 Y62.091 E.03312
G1 X64.195 Y61.116 E.03379
G1 X64.774 Y60.217 E.03353
G1 X65.448 Y59.433 E.03242
EXCLUDE_OBJECT_START NAME=ender_3_bed_leveling_wheel_clips_v2_thicker_arms_stl
G10 ; retract
G1 X65.448 Y59.433 F15000
G1 X96.957 Y164.525
G11 ; unretract
;TYPE:Perimeter
;WIDTH:0.419999
G1 F2400
G1 X96.893 Y164.529 E.00201
G1 X96.583 Y164.699 E.01109
G1 X96.358 Y164.97 E.01104
G1 X95.981 Y165.651 E.02441
G1 X95.526 Y166.159 E.02138
G1 X95.065 Y166.504 E.01805
G1 X94.555 Y166.708 E.01722
G1 X93.985 Y166.79 E.01806
G1 X76.579 Y166.79 E.54575
G1 X76.009 Y166.708 E.01806
G1 X75.499 Y166.504 E.01722
G1 X75.038 Y166.159 E.01805
G1 X74.686 Y165.779 E.01624
G1 X74.323 Y165.226 E.02074
G1 X74.121 Y164.767 E.01572
G1 X73.971 Y164.268 E.01634
G1 X73.879 Y163.743 E.01671
G1 X73.846 Y163.173 E.0179
G1 X73.846 Y141.535 E.67844
G1 X73.879 Y140.965 E.0179
G1 X73.971 Y140.44 E.01671
G1 X74.121 Y139.941 E.01634
G1 X74.323 Y139.482 E.01572
G1 X74.686 Y138.929 E.02074
G1 X75.038 Y138.549 E.01624
G1 X75.499 Y138.204 E.01805
G1 X76.009 Y138 E.01722
G1 X76.579 Y137.918 E.01806
G1 X93.985 Y137.918 E.54575
G1 X94.555 Y138 E.01806
G1 X95.065 Y138.204 E.01722
G1 X95.526 Y138.549 E.01805
G1 X95.878 Y138.929 E.01624
G1 X96.241 Y139.482 E.02074
G1 X96.443 Y139.941 E.01572
G1 X96.593 Y140.44 E.01634
G1 X96.685 Y140.965 E.01671
G1 X96.718 Y141.535 E.0179
G1 X96.718 Y159.694 E.56936
G1 X96.816 Y160.113 E.01349
G1 X97.036 Y160.401 E.01136
G1 X97.424 Y160.733 E.01601
G1 X98.35 Y161.339 E.0347
G1 X99.325 Y161.781 E.03356
G1 X100.178 Y162.017 E.02775
G1 X100.754 Y162.084 E.01818
G1 X101.454 Y162.117 E.02197
G1 X102.268 Y162.04 E.02564
G1 X102.836 Y161.891 E.01841
G1 X103.401 Y161.717 E.01854
G1 X104.335 Y161.269 E.03248
G1 X105.236 Y160.655 E.03419
G1 X106.081 Y159.9 E.03553
G1 X106.868 Y159.011 E.03723
G1 X107.594 Y157.998 E.03908
G1 X108.253 Y156.873 E.04088
G1 X108.846 Y155.644 E.04279
G1 X109.324 Y154.435 E.04076
G1 X109.716 Y153.203 E.04054
G1 X110.088 Y151.73 E.04763
G1 X110.379 Y150.202 E.04877
G1 X110.521 Y149.144 E.03347
G1 X110.589 Y148.629 E.01629
G1 X110.714 Y147.032 E.05023
G1 X110.755 Y145.464 E.04918
G1 X110.714 Y143.848 E.05068
G1 X110.589 Y142.248 E.05032
G1 X110.379 Y140.675 E.04976
G1 X110.076 Y139.092 E.05053
G1 X109.701 Y137.618 E.04769
G1 X109.247 Y136.21 E.04639
G1 X108.718 Y134.885 E.04473
G1 X108.153 Y133.719 E.04062
G1 X107.494 Y132.595 E.04085
G1 X106.768 Y131.582 E.03908
G1 X105.862 Y130.579 E.04238
G1 X105.036 Y129.86 E.03434
G1 X104.111 Y129.254 E.03467
G1 X103.244 Y128.849 E.03
G1 X102.121 Y128.546 E.03647
G1 X101.369 Y128.492 E.02364
G1 X100.708 Y128.545 E.02079
G1 X100.247 Y128.669 E.01497
G1 X99.989 Y128.855 E.00997
G1 X98.885 Y129.983 E.04949
G1 X97.408 Y130.561 E.04973
G1 X96.213 Y130.387 E.03786
G1 X95.488 Y129.654 E.03233
G1 X95.412 Y129.451 E.0068
G1 X95.215 Y128.11 E.0425
G1 X95.781 Y126.589 E.05088
G1 X97.018 Y125.325 E.05545
G1 X98.496 Y124.748 E.04975
G1 X99.857 Y124.924 E.04303
G1 X100.343 Y124.809 E.01566
G1 X101.294 Y124.724 E.02994
G1 X102.215 Y124.809 E.029
G1 X103.006 Y125.028 E.02573
G1 X103.522 Y125.241 E.0175
G1 X103.933 Y125.366 E.01347
G1 X105.02 Y125.817 E.0369
G1 X106.091 Y126.454 E.03907
G1 X107.135 Y127.275 E.04164
G1 X108.14 Y128.276 E.04447
G1 X109.093 Y129.45 E.04741
G1 X109.98 Y130.786 E.05028
G1 X110.79 Y132.271 E.05304
G1 X111.513 Y133.892 E.05565
G1 X112.14 Y135.631 E.05796
G1 X112.664 Y137.469 E.05993
G1 X113.078 Y139.388 E.06155
G1 X113.376 Y141.371 E.06287
G1 X113.557 Y143.394 E.06368
G1 X113.616 Y145.481 E.06546
G1 X113.557 Y147.483 E.0628
G1 X113.376 Y149.506 E.06368
G1 X113.078 Y151.489 E.06287
G1 X112.664 Y153.408 E.06155
G1 X112.141 Y155.247 E.05995
G1 X111.513 Y156.985 E.05794
G1 X110.79 Y158.606 E.05565
G1 X109.98 Y160.091 E.05304
G1 X109.093 Y161.427 E.05028
G1 X108.14 Y162.601 E.04741
G1 X107.135 Y163.602 E.04447
G1 X106.091 Y164.423 E.04164
G1 X105.02 Y165.06 E.03907
G1 X103.933 Y165.511 E.0369
G1 X102.839 Y165.781 E.03533
G1 X101.781 Y165.868 E.03328
G1 X101.223 Y165.874 E.0175
G1 X100.245 Y165.784 E.03079
G1 X99.306 Y165.523 E.03056
G1 X98.365 Y165.083 E.03257
M73 P0 R72
G1 X97.707 Y164.643 E.02482
G1 X97.348 Y164.498 E.01214
G1 X97.017 Y164.521 E.0104
G1 X97.041 Y164.886 F15000
G1 F2400
G1 X97.009 Y164.888 E.00101
G1 X96.883 Y164.947 E.00436
G1 X96.688 Y165.153 E.00889
G1 X96.295 Y165.862 E.02542
G1 X95.984 Y166.248 E.01554
G1 X95.458 Y166.693 E.0216
G1 X95.04 Y166.931 E.01508
G1 X94.445 Y167.128 E.01965
G1 X94.002 Y167.167 E.01394
G1 X76.687 Y167.167 E.5429
G1 X76.118 Y167.128 E.01788
G1 X75.524 Y166.931 E.01962
G1 X75.106 Y166.693 E.01508
G1 X74.58 Y166.248 E.0216
G1 X74.262 Y165.854 E.01588
G1 X73.988 Y165.401 E.0166
G1 X73.767 Y164.898 E.01723
G1 X73.604 Y164.355 E.01778
G1 X73.504 Y163.787 E.01808
G1 X73.469 Y163.184 E.01894
G1 X73.469 Y141.524 E.67913
G1 X73.504 Y140.921 E.01894
G1 X73.604 Y140.353 E.01808
G1 X73.767 Y139.81 E.01778
G1 X73.988 Y139.307 E.01723
G1 X74.262 Y138.854 E.0166
G1 X74.58 Y138.46 E.01588
G1 X75.106 Y138.015 E.0216
G1 X75.524 Y137.777 E.01508
G1 X76.119 Y137.58 E.01965
