; generated by PrusaSlicer 2.7.1 on 2024-01-18 at 13:09:50 UTC
;FLAVOR:Marlin
;TIME:5063
;Filament used: 5.892950
;Layer height: 0.20
;MINX:0.000
;MINY:0.000
;MINZ:0.000
;MAXX:0.000
;MAXY:0.000
;MAXZ:0.000
;POSTPROCESSED
;Header generated for The Ender3v2 Professional Firmware
;https://github.com/mriscoc/Marlin_Ender3v2



;
;

;
;
; 

; external perimeters extrusion width = 0.42mm
; perimeters extrusion width = 0.44mm
; infill extrusion width = 0.44mm
; solid infill extrusion width = 0.44mm
; top infill extrusion width = 0.40mm
; support material extrusion width = 0.36mm
; first layer extrusion width = 0.42mm

; external perimeters extrusion width = 0.42mm
; perimeters extrusion width = 0.44mm
; infill extrusion width = 0.44mm
; solid infill extrusion width = 0.44mm
; top infill extrusion width = 0.40mm
; support material extrusion width = 0.36mm
; first layer extrusion width = 0.42mm

M73 P0 R84

EXCLUDE_OBJECT_DEFINE NAME=filamentsensor_mount_v1_stl CENTER=149.743,105.365 POLYGON=[[170.244,128.971],[164.170,123.971],[135.316,123.971],[129.242,128.971],[129.242,85.969],[170.244,85.969]]
EXCLUDE_OBJECT_DEFINE NAME=filamentsensor_plate_v1_stl CENTER=93.352,108.717 POLYGON=[[114.352,127.717],[72.352,127.717],[72.352,89.717],[114.352,89.717]]

M190 S60 ; set bed temperature and wait for it to be reached
M104 S215 ; set temperature
;TYPE:Custom
M117 ; clear display for KAMP meshing
START_PRINT BED_TEMP=60 EXTRUDER_TEMP=215
M109 S215 ; set temperature and wait for it to be reached
G21 ; set units to millimeters
G90 ; use absolute coordinates
M83 ; use relative distances for extrusion
; Filament gcode
M107
;LAYER_CHANGE
;Z:0.2
;HEIGHT:0.2
;BEFORE_LAYER_CHANGE
G92 E0
;0.2


G10 ; retract
G1 Z.2 F15000
;AFTER_LAYER_CHANGE
;0.2
G1 X70.459 Y86.921
G11 ; unretract
M204 S500
;TYPE:Skirt/Brim
;WIDTH:0.42
G1 F2400
G1 X72.13 Y86.348 E.05539
G1 X129.02 Y82.599 E1.78761
G1 X170.244 Y82.591 E1.29255
G1 X171.827 Y82.986 E.05116
G1 X173.041 Y84.076 E.05116
G1 X173.609 Y85.681 E.05338
G1 X177.208 Y127.794 E1.32524
G1 X177.105 Y129.521 E.05425
G1 X176.693 Y131.217 E.05472
G1 X175.985 Y132.813 E.05474
G1 X175.674 Y133.332 E.01897
G1 X174.605 Y134.712 E.05473
G1 X173.78 Y135.501 E.03579
G1 X173.306 Y135.878 E.01899
G1 X171.82 Y136.794 E.05473
G1 X170.771 Y137.243 E.03578
G1 X169.082 Y137.684 E.05473
G1 X167.341 Y137.816 E.05474
G1 X130.93 Y137.798 E1.14164
G1 X71.969 Y131.073 E1.86067
G1 X70.441 Y130.502 E.05115
G1 X69.359 Y129.281 E.05115
G1 X68.975 Y127.717 E.05049
G1 X68.975 Y89.717 E1.19146
G1 X69.369 Y88.134 E.05115
G1 X70.419 Y86.965 E.04927
EXCLUDE_OBJECT_START NAME=filamentsensor_mount_v1_stl
G10 ; retract
G1 X70.419 Y86.965 Z.6 F15000
G1 X154.668 Y124.815
G1 Z.2
G11 ; unretract
;TYPE:Support material
G1 F2400
G1 X155.164 Y125.844 E.03582
G1 X155.467 Y126.944 E.03577
G1 X155.57 Y128.081 E.0358
G1 X155.467 Y129.218 E.0358
G1 X155.164 Y130.319 E.0358
G1 X154.668 Y131.347 E.03579
G1 X153.997 Y132.271 E.0358
G1 X153.172 Y133.06 E.03579
G1 X152.219 Y133.689 E.0358
G1 X151.17 Y134.138 E.03578
G1 X150.056 Y134.392 E.03583
G1 X148.916 Y134.443 E.03578
G1 X147.785 Y134.29 E.03578
G1 X146.699 Y133.937 E.0358
G1 X145.694 Y133.396 E.03579
G1 X144.801 Y132.684 E.03581
G1 X144.05 Y131.824 E.0358
G1 X143.464 Y130.844 E.0358
G1 X143.063 Y129.775 E.0358
G1 X142.859 Y128.652 E.03579
G1 X142.859 Y127.51 E.03581
G1 X143.063 Y126.387 E.03579
G1 X143.464 Y125.318 E.0358
G1 X143.993 Y124.433 E.03233
G1 X154.391 Y124.433 E.32602
G1 X154.635 Y124.769 E.01302
G1 X155.19 Y129.586 F15000
G1 F2400
G1 X155.132 Y127.005 E.08095
G1 X154.771 Y125.81 E.03914
G1 X154.771 Y130.352 E.14241
G1 X154.352 Y131.206 E.02983
G1 X154.352 Y124.957 E.19593
G1 X154.218 Y124.773 E.00714
G1 X153.933 Y124.773 E.00894
G1 X153.933 Y131.782 E.21976
G1 X153.514 Y132.264 E.02002
G1 X153.514 Y124.773 E.23488
G1 X153.095 Y124.773 E.01314
G1 X153.095 Y132.664 E.24742
G1 X152.676 Y132.981 E.01647
G1 X152.676 Y124.773 E.25736
G1 X152.257 Y124.773 E.01314
G1 X152.257 Y133.257 E.26601
G1 X151.838 Y133.483 E.01493
G1 X151.838 Y124.773 E.2731
G1 X151.419 Y124.773 E.01314
G1 X151.419 Y133.662 E.27871
G1 X151 Y133.828 E.01413
G1 X151 Y124.773 E.28391
G1 X150.581 Y124.773 E.01314
G1 X150.581 Y133.924 E.28692
G1 X150.162 Y134.019 E.01347
G1 X150.162 Y124.773 E.2899
G1 X149.743 Y124.773 E.01314
G1 X149.743 Y134.066 E.29138
G1 X149.324 Y134.085 E.01315
G1 X149.324 Y124.773 E.29197
G1 X148.905 Y124.773 E.01314
G1 X148.905 Y134.099 E.29241
G1 X148.486 Y134.042 E.01326
G1 X148.486 Y124.773 E.29062
G1 X148.067 Y124.773 E.01314
G1 X148.067 Y133.985 E.28884
G1 X147.86 Y133.957 E.00655
G1 X147.648 Y133.888 E.00699
G1 X147.648 Y124.773 E.28579
G1 X147.229 Y124.773 E.01314
G1 X147.229 Y133.752 E.28153
G1 X146.81 Y133.611 E.01386
G1 X146.81 Y124.773 E.27711
G1 X146.391 Y124.773 E.01314
G1 X146.391 Y133.386 E.27005
G1 X145.972 Y133.16 E.01493
G1 X145.972 Y124.773 E.26297
G1 X145.553 Y124.773 E.01314
G1 X145.553 Y132.85 E.25325
G1 X145.134 Y132.516 E.0168
G1 X145.134 Y124.773 E.24278
G1 X144.715 Y124.773 E.01314
G1 X144.715 Y132.07 E.22879
G1 X144.296 Y131.575 E.02033
G1 X144.296 Y124.773 E.21327
G1 X144.186 Y124.773 E.00345
G1 X143.877 Y125.288 E.01883
G1 X143.877 Y130.874 E.17515
G1 X143.458 Y129.863 E.03431
G1 X143.458 Y125.816 E.12689
G10 ; retract
G1 X143.458 Y125.816 Z.6 F15000
G1 X128.78 Y124.163
G1 Z.2
G11 ; unretract
G1 F2400
G1 X129.051 Y124.433 E.01199
G1 X136.788 Y124.433 E.24259
G1 X137.065 Y124.815 E.01479
G1 X137.561 Y125.844 E.03582
G1 X137.864 Y126.944 E.03577
G1 X137.967 Y128.081 E.0358
G1 X137.864 Y129.218 E.0358
G1 X137.561 Y130.319 E.0358
G1 X137.065 Y131.347 E.03579
G1 X136.394 Y132.271 E.0358
G1 X135.569 Y133.06 E.03579
G1 X134.616 Y133.689 E.0358
G1 X133.566 Y134.138 E.03581
G1 X132.453 Y134.392 E.03579
G1 X131.313 Y134.443 E.03578
G1 X130.182 Y134.29 E.03578
G1 X129.096 Y133.937 E.0358
G1 X128.09 Y133.396 E.03581
G1 X127.198 Y132.684 E.03579
G1 X126.447 Y131.824 E.0358
G1 X125.861 Y130.844 E.0358
G1 X125.46 Y129.775 E.0358
G1 X125.256 Y128.652 E.03579
G1 X125.256 Y127.51 E.03581
G1 X125.46 Y126.387 E.03579
G1 X125.861 Y125.318 E.0358
G1 X126.447 Y124.338 E.0358
G1 X127.198 Y123.478 E.0358
G1 X128.09 Y122.767 E.03577
G1 X128.78 Y122.395 E.02458
G1 X128.78 Y124.106 E.05365
G1 X137.593 Y129.564 F15000
G1 F2400
G1 X137.529 Y127.005 E.08026
G1 X137.174 Y125.823 E.0387
G1 X137.174 Y130.34 E.14163
G1 X136.755 Y131.197 E.02991
G1 X136.755 Y124.965 E.1954
G1 X136.615 Y124.773 E.00745
G1 X136.336 Y124.773 E.00875
G1 X136.336 Y131.774 E.21951
G1 X135.917 Y132.258 E.02007
G1 X135.917 Y124.773 E.23469
G1 X135.498 Y124.773 E.01314
G1 X135.498 Y132.658 E.24723
G1 X135.079 Y132.977 E.01651
G1 X135.079 Y124.773 E.25723
G1 X134.66 Y124.773 E.01314
G1 X134.66 Y133.253 E.26588
G1 X134.241 Y133.48 E.01494
G1 X134.241 Y124.773 E.273
G1 X133.822 Y124.773 E.01314
G1 X133.822 Y133.659 E.27861
G1 X133.403 Y133.827 E.01415
G1 X133.403 Y124.773 E.28388
G1 X132.984 Y124.773 E.01314
M73 P0 R83
G1 X132.984 Y133.922 E.28686
G1 X132.565 Y134.018 E.01348
G1 X132.565 Y124.773 E.28987
G1 X132.146 Y124.773 E.01314
G1 X132.146 Y134.066 E.29138
G1 X131.727 Y134.084 E.01315
G1 X131.727 Y124.773 E.29194
G1 X131.308 Y124.773 E.01314
G1 X131.308 Y134.1 E.29244
G1 X130.889 Y134.043 E.01326
G1 X130.889 Y124.773 E.29065
G1 X130.47 Y124.773 E.01314
G1 X130.47 Y133.986 E.28887
G1 X130.257 Y133.957 E.00674
G1 X130.051 Y133.89 E.00679
G1 X130.051 Y124.773 E.28586
G1 X129.632 Y124.773 E.01314
G1 X129.632 Y133.754 E.28159
G1 X129.213 Y133.615 E.01384
G1 X129.213 Y124.773 E.27723
G1 X128.91 Y124.773 E.0095
G1 X128.794 Y124.657 E.00514
G1 X128.794 Y133.389 E.27379
G1 X128.375 Y133.164 E.01491
G1 X128.375 Y122.999 E.31872
G1 X127.956 Y123.308 E.01632
G1 X127.956 Y132.855 E.29934
G1 X127.537 Y132.521 E.0168
G1 X127.537 Y123.642 E.27839
G1 X127.118 Y124.085 E.01912
G1 X127.118 Y132.077 E.25058
G1 X126.699 Y131.585 E.02026
G1 X126.699 Y124.577 E.21973
G1 X126.28 Y125.278 E.02561
G1 X126.28 Y130.884 E.17577
G1 X125.861 Y129.879 E.03414
G1 X125.861 Y125.8 E.12789
G10 ; retract
G1 X125.861 Y125.8 Z.6 F15000
G1 X149.723 Y105.511
G1 Z.2
G11 ; unretract
G1 F2400
G1 X150.206 Y105.533 E.01516
G1 X151.319 Y105.787 E.03579
G1 X152.369 Y106.236 E.03581
G1 X153.322 Y106.864 E.03579
G1 X154.147 Y107.653 E.03579
G1 X154.818 Y108.577 E.0358
G1 X155.313 Y109.606 E.0358
G1 X155.617 Y110.706 E.03578
G1 X155.719 Y111.843 E.03579
G1 X155.617 Y112.98 E.03579
G1 X155.375 Y113.858 E.02856
G1 X154.926 Y114.146 E.01673
G1 X153.846 Y114.677 E.03773
G1 X152.713 Y115.082 E.03773
G1 X151.541 Y115.354 E.03772
G1 X150.346 Y115.491 E.03771
G1 X149.143 Y115.491 E.03772
G1 X147.947 Y115.354 E.03774
G1 X146.775 Y115.082 E.03772
G1 X145.642 Y114.677 E.03773
G1 X144.563 Y114.146 E.03771
G1 X143.145 Y113.164 E.05408
G1 X143.009 Y112.414 E.0239
G1 X143.009 Y111.272 E.03581
G1 X143.213 Y110.149 E.03579
G1 X143.614 Y109.08 E.0358
G1 X144.199 Y108.1 E.03579
G1 X144.95 Y107.24 E.0358
G1 X145.843 Y106.529 E.03579
G1 X146.848 Y105.988 E.03579
G1 X147.934 Y105.635 E.0358
G1 X149.066 Y105.482 E.03582
G1 X149.666 Y105.509 E.01883
G1 X155.19 Y113.775 F15000
G1 F2400
G1 X155.19 Y110.434 E.10475
G1 X154.994 Y109.725 E.02306
G1 X154.771 Y109.262 E.01611
G1 X154.771 Y113.842 E.1436
G1 X154.352 Y114.05 E.01467
G1 X154.352 Y108.513 E.17361
G1 X153.933 Y107.936 E.02236
G1 X153.933 Y114.256 E.19816
G1 X153.514 Y114.435 E.01429
G1 X153.514 Y107.518 E.21688
G1 X153.095 Y107.121 E.0181
G1 X153.095 Y114.585 E.23403
G1 X152.676 Y114.734 E.01394
G1 X152.676 Y106.845 E.24735
G1 X152.257 Y106.568 E.01575
G1 X152.257 Y114.839 E.25933
G1 X151.838 Y114.937 E.01349
G1 X151.838 Y106.378 E.26836
G1 X151.419 Y106.199 E.01429
G1 X151.419 Y115.026 E.27676
G1 X151 Y115.075 E.01323
G1 X151 Y106.062 E.2826
G1 X150.581 Y105.966 E.01348
G1 X150.581 Y115.123 E.28711
G1 X150.162 Y115.152 E.01317
G1 X150.162 Y105.871 E.291
G1 X149.743 Y105.852 E.01315
G1 X149.743 Y115.152 E.29159
G1 X149.324 Y115.152 E.01314
G1 X149.324 Y105.833 E.29219
G1 X148.905 Y105.846 E.01314
G1 X148.905 Y115.122 E.29084
G1 X148.486 Y115.074 E.01322
G1 X148.486 Y105.902 E.28758
G1 X148.067 Y105.959 E.01326
G1 X148.067 Y115.026 E.28429
G1 X147.648 Y114.936 E.01344
G1 X147.648 Y106.085 E.27752
G1 X147.229 Y106.221 E.01381
G1 X147.229 Y114.839 E.27021
G1 X146.81 Y114.734 E.01354
G1 X146.81 Y106.393 E.26153
G1 X146.391 Y106.619 E.01493
G1 X146.391 Y114.584 E.24974
G1 X145.972 Y114.435 E.01394
G1 X145.972 Y106.86 E.23751
G1 X145.553 Y107.194 E.0168
G1 X145.553 Y114.255 E.22139
G1 X145.134 Y114.049 E.01464
G1 X145.134 Y107.546 E.2039
G1 X144.715 Y108.025 E.01995
G1 X144.715 Y113.841 E.18236
G1 X144.296 Y113.572 E.01561
G1 X144.296 Y108.599 E.15592
G1 X143.877 Y109.343 E.02677
G1 X143.877 Y113.303 E.12416
G1 X143.458 Y112.982 E.01655
G1 X143.458 Y109.977 E.09422
G10 ; retract
G1 X143.458 Y109.977 Z.6 F15000
G1 X171.446 Y123.102
G1 Z.2
G11 ; unretract
G1 F2400
G1 X172.271 Y123.891 E.03579
G1 X172.942 Y124.815 E.0358
G1 X173.437 Y125.844 E.0358
G1 X173.741 Y126.944 E.03578
G1 X173.844 Y128.081 E.0358
G1 X173.741 Y129.218 E.0358
G1 X173.437 Y130.319 E.03581
G1 X172.942 Y131.347 E.03577
G1 X172.271 Y132.271 E.0358
G1 X171.446 Y133.06 E.03579
G1 X170.493 Y133.689 E.0358
G1 X169.443 Y134.138 E.03581
G1 X168.33 Y134.392 E.03579
G1 X167.19 Y134.443 E.03578
G1 X166.058 Y134.29 E.03582
G1 X164.973 Y133.937 E.03577
G1 X163.967 Y133.396 E.03581
G1 X163.075 Y132.684 E.03579
G1 X162.324 Y131.824 E.0358
G1 X161.738 Y130.844 E.0358
G1 X161.337 Y129.775 E.0358
G1 X161.133 Y128.652 E.03579
G1 X161.133 Y127.51 E.03581
G1 X161.337 Y126.387 E.03579
G1 X161.738 Y125.318 E.0358
G1 X162.267 Y124.433 E.03233
G1 X170.436 Y124.433 E.25613
G1 X170.706 Y124.163 E.01197
G1 X170.706 Y122.614 E.04857
G1 X171.399 Y123.071 E.02603
G1 X173.206 Y130.409 F15000
G1 F2400
G1 X173.206 Y126.28 E.12946
G1 X172.787 Y125.275 E.03414
G1 X172.787 Y130.887 E.17596
G1 X172.368 Y131.56 E.02486
G1 X172.368 Y124.602 E.21816
G1 X171.949 Y124.053 E.02165
G1 X171.949 Y132.109 E.25259
G1 X171.53 Y132.51 E.01818
G1 X171.53 Y123.652 E.27774
G1 X171.111 Y123.288 E.0174
G1 X171.111 Y132.874 E.30056
G1 X170.692 Y133.151 E.01575
G1 X170.692 Y124.657 E.26632
G1 X170.576 Y124.773 E.00514
G1 X170.273 Y124.773 E.0095
G1 X170.273 Y133.414 E.27093
G1 X169.854 Y133.593 E.01429
G1 X169.854 Y124.773 E.27654
G1 X169.435 Y124.773 E.01314
G1 X169.435 Y133.772 E.28216
G1 X169.338 Y133.813 E.0033
G1 X169.016 Y133.887 E.01036
G1 X169.016 Y124.773 E.28576
G1 X168.597 Y124.773 E.01314
G1 X168.597 Y133.983 E.28877
G1 X168.178 Y134.059 E.01335
G1 X168.178 Y124.773 E.29116
G1 X167.759 Y124.773 E.01314
G1 X167.759 Y134.078 E.29175
G1 X167.34 Y134.096 E.01315
G1 X167.34 Y124.773 E.29232
G1 X166.921 Y124.773 E.01314
G1 X166.921 Y134.064 E.29131
G1 X166.502 Y134.007 E.01326
G1 X166.502 Y124.773 E.28953
G1 X166.083 Y124.773 E.01314
G1 X166.083 Y133.941 E.28746
G1 X165.664 Y133.805 E.01381
G1 X165.664 Y124.773 E.28319
G1 X165.245 Y124.773 E.01314
G1 X165.245 Y133.669 E.27893
G1 X164.826 Y133.473 E.0145
G1 X164.826 Y124.773 E.27278
G1 X164.407 Y124.773 E.01314
G1 X164.407 Y133.247 E.2657
G1 X163.988 Y132.979 E.01559
G1 X163.988 Y124.773 E.25729
G1 X163.569 Y124.773 E.01314
G1 X163.569 Y132.644 E.24679
G1 X163.15 Y132.255 E.01793
G1 X163.15 Y124.773 E.23459
G1 X162.731 Y124.773 E.01314
G1 X162.731 Y131.775 E.21954
G1 X162.312 Y131.144 E.02375
G1 X162.312 Y125.018 E.19208
G1 X161.893 Y125.87 E.02977
G1 X161.893 Y130.293 E.13868
G1 X161.665 Y129.685 E.02036
G1 X161.474 Y128.633 E.03352
G1 X161.474 Y126.579 E.0644
G10 ; retract
G1 X161.474 Y126.579 Z.6 F15000
G1 X169.18 Y122.907
G1 Z.2
G11 ; unretract
;TYPE:Perimeter
;WIDTH:0.419999
G1 F2400
G1 X130.306 Y122.907 E1.21886
G1 X130.306 Y87.033 E1.1248
M73 P1 R83
G1 X169.18 Y87.033 E1.21886
G1 X169.18 Y93.002 E.18715
G1 X169.18 Y122.847 E.93577
G1 X169.557 Y123.284 F15000
G1 F2400
G1 X129.929 Y123.284 E1.24251
G1 X129.929 Y86.656 E1.14844
G1 X169.557 Y86.656 E1.24251
G1 X169.557 Y93.002 E.19897
G1 X169.557 Y123.224 E.94759
G1 X169.934 Y123.661 F15000
;TYPE:External perimeter
G1 F1920
G1 X129.552 Y123.661 E1.26615
G1 X129.552 Y86.279 E1.17208
G1 X169.934 Y86.279 E1.26615
G1 X169.934 Y93.002 E.21079
G1 X169.934 Y123.601 E.95941
G1 X169.539 Y123.66 F15000
G10 ; retract
G1 Z.6
G1 X160.978 Y109.357
G1 Z.2
G11 ; unretract
;TYPE:Perimeter
G1 F2400
G1 X160.438 Y110.553 E.04114
G1 X159.732 Y111.736 E.0432
G1 X158.825 Y112.911 E.04654
G1 X157.861 Y113.895 E.04319
G1 X156.791 Y114.762 E.04318
G1 X155.629 Y115.501 E.04318
G1 X154.489 Y116.062 E.03984
G1 X153.194 Y116.53 E.04317
G1 X151.854 Y116.848 E.04318
G1 X150.379 Y117.017 E.04655
G1 X149.002 Y117.011 E.04318
G1 X147.74 Y116.866 E.03983
G1 X146.397 Y116.56 E.04319
G1 X145.098 Y116.103 E.04318
G1 X143.838 Y115.488 E.04396
G1 X142.697 Y114.762 E.0424
G1 X141.548 Y113.822 E.04655
G1 X140.663 Y112.911 E.03982
G1 X139.817 Y111.824 E.04319
G1 X139.05 Y110.553 E.04655
G1 X138.523 Y109.398 E.03981
G1 X138.091 Y108.09 E.04319
G1 X137.812 Y106.741 E.04319
G1 X137.688 Y105.369 E.04319
G1 X137.721 Y103.993 E.04316
G1 X137.911 Y102.628 E.04321
G1 X138.288 Y101.192 E.04655
G1 X138.794 Y99.911 E.04318
G1 X139.386 Y98.788 E.0398
G1 X140.159 Y97.648 E.04319
G1 X140.788 Y96.912 E.03036
G1 X141.132 Y96.524 E.01626
G1 X142.169 Y95.585 E.04386
G1 X143.268 Y94.794 E.04246
G1 X144.373 Y94.17 E.03979
G1 X145.741 Y93.592 E.04656
G1 X147.064 Y93.21 E.04318
G1 X148.423 Y92.981 E.04321
G1 X149.69 Y92.908 E.03979
G1 X151.066 Y92.981 E.0432
G1 X152.424 Y93.21 E.04318
G1 X153.747 Y93.592 E.04318
G1 X155.018 Y94.122 E.04318
G1 X156.221 Y94.794 E.04321
G1 X157.422 Y95.667 E.04655
G1 X158.357 Y96.526 E.03981
G1 X159.33 Y97.648 E.04657
G1 X160.102 Y98.788 E.04317
G1 X160.695 Y99.911 E.03982
G1 X161.2 Y101.192 E.04317
G1 X161.556 Y102.523 E.0432
G1 X161.767 Y103.992 E.04653
G1 X161.801 Y105.369 E.04319
G1 X161.677 Y106.741 E.04319
G1 X161.424 Y107.986 E.03983
G1 X161.005 Y109.297 E.04315
G1 X161.002 Y109.302 E.00018
G1 X160.628 Y109.22 F15000
G1 F2400
G1 X160.095 Y110.396 E.04048
G1 X159.409 Y111.541 E.04185
G1 X158.555 Y112.648 E.04384
G1 X157.622 Y113.603 E.04186
