; generated by PrusaSlicer 2.7.1 on 2024-01-18 at 13:04:32 UTC
;FLAVOR:Marlin
;TIME:4556
;Filament used: 5.664680
;Layer height: 0.20
;MINX:0.000
;MINY:0.000
;MINZ:0.000
;MAXX:0.000
;MAXY:0.000
;MAXZ:0.000
;POSTPROCESSED
;Header generated for The Ender3v2 Professional Firmware
;https://github.com/mriscoc/Marlin_Ender3v2



;
;

;
;
; 

; external perimeters extrusion width = 0.42mm
; perimeters extrusion width = 0.44mm
; infill extrusion width = 0.44mm
; solid infill extrusion width = 0.44mm
; top infill extrusion width = 0.40mm
; support material extrusion width = 0.36mm
; first layer extrusion width = 0.42mm

; external perimeters extrusion width = 0.42mm
; perimeters extrusion width = 0.44mm
; infill extrusion width = 0.44mm
; solid infill extrusion width = 0.44mm
; top infill extrusion width = 0.40mm
; support material extrusion width = 0.36mm
; first layer extrusion width = 0.42mm

M73 P0 R75

EXCLUDE_OBJECT_DEFINE NAME=Filamentsensorhalter_Creality_Top_stl CENTER=131.780,109.243 POLYGON=[[138.863,90.770],[139.446,90.857],[140.571,91.198],[141.104,91.450],[142.082,92.103],[142.518,92.499],[143.264,93.408],[143.819,94.445],[144.160,95.571],[144.275,96.741],[144.275,121.741],[144.160,122.912],[143.819,124.038],[143.264,125.075],[142.913,125.548],[142.082,126.380],[141.104,127.033],[140.571,127.285],[139.446,127.626],[138.275,127.741],[125.275,127.741],[124.105,127.626],[122.979,127.285],[122.447,127.033],[121.469,126.380],[120.637,125.548],[119.984,124.570],[119.732,124.038],[119.391,122.912],[119.304,122.330],[119.275,96.741],[119.391,95.571],[119.732,94.445],[119.984,93.913],[120.637,92.935],[121.469,92.103],[122.447,91.450],[122.979,91.198],[124.105,90.857],[125.275,90.741]]
EXCLUDE_OBJECT_DEFINE NAME=Filamentsensorhalter_Creality_Base_stl CENTER=89.083,104.790 POLYGON=[[106.222,126.041],[86.222,126.041],[86.222,96.041],[66.022,96.041],[66.022,116.041],[61.022,116.041],[61.022,89.041],[106.222,89.041]]

M190 S60 ; set bed temperature and wait for it to be reached
M104 S215 ; set temperature
;TYPE:Custom
M117 ; clear display for KAMP meshing
START_PRINT BED_TEMP=60 EXTRUDER_TEMP=215
M109 S215 ; set temperature and wait for it to be reached
G21 ; set units to millimeters
G90 ; use absolute coordinates
M83 ; use relative distances for extrusion
; Filament gcode
M107
;LAYER_CHANGE
;Z:0.2
;HEIGHT:0.2
;BEFORE_LAYER_CHANGE
G92 E0
;0.2


G10 ; retract
G1 Z.2 F15000
;AFTER_LAYER_CHANGE
;0.2
G1 X59.041 Y85.88
G11 ; unretract
M204 S500
;TYPE:Skirt/Brim
;WIDTH:0.42
G1 F2400
G1 X60.198 Y85.127 E.04328
G1 X61.441 Y84.643 E.04182
G1 X62.461 Y84.419 E.03274
G1 X63.458 Y84.358 E.03132
G1 X106.664 Y84.091 E1.35472
G1 X139.941 Y87.516 E1.04889
G1 X141.709 Y88.018 E.05763
G1 X142.84 Y88.553 E.03923
G1 X144.35 Y89.601 E.05763
G1 X145.416 Y90.667 E.04727
G1 X146.161 Y91.672 E.03922
G1 X146.871 Y93.001 E.04724
G1 X147.293 Y94.179 E.03923
G1 X147.619 Y95.988 E.05763
G1 X147.648 Y121.907 E.81267
G1 X147.436 Y123.733 E.05764
G1 X146.871 Y125.481 E.0576
G1 X145.977 Y127.087 E.05763
G1 X145.416 Y127.816 E.02884
G1 X144.35 Y128.882 E.04727
G1 X143.345 Y129.627 E.03922
G1 X141.709 Y130.464 E.05762
G1 X140.266 Y130.902 E.04728
G1 X138.441 Y131.114 E.05761
G1 X86.162 Y131.082 E1.63917
G1 X84.803 Y130.905 E.04297
G1 X83.942 Y130.674 E.02795
G1 X59.761 Y120.607 E.82126
G1 X58.695 Y119.885 E.04037
G1 X57.824 Y119.012 E.03867
G1 X57.23 Y118.207 E.03137
G1 X56.311 Y116.47 E.06162
G1 X55.919 Y114.82 E.05317
G1 X56.429 Y90.292 E.76922
G1 X56.934 Y88.584 E.05584
G1 X57.705 Y87.34 E.04589
G1 X58.193 Y86.725 E.02462
G1 X58.999 Y85.923 E.03565
EXCLUDE_OBJECT_START NAME=Filamentsensorhalter_Creality_Top_stl
G10 ; retract
G1 X58.999 Y85.923 Z.6 F15000
G1 X120.443 Y95.75
G1 Z.2
G11 ; unretract
;TYPE:Perimeter
;WIDTH:0.419999
G1 F2400
G1 X120.61 Y95.15 E.01953
G1 X120.803 Y94.669 E.01625
G1 X121.054 Y94.198 E.01673
G1 X121.448 Y93.628 E.02173
G1 X121.786 Y93.252 E.01585
G1 X122.162 Y92.914 E.01585
G1 X122.604 Y92.596 E.01707
G1 X123.167 Y92.286 E.02015
G1 X123.777 Y92.043 E.02059
G1 X124.284 Y91.909 E.01644
G1 X124.792 Y91.831 E.01611
G1 X125.301 Y91.806 E.01598
G1 X138.005 Y91.806 E.39832
G1 X138.727 Y91.829 E.02265
G1 X139.238 Y91.902 E.01618
G1 X139.733 Y92.028 E.01602
G1 X140.358 Y92.274 E.02106
G1 X140.92 Y92.58 E.02006
G1 X141.351 Y92.887 E.01659
G1 X141.749 Y93.238 E.01664
G1 X142.09 Y93.611 E.01585
G1 X142.39 Y94.019 E.01588
G1 X142.666 Y94.498 E.01733
G1 X142.922 Y95.099 E.02048
G1 X143.108 Y95.75 E.02123
G1 X143.186 Y96.258 E.01611
G1 X143.211 Y96.785 E.01654
G1 X143.211 Y121.478 E.77423
G1 X143.189 Y122.168 E.02165
G1 X143.12 Y122.674 E.01601
G1 X142.997 Y123.174 E.01614
G1 X142.824 Y123.651 E.01591
G1 X142.581 Y124.144 E.01723
;WIDTH:0.463889
G1 X142.455 Y124.3 E.00702
;WIDTH:0.507778
G1 X142.328 Y124.456 E.00778
;WIDTH:0.551667
G1 X141.973 Y124.903 E.02415
;WIDTH:0.524317
G1 X141.745 Y125.195 E.01483
;WIDTH:0.496967
G1 X141.38 Y125.541 E.01899
;WIDTH:0.475052
G1 X140.971 Y125.845 E.01831
;WIDTH:0.475213
G1 X140.471 Y126.124 E.02058
;WIDTH:0.505835
G1 X139.933 Y126.338 E.02229
G1 X139.25 Y126.559 E.02763
;WIDTH:0.456687
G1 X138.759 Y126.652 E.01719
;WIDTH:0.419999
G1 X138.249 Y126.677 E.01601
G1 X126.072 Y126.677 E.3818
G1 X125.29 Y126.677 E.02452
G1 X124.772 Y126.649 E.01627
;WIDTH:0.467845
G1 X124.593 Y126.595 E.00661
;WIDTH:0.51569
G1 X124.413 Y126.541 E.00739
;WIDTH:0.563535
G1 X123.949 Y126.42 E.02076
;WIDTH:0.536524
G1 X123.664 Y126.352 E.01203
;WIDTH:0.509513
G1 X123.126 Y126.145 E.02236
;WIDTH:0.476767
G1 X122.547 Y125.824 E.02388
;WIDTH:0.473708
G1 X122.145 Y125.52 E.01805
;WIDTH:0.499606
G1 X121.734 Y125.114 E.02194
;WIDTH:0.538593
G1 X121.49 Y124.782 E.01698
;WIDTH:0.57758
G1 X121.13 Y124.305 E.02657
;WIDTH:0.529399
G1 X121.015 Y124.16 E.00749
;WIDTH:0.481218
G1 X120.918 Y124.005 E.00666
;WIDTH:0.450609
G1 X120.821 Y123.85 E.0062
;WIDTH:0.419999
G1 X120.583 Y123.257 E.02003
G1 X120.443 Y122.734 E.01698
G1 X120.365 Y122.225 E.01615
G1 X120.34 Y121.715 E.01601
G1 X120.34 Y96.768 E.78219
G1 X120.365 Y96.258 E.01601
G1 X120.434 Y95.81 E.01421
G1 X120.065 Y95.705 F15000
G1 F2400
G1 X120.192 Y95.199 E.01636
G1 X120.368 Y94.709 E.01632
G1 X120.59 Y94.237 E.01635
G1 X120.859 Y93.79 E.01636
G1 X121.169 Y93.371 E.01634
G1 X121.519 Y92.985 E.01634
G1 X121.905 Y92.635 E.01634
G1 X122.33 Y92.321 E.01657
G1 X122.771 Y92.057 E.01612
G1 X123.243 Y91.834 E.01637
G1 X123.733 Y91.658 E.01632
G1 X124.239 Y91.531 E.01636
G1 X124.755 Y91.455 E.01635
G1 X125.292 Y91.429 E.01686
G1 X137.678 Y91.429 E.38835
G1 X138.295 Y91.43 E.01935
G1 X138.846 Y91.462 E.01731
G1 X139.358 Y91.543 E.01625
G1 X139.86 Y91.673 E.01626
G1 X140.347 Y91.852 E.01627
G1 X140.815 Y92.078 E.0163
G1 X141.259 Y92.349 E.01631
G1 X141.675 Y92.662 E.01632
G1 X142.058 Y93.015 E.01633
G1 X142.405 Y93.404 E.01634
G1 X142.713 Y93.825 E.01636
G1 X142.978 Y94.275 E.01637
G1 X143.198 Y94.749 E.01638
G1 X143.37 Y95.244 E.01643
G1 X143.492 Y95.752 E.01638
G1 X143.564 Y96.271 E.01643
G1 X143.588 Y96.785 E.01613
G1 X143.588 Y121.725 E.78197
G1 X143.562 Y122.262 E.01686
G1 X143.485 Y122.778 E.01636
G1 X143.359 Y123.283 E.01632
G1 X143.183 Y123.774 E.01635
G1 X142.96 Y124.246 E.01637
G1 X142.692 Y124.693 E.01634
G1 X142.382 Y125.111 E.01632
G1 X142.032 Y125.498 E.01636
G1 X141.645 Y125.848 E.01636
G1 X141.227 Y126.158 E.01632
G1 X140.779 Y126.426 E.01637
G1 X140.308 Y126.649 E.01634
G1 X139.817 Y126.825 E.01635
G1 X139.312 Y126.951 E.01632
G1 X138.796 Y127.028 E.01636
G1 X138.258 Y127.054 E.01689
G1 X125.292 Y127.054 E.40654
G1 X124.755 Y127.028 E.01686
G1 X124.239 Y126.951 E.01636
G1 X123.733 Y126.825 E.01635
G1 X123.243 Y126.649 E.01632
G1 X122.771 Y126.426 E.01637
G1 X122.324 Y126.158 E.01634
G1 X121.905 Y125.848 E.01634
G1 X121.519 Y125.498 E.01634
G1 X121.169 Y125.111 E.01636
G1 X120.859 Y124.693 E.01632
G1 X120.591 Y124.246 E.01634
G1 X120.368 Y123.774 E.01637
G1 X120.192 Y123.283 E.01635
G1 X120.065 Y122.778 E.01633
G1 X119.989 Y122.262 E.01635
G1 X119.962 Y121.725 E.01686
G1 X119.962 Y96.758 E.78282
G1 X119.989 Y96.221 E.01686
G1 X120.057 Y95.764 E.01449
G1 X119.695 Y95.631 F15000
;TYPE:External perimeter
G1 F1920
G1 X119.831 Y95.09 E.01749
G1 X120.019 Y94.564 E.01751
G1 X120.258 Y94.059 E.01752
G1 X120.545 Y93.58 E.01751
G1 X120.877 Y93.132 E.01748
G1 X121.252 Y92.718 E.01751
G1 X121.666 Y92.343 E.01751
G1 X122.12 Y92.007 E.01771
G1 X122.593 Y91.724 E.01728
G1 X123.098 Y91.485 E.01752
G1 X123.624 Y91.297 E.01751
G1 X124.165 Y91.161 E.01749
G1 X124.718 Y91.079 E.01753
G1 X125.283 Y91.051 E.01774
G1 X137.678 Y91.052 E.38864
G1 X138.395 Y91.058 E.02248
G1 X138.901 Y91.089 E.01589
G1 X139.45 Y91.177 E.01743
G1 X139.987 Y91.318 E.01741
G1 X140.509 Y91.511 E.01745
G1 X141.009 Y91.755 E.01744
G1 X141.484 Y92.046 E.01747
G1 X141.971 Y92.421 E.01927
G1 X142.338 Y92.761 E.01569
G1 X142.708 Y93.179 E.0175
G1 X143.037 Y93.631 E.01753
G1 X143.319 Y94.114 E.01754
G1 X143.553 Y94.622 E.01754
G1 X143.736 Y95.152 E.01758
G1 X143.865 Y95.697 E.01756
G1 X143.941 Y96.253 E.0176
G1 X143.965 Y96.785 E.0167
G1 X143.965 Y121.734 E.78226
G1 X143.938 Y122.299 E.01774
G1 X143.856 Y122.851 E.0175
G1 X143.72 Y123.393 E.01752
G1 X143.532 Y123.919 E.01751
G1 X143.293 Y124.423 E.01749
G1 X143.006 Y124.902 E.01751
G1 X142.673 Y125.351 E.01753
G1 X142.299 Y125.765 E.01749
G1 X141.885 Y126.14 E.01751
G1 X141.436 Y126.472 E.01751
G1 X140.957 Y126.759 E.01751
G1 X140.453 Y126.998 E.01749
G1 X139.927 Y127.186 E.01751
G1 X139.385 Y127.322 E.01752
G1 X138.833 Y127.404 E.0175
G1 X138.268 Y127.431 E.01774
G1 X125.283 Y127.431 E.40713
G1 X124.718 Y127.404 E.01774
G1 X124.165 Y127.322 E.01753
G1 X123.624 Y127.186 E.01749
G1 X123.098 Y126.998 E.01751
G1 X122.593 Y126.759 E.01752
G1 X122.114 Y126.472 E.01751
G1 X121.666 Y126.14 E.01748
G1 X121.252 Y125.765 E.01751
G1 X120.877 Y125.351 E.01751
G1 X120.545 Y124.902 E.01751
G1 X120.258 Y124.424 E.01748
G1 X120.019 Y123.919 E.01752
G1 X119.831 Y123.393 E.01751
G1 X119.695 Y122.851 E.01752
G1 X119.613 Y122.299 E.0175
G1 X119.585 Y121.734 E.01774
G1 X119.585 Y96.749 E.78339
G1 X119.613 Y96.184 E.01774
G1 X119.686 Y95.691 E.01563
G1 X119.778 Y95.302 F15000
G10 ; retract
G1 Z.6
G1 X136.632 Y95.51
G1 Z.2
G11 ; unretract
;TYPE:Perimeter
G1 F1920
G1 X136.635 Y95.399 E.00348
G1 X136.748 Y94.906 E.01586
G1 X136.952 Y94.443 E.01586
G1 X137.24 Y94.026 E.01589
G1 X137.601 Y93.672 E.01585
G1 X138.023 Y93.393 E.01586
G1 X138.49 Y93.198 E.01587
G1 X138.985 Y93.095 E.01585
G1 X139.476 Y93.089 E.0154
G1 X139.99 Y93.177 E.01635
G1 X140.462 Y93.359 E.01586
G1 X140.892 Y93.626 E.01587
G1 X141.263 Y93.97 E.01586
G1 X141.562 Y94.378 E.01586
G1 X141.779 Y94.836 E.01589
G1 X141.905 Y95.326 E.01586
G1 X141.936 Y95.831 E.01586
G1 X141.871 Y96.333 E.01587
G1 X141.712 Y96.813 E.01585
G1 X141.465 Y97.255 E.01588
G1 X141.139 Y97.642 E.01587
G1 X140.746 Y97.961 E.01587
G1 X140.299 Y98.199 E.01588
G1 X139.815 Y98.348 E.01588
G1 X139.312 Y98.403 E.01587
G1 X138.808 Y98.362 E.01585
G1 X138.321 Y98.226 E.01585
G1 X137.889 Y98.015 E.01507
G1 X137.465 Y97.693 E.01669
G1 X137.129 Y97.316 E.01583
G1 X136.87 Y96.881 E.01587
G1 X136.697 Y96.405 E.01588
G1 X136.618 Y95.905 E.01587
G1 X136.63 Y95.57 E.01051
G1 X137.004 Y95.529 F15000
G1 F1920
G1 X137.006 Y95.471 E.00182
G1 X137.098 Y95.046 E.01363
G1 X137.269 Y94.647 E.01361
G1 X137.512 Y94.287 E.01362
G1 X137.82 Y93.979 E.01366
G1 X138.179 Y93.736 E.01359
G1 X138.579 Y93.564 E.01365
G1 X139.003 Y93.472 E.0136
G1 X139.426 Y93.463 E.01327
G1 X139.866 Y93.533 E.01397
G1 X140.352 Y93.731 E.01645
G1 X140.645 Y93.911 E.01078
G1 X140.966 Y94.203 E.01361
G1 X141.267 Y94.63 E.01638
G1 X141.417 Y94.942 E.01085
G1 X141.529 Y95.362 E.01363
G1 X141.56 Y95.803 E.01386
G1 X141.509 Y96.227 E.01339
G1 X141.377 Y96.641 E.01362
G1 X141.169 Y97.022 E.01361
G1 X140.892 Y97.357 E.01363
G1 X140.557 Y97.634 E.01363
G1 X140.176 Y97.842 E.01361
G1 X139.762 Y97.975 E.01363
G1 X139.33 Y98.026 E.01364
G1 X138.897 Y97.996 E.01361
G1 X138.477 Y97.883 E.01364
G1 X138.099 Y97.702 E.01314
G1 X137.738 Y97.433 E.01412
G1 X137.446 Y97.112 E.01361
G1 X137.22 Y96.741 E.01362
G1 X137.068 Y96.334 E.01362
G1 X136.996 Y95.905 E.01364
G1 X137.003 Y95.589 E.00991
G1 X137.376 Y95.542 F15000
;TYPE:External perimeter
G1 F1920
G1 X137.448 Y95.186 E.01139
G1 X137.586 Y94.85 E.01139
G1 X137.785 Y94.547 E.01137
G1 X138.038 Y94.286 E.0114
G1 X138.336 Y94.079 E.01138
G1 X138.668 Y93.931 E.0114
G1 X139.186 Y93.841 E.01648
G1 X139.706 Y93.881 E.01635
G1 X140.164 Y94.057 E.01538
G1 X140.398 Y94.196 E.00853
G1 X140.67 Y94.437 E.01139
G1 X140.932 Y94.803 E.01411
G1 X141.055 Y95.048 E.0086
G1 X141.154 Y95.398 E.0114
G1 X141.184 Y95.767 E.01161
G1 X141.147 Y96.12 E.01113
G1 X141.042 Y96.468 E.0114
G1 X140.872 Y96.789 E.01139
G1 X140.645 Y97.072 E.01138
G1 X140.368 Y97.307 E.01139
G1 X140.052 Y97.486 E.01139
G1 X139.708 Y97.602 E.01138
G1 X139.348 Y97.65 E.01139
G1 X138.986 Y97.629 E.01137
G1 X138.634 Y97.54 E.01138
G1 X138.309 Y97.389 E.01124
G1 X138.011 Y97.173 E.01154
G1 X137.763 Y96.908 E.01138
G1 X137.57 Y96.601 E.01137
G1 X137.438 Y96.262 E.01141
G1 X137.373 Y95.905 E.01138
G1 X137.375 Y95.602 E.0095
G1 X137.451 Y95.209 F15000
G10 ; retract
G1 Z.6
G1 X126.497 Y94.289
G1 Z.2
G11 ; unretract
;TYPE:Perimeter
G1 F1920
G1 X126.562 Y94.378 E.00346
G1 X126.779 Y94.836 E.01589
G1 X126.905 Y95.326 E.01586
G1 X126.936 Y95.831 E.01586
G1 X126.871 Y96.333 E.01587
G1 X126.726 Y96.784 E.01485
G1 X126.485 Y97.228 E.01584
G1 X126.165 Y97.619 E.01584
G1 X125.769 Y97.946 E.0161
G1 X125.299 Y98.199 E.01674
G1 X124.815 Y98.348 E.01588
G1 X124.312 Y98.403 E.01587
G1 X123.808 Y98.362 E.01585
G1 X123.321 Y98.226 E.01585
G1 X122.868 Y98.001 E.01586
G1 X122.465 Y97.693 E.0159
G1 X122.129 Y97.316 E.01583
G1 X121.87 Y96.881 E.01587
G1 X121.697 Y96.405 E.01588
G1 X121.618 Y95.905 E.01587
G1 X121.635 Y95.399 E.01587
G1 X121.748 Y94.906 E.01586
G1 X121.952 Y94.443 E.01586
G1 X122.24 Y94.026 E.01589
G1 X122.601 Y93.672 E.01585
G1 X123.023 Y93.393 E.01586
G1 X123.49 Y93.198 E.01587
G1 X123.985 Y93.095 E.01585
G1 X124.464 Y93.088 E.01502
G1 X124.99 Y93.177 E.01673
G1 X125.462 Y93.359 E.01586
G1 X125.892 Y93.626 E.01587
G1 X126.263 Y93.97 E.01586
G1 X126.461 Y94.241 E.01052
G1 X126.192 Y94.504 F15000
G1 F1920
G1 X126.227 Y94.551 E.00184
G1 X126.417 Y94.942 E.01363
G1 X126.529 Y95.362 E.01363
G1 X126.56 Y95.795 E.01361
G1 X126.509 Y96.227 E.01364
G1 X126.385 Y96.623 E.01301
G1 X126.169 Y97.022 E.01423
G1 X125.892 Y97.357 E.01363
G1 X125.557 Y97.634 E.01363
G1 X125.176 Y97.842 E.01361
G1 X124.762 Y97.975 E.01363
G1 X124.33 Y98.026 E.01364
G1 X123.897 Y97.996 E.01361
G1 X123.477 Y97.883 E.01364
G1 X123.086 Y97.693 E.01363
G1 X122.738 Y97.433 E.01362
G1 X122.446 Y97.112 E.01361
G1 X122.22 Y96.741 E.01362
G1 X122.068 Y96.334 E.01362
G1 X121.996 Y95.895 E.01395
G1 X122.006 Y95.471 E.0133
G1 X122.134 Y94.956 E.01664
G1 X122.269 Y94.647 E.01057
G1 X122.512 Y94.287 E.01362
G1 X122.893 Y93.927 E.01644
G1 X123.179 Y93.736 E.01078
G1 X123.579 Y93.564 E.01365
G1 X124.046 Y93.47 E.01494
G1 X124.414 Y93.462 E.01154
G1 X124.96 Y93.566 E.01743
G1 X125.274 Y93.685 E.01053
G1 X125.645 Y93.911 E.01362
G1 X125.966 Y94.203 E.01361
G1 X126.156 Y94.456 E.00992
G10 ; retract
G1 X126.156 Y94.456 Z.6 F15000
G1 X122.373 Y95.895
G1 Z.2
G11 ; unretract
;TYPE:External perimeter
G1 F1920
G1 X122.376 Y95.542 E.01107
G1 X122.484 Y95.096 E.01439
G1 X122.586 Y94.85 E.00835
G1 X122.785 Y94.547 E.01137
G1 X123.112 Y94.234 E.01419
G1 X123.336 Y94.079 E.00854
G1 X123.668 Y93.931 E.0114
G1 X124.064 Y93.847 E.01269
G1 X124.364 Y93.835 E.00941
G1 X124.836 Y93.922 E.01505
G1 X125.085 Y94.012 E.0083
G1 X125.398 Y94.196 E.01138
G1 X125.67 Y94.437 E.01139
G1 X125.892 Y94.724 E.01138
G1 X126.055 Y95.048 E.01137
G1 X126.154 Y95.398 E.0114
G1 X126.185 Y95.759 E.01136
G1 X126.147 Y96.12 E.01138
G1 X126.044 Y96.462 E.0112
G1 X125.872 Y96.789 E.01158
G1 X125.645 Y97.072 E.01138
G1 X125.368 Y97.307 E.01139
G1 X125.052 Y97.486 E.01139
G1 X124.708 Y97.602 E.01138
G1 X124.348 Y97.65 E.01139
G1 X123.986 Y97.629 E.01137
G1 X123.634 Y97.54 E.01138
G1 X123.305 Y97.386 E.01139
G1 X123.011 Y97.173 E.01138
