; generated by PrusaSlicer 2.7.1 on 2024-01-23 at 22:42:36 UTC
;FLAVOR:Marlin
;TIME:2115
;Filament used: 2.925520
;Layer height: 0.20
;MINX:0.000
;MINY:0.000
;MINZ:0.000
;MAXX:0.000
;MAXY:0.000
;MAXZ:0.000
;POSTPROCESSED
;Header generated for The Ender3v2 Professional Firmware
;https://github.com/mriscoc/Marlin_Ender3v2



;
;

;
;
; 

; external perimeters extrusion width = 0.42mm
; perimeters extrusion width = 0.44mm
; infill extrusion width = 0.44mm
; solid infill extrusion width = 0.44mm
; top infill extrusion width = 0.40mm
; first layer extrusion width = 0.42mm

M73 P0 R35

EXCLUDE_OBJECT_DEFINE NAME=filamentsensor_plate_v1(1)_stl CENTER=110.000,110.000 POLYGON=[[131.000,129.000],[89.000,129.000],[89.000,91.000],[131.000,91.000]]

M190 S70 ; set bed temperature and wait for it to be reached
M104 S240 ; set temperature
;TYPE:Custom
M117 ; clear display for KAMP meshing
START_PRINT BED_TEMP=70 EXTRUDER_TEMP=240
M109 S240 ; set temperature and wait for it to be reached
G21 ; set units to millimeters
G90 ; use absolute coordinates
M83 ; use relative distances for extrusion
; Filament gcode
M107
;LAYER_CHANGE
;Z:0.2
;HEIGHT:0.2
;BEFORE_LAYER_CHANGE
G92 E0
;0.2


G10 ; retract
G1 Z.2 F15000
;AFTER_LAYER_CHANGE
;0.2
G1 X87.107 Y88.203
G11 ; unretract
M204 S500
;TYPE:Skirt/Brim
;WIDTH:0.42
G1 F2400
G1 X89 Y87.623 E.06518
G1 X131 Y87.623 E1.38272
G1 X132.583 Y88.017 E.05371
G1 X133.797 Y89.107 E.05371
G1 X134.377 Y91 E.06518
G1 X134.377 Y129 E1.25104
G1 X133.983 Y130.583 E.05371
G1 X132.893 Y131.797 E.05371
G1 X131 Y132.377 E.06518
G1 X89 Y132.377 E1.38272
G1 X87.417 Y131.983 E.05371
G1 X86.203 Y130.893 E.05371
G1 X85.623 Y129 E.06518
G1 X85.623 Y91 E1.25104
G1 X86.017 Y89.417 E.05371
G1 X87.067 Y88.248 E.05173
EXCLUDE_OBJECT_START NAME=filamentsensor_plate_v1(1)_stl
G10 ; retract
G1 X87.067 Y88.248 Z.6 F15000
G1 X90.064 Y92.064
G1 Z.2
G11 ; unretract
;TYPE:Perimeter
;WIDTH:0.419999
G1 F2400
G1 X129.936 Y92.064 E1.31266
G1 X129.936 Y95.273 E.10565
G1 X129.936 Y127.936 E1.07533
G1 X90.064 Y127.936 E1.31266
G1 X90.064 Y92.124 E1.179
G1 X89.687 Y91.687 F15000
G1 F2400
G1 X130.313 Y91.687 E1.33749
G1 X130.313 Y95.273 E.11806
G1 X130.313 Y128.313 E1.08774
G1 X89.687 Y128.313 E1.33749
G1 X89.687 Y91.747 E1.20382
G1 X89.31 Y91.31 F15000
;TYPE:External perimeter
G1 F1920
G1 X130.69 Y91.31 E1.36231
G1 X130.69 Y95.273 E.13047
G1 X130.69 Y128.69 E1.10015
G1 X89.31 Y128.69 E1.36231
M73 P0 R34
G1 X89.31 Y91.37 E1.22865
G1 X89.706 Y91.311 F15000
G10 ; retract
G1 Z.6
G1 X122.882 Y94.277
G1 Z.2
G11 ; unretract
;TYPE:Perimeter
G1 F1920
G1 X122.968 Y94.361 E.00396
G1 X123.266 Y94.806 E.01763
G1 X123.465 Y95.303 E.01763
G1 X123.556 Y95.831 E.01764
G1 X123.542 Y96.332 E.0165
G1 X123.404 Y96.885 E.01876
G1 X123.167 Y97.365 E.01762
G1 X122.836 Y97.786 E.01763
G1 X122.425 Y98.129 E.01762
G1 X121.951 Y98.378 E.01763
G1 X121.436 Y98.524 E.01762
G1 X120.901 Y98.56 E.01765
G1 X120.382 Y98.486 E.01726
G1 X119.888 Y98.309 E.01728
G1 X119.416 Y98.013 E.01834
G1 X119.032 Y97.639 E.01765
G1 X118.734 Y97.194 E.01763
G1 X118.535 Y96.697 E.01763
G1 X118.444 Y96.17 E.01761
G1 X118.465 Y95.635 E.01763
G1 X118.596 Y95.115 E.01765
G1 X118.833 Y94.635 E.01762
G1 X119.164 Y94.214 E.01763
G1 X119.575 Y93.871 E.01762
G1 X120.058 Y93.619 E.01794
G1 X120.581 Y93.474 E.01787
G1 X121.099 Y93.441 E.01709
G1 X121.629 Y93.517 E.01763
G1 X122.131 Y93.702 E.01761
G1 X122.584 Y93.987 E.01762
G1 X122.839 Y94.235 E.01171
G1 X122.617 Y94.539 F15000
G1 F1920
G1 X122.663 Y94.582 E.00207
G1 X122.921 Y94.959 E.01504
G1 X123.096 Y95.381 E.01504
G1 X123.179 Y95.831 E.01506
G1 X123.166 Y96.287 E.01502
G1 X123.059 Y96.731 E.01504
G1 X122.862 Y97.144 E.01506
G1 X122.584 Y97.506 E.01503
G1 X122.236 Y97.802 E.01504
G1 X121.835 Y98.02 E.01503
G1 X121.396 Y98.149 E.01506
G1 X120.941 Y98.185 E.01503
G1 X120.488 Y98.125 E.01504
G1 X120.055 Y97.97 E.01514
G1 X119.668 Y97.733 E.01494
G1 X119.336 Y97.417 E.01509
G1 X119.078 Y97.04 E.01504
G1 X118.904 Y96.618 E.01503
G1 X118.821 Y96.17 E.015
G1 X118.834 Y95.713 E.01505
G1 X118.941 Y95.269 E.01504
G1 X119.138 Y94.857 E.01503
G1 X119.416 Y94.494 E.01505
G1 X119.764 Y94.198 E.01504
G1 X120.171 Y93.979 E.01522
G1 X120.62 Y93.849 E.01539
G1 X121.059 Y93.816 E.01449
G1 X121.512 Y93.876 E.01504
G1 X121.943 Y94.029 E.01506
G1 X122.332 Y94.268 E.01503
G1 X122.573 Y94.497 E.01094
G1 X122.358 Y94.804 F15000
;TYPE:External perimeter
G1 F1920
G1 X122.577 Y95.112 E.01244
G1 X122.727 Y95.46 E.01248
G1 X122.802 Y95.831 E.01246
G1 X122.797 Y96.209 E.01245
G1 X122.715 Y96.578 E.01244
G1 X122.557 Y96.922 E.01246
M73 P1 R34
G1 X122.332 Y97.225 E.01242
G1 X122.048 Y97.476 E.01248
G1 X121.718 Y97.661 E.01245
G1 X121.357 Y97.774 E.01245
G1 X120.98 Y97.81 E.01247
G1 X120.605 Y97.766 E.01243
G1 X120.244 Y97.644 E.01255
G1 X119.921 Y97.452 E.01237
G1 X119.641 Y97.195 E.01251
G1 X119.423 Y96.887 E.01242
G1 X119.273 Y96.54 E.01245
G1 X119.198 Y96.17 E.01243
G1 X119.203 Y95.791 E.01248
G1 X119.285 Y95.422 E.01244
G1 X119.443 Y95.078 E.01246
G1 X119.669 Y94.775 E.01244
G1 X119.952 Y94.525 E.01243
G1 X120.284 Y94.338 E.01254
G1 X120.66 Y94.224 E.01294
G1 X121.02 Y94.191 E.0119
G1 X121.395 Y94.234 E.01243
G1 X121.754 Y94.355 E.01247
G1 X122.08 Y94.548 E.01247
G1 X122.314 Y94.763 E.01046
G1 X122.551 Y95.085 F15000
G10 ; retract
G1 Z.6
G1 X107.444 Y98.099
G1 Z.2
G11 ; unretract
;TYPE:Perimeter
G1 F1920
G1 X107.13 Y98.297 E.01222
G1 X106.628 Y98.481 E.0176
G1 X106.099 Y98.558 E.0176
G1 X105.582 Y98.524 E.01706
G1 X105.05 Y98.377 E.01817
G1 X104.576 Y98.127 E.01764
G1 X104.165 Y97.785 E.0176
G1 X103.834 Y97.364 E.01763
G1 X103.598 Y96.884 E.01761
G1 X103.467 Y96.365 E.01762
G1 X103.446 Y95.831 E.01759
G1 X103.537 Y95.303 E.01764
G1 X103.736 Y94.807 E.01759
G1 X104.033 Y94.362 E.01761
G1 X104.417 Y93.989 E.01762
G1 X104.87 Y93.703 E.01764
G1 X105.398 Y93.514 E.01846
G1 X105.901 Y93.442 E.01673
G1 X106.435 Y93.478 E.01762
G1 X106.95 Y93.623 E.01761
G1 X107.424 Y93.873 E.01764
G1 X107.835 Y94.215 E.0176
G1 X108.166 Y94.636 E.01763
G1 X108.402 Y95.116 E.01761
G1 X108.533 Y95.635 E.01762
G1 X108.554 Y96.169 E.01759
G1 X108.463 Y96.697 E.01764
G1 X108.264 Y97.194 E.01763
G1 X107.967 Y97.638 E.01759
G1 X107.583 Y98.011 E.01762
G1 X107.495 Y98.067 E.00343
G1 X106.89 Y97.988 F15000
G1 F1920
G1 X106.834 Y98.018 E.00209
G1 X106.396 Y98.147 E.01503
G1 X105.941 Y98.183 E.01503
G1 X105.488 Y98.123 E.01504
G1 X105.058 Y97.97 E.01503
G1 X104.669 Y97.731 E.01503
G1 X104.338 Y97.417 E.01502
G1 X104.08 Y97.04 E.01504
G1 X103.906 Y96.618 E.01503
G1 X103.823 Y96.169 E.01503
G1 X103.823 Y95.831 E.01113
G1 X103.942 Y95.269 E.01891
G1 X104.139 Y94.857 E.01503
G1 X104.417 Y94.496 E.015
G1 X104.765 Y94.199 E.01506
G1 X105.172 Y93.98 E.01522
G1 X105.621 Y93.851 E.01538
G1 X106.059 Y93.817 E.01446
G1 X106.512 Y93.877 E.01504
G1 X106.942 Y94.03 E.01503
G1 X107.331 Y94.269 E.01503
G1 X107.662 Y94.583 E.01502
G1 X107.92 Y94.96 E.01504
G1 X108.094 Y95.382 E.01503
G1 X108.177 Y95.831 E.01503
G1 X108.165 Y96.287 E.01502
G1 X108.057 Y96.731 E.01504
G1 X107.86 Y97.143 E.01503
G1 X107.581 Y97.506 E.01507
G1 X107.233 Y97.802 E.01504
G1 X106.942 Y97.959 E.01089
G1 X106.717 Y97.66 F15000
;TYPE:External perimeter
G1 F1920
G1 X106.357 Y97.772 E.01241
G1 X105.98 Y97.808 E.01247
G1 X105.605 Y97.764 E.01243
G1 X105.247 Y97.644 E.01243
G1 X104.922 Y97.451 E.01244
G1 X104.643 Y97.195 E.01247
G1 X104.425 Y96.887 E.01242
G1 X104.275 Y96.54 E.01245
G1 X104.2 Y96.169 E.01246
G1 X104.2 Y95.831 E.01113
G1 X104.287 Y95.423 E.01373
G1 X104.444 Y95.079 E.01245
G1 X104.67 Y94.776 E.01244
G1 X104.953 Y94.526 E.01243
G1 X105.285 Y94.34 E.01253
G1 X105.66 Y94.226 E.0129
G1 X106.02 Y94.192 E.0119
G1 X106.395 Y94.236 E.01243
G1 X106.753 Y94.357 E.01244
G1 X107.079 Y94.549 E.01246
G1 X107.357 Y94.805 E.01244
G1 X107.575 Y95.113 E.01242
G1 X107.725 Y95.46 E.01245
G1 X107.8 Y95.831 E.01246
G1 X107.796 Y96.209 E.01245
G1 X107.713 Y96.578 E.01245
G1 X107.555 Y96.922 E.01246
G1 X107.329 Y97.226 E.01247
G1 X107.044 Y97.475 E.01246
G1 X106.77 Y97.63 E.01036
G1 X106.39 Y97.756 F15000
G10 ; retract
G1 Z.6
G1 X106.021 Y126.55
G1 Z.2
G11 ; unretract
;TYPE:Perimeter
G1 F1920
G1 X105.901 Y126.558 E.00396
G1 X105.372 Y126.481 E.0176
G1 X104.87 Y126.296 E.01761
G1 X104.417 Y126.011 E.01762
G1 X104.033 Y125.638 E.01762
G1 X103.736 Y125.193 E.01761
G1 X103.537 Y124.697 E.01759
G1 X103.446 Y124.169 E.01764
G1 X103.467 Y123.635 E.01759
G1 X103.598 Y123.116 E.01762
G1 X103.834 Y122.636 E.01761
G1 X104.165 Y122.215 E.01763
G1 X104.576 Y121.873 E.0176
G1 X105.059 Y121.62 E.01795
G1 X105.58 Y121.476 E.0178
G1 X106.082 Y121.441 E.01657
G1 X106.583 Y121.505 E.01663
G1 X107.074 Y121.674 E.0171
G1 X107.522 Y121.938 E.01712
G1 X107.898 Y122.278 E.01669
G1 X108.217 Y122.713 E.01776
G1 X108.436 Y123.205 E.01773
G1 X108.554 Y123.831 E.02097
G1 X108.533 Y124.365 E.01759
G1 X108.402 Y124.884 E.01762
G1 X108.166 Y125.364 E.01761
G1 X107.835 Y125.785 E.01763
G1 X107.424 Y126.127 E.0176
G1 X106.95 Y126.377 E.01764
G1 X106.435 Y126.522 E.01761
G1 X106.081 Y126.546 E.01168
G1 X106.004 Y126.178 F15000
G1 F1920
G1 X105.941 Y126.183 E.00208
G1 X105.488 Y126.123 E.01504
G1 X105.058 Y125.97 E.01503
G1 X104.669 Y125.731 E.01503
G1 X104.338 Y125.417 E.01502
G1 X104.08 Y125.04 E.01504
G1 X103.906 Y124.618 E.01503
G1 X103.823 Y124.169 E.01503
G1 X103.835 Y123.713 E.01502
G1 X103.942 Y123.269 E.01504
G1 X104.139 Y122.857 E.01503
G1 X104.417 Y122.495 E.01503
G1 X104.765 Y122.199 E.01504
G1 X105.172 Y121.98 E.01522
G1 X105.621 Y121.851 E.01538
G1 X106.059 Y121.817 E.01446
G1 X106.512 Y121.877 E.01504
G1 X106.942 Y122.03 E.01503
G1 X107.331 Y122.269 E.01503
G1 X107.662 Y122.583 E.01502
G1 X107.92 Y122.96 E.01504
G1 X108.094 Y123.382 E.01503
G1 X108.177 Y123.831 E.01503
G1 X108.165 Y124.287 E.01502
G1 X108.058 Y124.731 E.01504
G1 X107.861 Y125.143 E.01503
G1 X107.583 Y125.504 E.015
G1 X107.235 Y125.801 E.01506
G1 X106.834 Y126.018 E.01501
G1 X106.396 Y126.147 E.01503
G1 X106.064 Y126.173 E.01096
G1 X105.98 Y125.808 F15000
;TYPE:External perimeter
G1 F1920
G1 X105.605 Y125.764 E.01243
G1 X105.247 Y125.643 E.01244
G1 X104.921 Y125.451 E.01246
G1 X104.643 Y125.195 E.01244
G1 X104.425 Y124.887 E.01242
G1 X104.275 Y124.54 E.01245
G1 X104.2 Y124.169 E.01246
G1 X104.204 Y123.791 E.01245
G1 X104.287 Y123.423 E.01242
G1 X104.444 Y123.079 E.01245
G1 X104.67 Y122.776 E.01244
G1 X104.953 Y122.526 E.01243
G1 X105.285 Y122.34 E.01253
G1 X105.66 Y122.226 E.0129
G1 X106.02 Y122.192 E.0119
G1 X106.395 Y122.236 E.01243
G1 X106.753 Y122.357 E.01244
G1 X107.079 Y122.549 E.01246
G1 X107.357 Y122.805 E.01244
G1 X107.575 Y123.113 E.01242
G1 X107.725 Y123.46 E.01245
G1 X107.8 Y123.831 E.01246
G1 X107.796 Y124.208 E.01241
G1 X107.713 Y124.577 E.01245
G1 X107.556 Y124.921 E.01245
G1 X107.33 Y125.224 E.01244
G1 X107.047 Y125.474 E.01243
G1 X106.717 Y125.659 E.01245
G1 X106.357 Y125.772 E.01242
G1 X106.04 Y125.802 E.01048
G1 X105.642 Y125.763 F15000
G10 ; retract
G1 Z.6
G1 X118.581 Y124.808
G1 Z.2
G11 ; unretract
;TYPE:Perimeter
G1 F1920
G1 X118.537 Y124.697 E.00393
G1 X118.446 Y124.169 E.01764
G1 X118.457 Y123.687 E.01587
G1 X118.598 Y123.116 E.01936
G1 X118.834 Y122.636 E.01761
G1 X119.165 Y122.215 E.01763
G1 X119.554 Y121.886 E.01677
G1 X120.006 Y121.639 E.01696
G1 X120.497 Y121.489 E.0169
G1 X121.028 Y121.437 E.01757
G1 X121.529 Y121.492 E.01659
G1 X122.039 Y121.657 E.01765
G1 X122.583 Y121.989 E.02098
G1 X122.967 Y122.362 E.01762
G1 X123.264 Y122.806 E.01759
G1 X123.463 Y123.303 E.01763
G1 X123.554 Y123.831 E.01764
G1 X123.533 Y124.365 E.01759
G1 X123.402 Y124.884 E.01762
G1 X123.166 Y125.364 E.01761
G1 X122.828 Y125.791 E.01793
G1 X122.409 Y126.136 E.01787
G1 X121.95 Y126.377 E.01707
G1 X121.435 Y126.522 E.01761
G1 X120.901 Y126.558 E.01762
G1 X120.372 Y126.481 E.0176
G1 X119.87 Y126.296 E.01761
G1 X119.417 Y126.011 E.01762
G1 X119.033 Y125.638 E.01762
G1 X118.736 Y125.193 E.01761
G1 X118.604 Y124.863 E.0117
G1 X118.93 Y124.677 F15000
G1 F1920
G1 X118.906 Y124.618 E.0021
G1 X118.823 Y124.169 E.01503
G1 X118.83 Y123.744 E.01399
G1 X118.942 Y123.269 E.01607
G1 X119.139 Y122.857 E.01503
G1 X119.418 Y122.495 E.01505
G1 X119.765 Y122.199 E.01502
G1 X120.172 Y121.98 E.01522
G1 X120.621 Y121.851 E.01538
G1 X121.059 Y121.817 E.01446
G1 X121.512 Y121.877 E.01504
G1 X121.942 Y122.03 E.01503
G1 X122.331 Y122.269 E.01503
G1 X122.662 Y122.583 E.01502
G1 X122.92 Y122.96 E.01504
G1 X123.094 Y123.382 E.01503
G1 X123.177 Y123.831 E.01503
G1 X123.165 Y124.287 E.01502
G1 X123.058 Y124.731 E.01504
G1 X122.861 Y125.143 E.01503
G1 X122.578 Y125.508 E.01521
G1 X122.221 Y125.809 E.01537
G1 X121.834 Y126.018 E.01448
G1 X121.396 Y126.147 E.01503
G1 X120.941 Y126.183 E.01503
G1 X120.488 Y126.123 E.01504
G1 X120.058 Y125.97 E.01503
G1 X119.669 Y125.731 E.01503
G1 X119.338 Y125.417 E.01502
G1 X119.08 Y125.04 E.01504
G1 X118.953 Y124.732 E.01097
G1 X119.275 Y124.54 F15000
;TYPE:External perimeter
G1 F1920
G1 X119.2 Y124.169 E.01246
G1 X119.202 Y123.802 E.01208
G1 X119.287 Y123.423 E.01279
G1 X119.444 Y123.079 E.01245
G1 X119.67 Y122.776 E.01244
G1 X119.953 Y122.526 E.01243
G1 X120.285 Y122.34 E.01253
G1 X120.66 Y122.226 E.0129
G1 X121.02 Y122.192 E.0119
G1 X121.395 Y122.236 E.01243
G1 X121.753 Y122.357 E.01244
G1 X122.079 Y122.549 E.01246
G1 X122.357 Y122.805 E.01244
G1 X122.575 Y123.113 E.01242
G1 X122.725 Y123.46 E.01245
G1 X122.8 Y123.831 E.01246
G1 X122.796 Y124.208 E.01241
G1 X122.713 Y124.577 E.01245
G1 X122.556 Y124.921 E.01245
G1 X122.329 Y125.226 E.01252
G1 X122.032 Y125.482 E.01291
G1 X121.717 Y125.659 E.0119
G1 X121.357 Y125.772 E.01242
G1 X120.98 Y125.808 E.01247
G1 X120.605 Y125.764 E.01243
G1 X120.247 Y125.643 E.01244
G1 X119.921 Y125.451 E.01246
G1 X119.643 Y125.195 E.01244
G1 X119.425 Y124.887 E.01242
G1 X119.298 Y124.595 E.01048
G1 X119.213 Y124.204 F15000
G10 ; retract
G1 Z.6
G1 X129.051 Y92.185
G1 Z.2
G11 ; unretract
;TYPE:Solid infill
;WIDTH:0.420726
G1 F1920
G1 X129.645 Y92.779 E.02771
G1 X129.645 Y93.313 E.01761
G1 X128.687 Y92.355 E.04469
G1 X128.152 Y92.355 E.01765
G1 X129.645 Y93.848 E.06965
G1 X129.645 Y94.382 E.01761
G1 X127.618 Y92.355 E.09456
G1 X127.084 Y92.355 E.01761
G1 X129.645 Y94.916 E.11947
G1 X129.645 Y95.45 E.01761
G1 X126.55 Y92.355 E.14438
G1 X126.015 Y92.355 E.01765
G1 X129.645 Y95.985 E.16933
G1 X129.645 Y96.519 E.01761
G1 X125.481 Y92.355 E.19424
G1 X124.947 Y92.355 E.01761
G1 X129.645 Y97.053 E.21915
G1 X129.645 Y97.588 E.01765
G1 X124.412 Y92.355 E.24411
G1 X123.878 Y92.355 E.01761
G1 X129.645 Y98.122 E.26902
G1 X129.645 Y98.656 E.01761
G1 X123.344 Y92.355 E.29393
G1 X122.809 Y92.355 E.01765
G1 X129.645 Y99.191 E.31889
G1 X129.645 Y99.725 E.01761
G1 X122.275 Y92.355 E.3438
G1 X121.741 Y92.355 E.01761
G1 X129.645 Y100.259 E.36871
G1 X129.645 Y100.793 E.01761
G1 X121.207 Y92.355 E.39362
G1 X120.672 Y92.355 E.01765
G1 X121.515 Y93.197 E.0393
G1 X121.124 Y93.151 E.01299
G1 X120.935 Y93.151 E.00623
G1 X120.138 Y92.355 E.03716
G1 X119.604 Y92.355 E.01761
G1 X120.45 Y93.201 E.03946
G1 X120.036 Y93.321 E.01422
G1 X119.069 Y92.355 E.04509
G1 X118.535 Y92.355 E.01761
G1 X119.665 Y93.484 E.05269
G1 X119.335 Y93.689 E.01281
G1 X118.001 Y92.355 E.06223
G1 X117.466 Y92.355 E.01765
G1 X119.044 Y93.932 E.07359
G1 X118.785 Y94.207 E.01246
G1 X116.932 Y92.355 E.08642
G1 X116.398 Y92.355 E.01761
G1 X118.564 Y94.521 E.10104
G1 X118.385 Y94.876 E.01311
G1 X115.864 Y92.355 E.1176
G1 X115.329 Y92.355 E.01765
G1 X118.245 Y95.271 E.13603
G1 X118.165 Y95.724 E.01517
G1 X114.795 Y92.355 E.15718
G1 X114.261 Y92.355 E.01761
G1 X118.36 Y96.454 E.19121
G10 ; retract
G1 X118.36 Y96.454 Z.6 F15000
G1 X123.576 Y95.258
G1 Z.2
G11 ; unretract
G1 F1920
G1 X129.645 Y101.328 E.28313
G1 X129.645 Y101.862 E.01761
G1 X123.839 Y96.056 E.27084
G1 X123.829 Y96.377 E.01059
G1 X123.794 Y96.544 E.00563
G1 X129.645 Y102.396 E.27296
G1 X129.645 Y102.931 E.01765
G1 X123.681 Y96.967 E.27821
G1 X123.518 Y97.337 E.01334
G1 X129.645 Y103.465 E.28584
G1 X129.645 Y103.999 E.01761
G1 X123.31 Y97.663 E.29554
G1 X123.07 Y97.958 E.01254
G1 X129.645 Y104.534 E.30674
G1 X129.645 Y105.068 E.01761
G1 X122.793 Y98.215 E.31966
