; generated by PrusaSlicer 2.7.1 on 2023-12-21 at 09:28:07 UTC
;FLAVOR:Marlin
;TIME:3014
;Filament used: 3.150790
;Layer height: 0.20
;MINX:0.000
;MINY:0.000
;MINZ:0.000
;MAXX:0.000
;MAXY:0.000
;MAXZ:0.000
;POSTPROCESSED
;Header generated for The Ender3v2 Professional Firmware
;https://github.com/mriscoc/Marlin_Ender3v2



;
;

;
;
; 

; external perimeters extrusion width = 0.42mm
; perimeters extrusion width = 0.44mm
; infill extrusion width = 0.44mm
; solid infill extrusion width = 0.44mm
; top infill extrusion width = 0.40mm
; first layer extrusion width = 0.42mm

M73 P0 R50

EXCLUDE_OBJECT_DEFINE NAME=ender3v2cablechainbedmount_usesupports(1)_stl CENTER=114.211,108.097 POLYGON=[[135.075,85.005],[135.075,127.958],[136.925,129.023],[136.925,130.987],[135.075,132.052],[135.075,135.993],[133.075,135.993],[133.075,130.005],[116.775,130.005],[116.775,135.993],[114.775,135.993],[114.775,132.052],[112.925,130.987],[112.925,129.023],[114.775,127.958],[114.775,126.148],[112.775,125.291],[107.225,125.291],[105.225,126.148],[105.225,127.958],[107.075,129.023],[107.075,130.987],[105.225,132.052],[105.225,135.993],[103.225,135.993],[103.225,130.005],[86.925,130.005],[86.925,135.995],[84.925,135.995],[84.925,132.052],[83.075,130.987],[83.075,129.023],[84.925,127.958],[84.925,124.005],[95.075,124.005],[95.075,85.005],[96.075,84.005],[134.075,84.005]]

M190 S60 ; set bed temperature and wait for it to be reached
M104 S215 ; set temperature
;TYPE:Custom
M117 ;fix for KAMP meshing
START_PRINT BED_TEMP=60 EXTRUDER_TEMP=215
M109 S215 ; set temperature and wait for it to be reached
G21 ; set units to millimeters
G90 ; use absolute coordinates
M83 ; use relative distances for extrusion
; Filament gcode
M107
;LAYER_CHANGE
;Z:0.2
;HEIGHT:0.2
;BEFORE_LAYER_CHANGE
G92 E0
;0.2


G10 ; retract
G1 Z.2 F15000
;AFTER_LAYER_CHANGE
;0.2
G1 X92.687 Y82.617
G11 ; unretract
M204 S500
;TYPE:Skirt/Brim
;WIDTH:0.42
G1 F2400
G1 X93.687 Y81.617 E.04434
G1 X95.085 Y80.776 E.05115
G1 X96.075 Y80.628 E.03139
G1 X134.075 Y80.628 E1.19146
G1 X135.658 Y81.022 E.05115
G1 X136.463 Y81.617 E.03139
G1 X137.463 Y82.617 E.04434
G1 X138.304 Y84.015 E.05115
G1 X138.452 Y85.005 E.03139
G1 X138.452 Y124.134 E1.22686
G1 X138.058 Y125.717 E.05115
G1 X136.968 Y126.93 E.05113
G1 X135.075 Y127.511 E.06209
G1 X94.858 Y127.511 E1.26098
G1 X93.274 Y127.117 E.05118
G1 X92.061 Y126.026 E.05115
G1 X91.48 Y124.134 E.06206
G1 X91.698 Y84.986 E1.22748
G1 X92.101 Y83.405 E.05116
G1 X92.651 Y82.665 E.02891
EXCLUDE_OBJECT_START NAME=ender3v2cablechainbedmount_usesupports(1)_stl
G10 ; retract
G1 X92.651 Y82.665 Z.6 F15000
G1 X96.139 Y85.446
G1 Z.2
G11 ; unretract
;TYPE:Perimeter
;WIDTH:0.419999
G1 F2400
G1 X96.516 Y85.069 E.01672
G1 X133.634 Y85.069 E1.16381
G1 X134.011 Y85.446 E.01672
G1 X134.011 Y85.712 E.00834
G1 X134.011 Y122.984 E1.16864
G1 X96.124 Y122.984 E1.18792
G1 X96.139 Y122.505 E.01503
G1 X96.139 Y85.506 E1.16008
G1 X95.762 Y85.29 F15000
G1 F2400
G1 X96.36 Y84.692 E.02652
G1 X133.79 Y84.692 E1.17359
G1 X134.388 Y85.29 E.02652
G1 X134.388 Y85.712 E.01323
G1 X134.388 Y123.361 E1.18046
G1 X95.734 Y123.365 E1.21197
G1 X95.762 Y122.505 E.02698
G1 X95.762 Y85.35 E1.16497
G1 X95.385 Y85.133 F15000
;TYPE:External perimeter
G1 F1920
G1 X96.203 Y84.315 E.03627
G1 X133.947 Y84.315 E1.18343
G1 X134.765 Y85.133 E.03627
M73 P0 R49
G1 X134.765 Y85.712 E.01815
G1 X134.765 Y123.738 E1.19228
G1 X95.321 Y123.749 E1.23674
G1 X95.385 Y122.505 E.03906
G1 X95.385 Y85.193 E1.16989
G1 X95.64 Y84.885 F15000
G10 ; retract
G1 Z.6
G1 X125.64 Y90.246
G1 Z.2
G11 ; unretract
;TYPE:Perimeter
G1 F1920
G1 X126.237 Y90.375 E.01915
G1 X126.903 Y90.66 E.02271
G1 X127.503 Y91.067 E.02273
G1 X128.015 Y91.579 E.0227
G1 X128.421 Y92.179 E.02271
G1 X128.706 Y92.845 E.02271
G1 X128.86 Y93.554 E.02275
G1 X128.877 Y94.278 E.02271
G1 X128.756 Y94.993 E.02274
G1 X128.503 Y95.671 E.02269
G1 X128.126 Y96.29 E.02272
G1 X127.638 Y96.826 E.02273
G1 X127.058 Y97.26 E.02271
G1 X126.406 Y97.577 E.02273
G1 X125.706 Y97.764 E.02272
G1 X124.983 Y97.815 E.02273
G1 X124.264 Y97.729 E.0227
G1 X123.574 Y97.508 E.02272
G1 X122.938 Y97.161 E.02272
G1 X122.379 Y96.699 E.02274
G1 X121.918 Y96.14 E.02272
G1 X121.571 Y95.504 E.02272
G1 X121.35 Y94.814 E.02272
G1 X121.265 Y94.095 E.0227
G1 X121.316 Y93.372 E.02273
G1 X121.504 Y92.672 E.02273
G1 X121.571 Y92.506 E.00561
G1 X121.821 Y92.02 E.01714
G1 X122.255 Y91.44 E.02271
G1 X122.792 Y90.953 E.02273
G1 X123.411 Y90.576 E.02272
G1 X124.09 Y90.323 E.02272
G1 X124.783 Y90.206 E.02204
G1 X125.522 Y90.22 E.02317
G1 X125.582 Y90.233 E.00192
G1 X125.568 Y90.611 F15000
G1 F1920
G1 X126.148 Y90.741 E.01864
G1 X126.746 Y91.003 E.02047
G1 X127.284 Y91.374 E.02049
G1 X127.742 Y91.839 E.02046
G1 X128.104 Y92.383 E.02049
G1 X128.356 Y92.986 E.02049
G1 X128.489 Y93.625 E.02046
G1 X128.5 Y94.278 E.02048
G1 X128.386 Y94.921 E.02048
G1 X128.153 Y95.531 E.02047
G1 X127.808 Y96.086 E.02049
G1 X127.365 Y96.566 E.02048
G1 X126.839 Y96.953 E.02048
G1 X126.249 Y97.234 E.02049
G1 X125.617 Y97.397 E.02046
G1 X124.965 Y97.439 E.02049
G1 X124.317 Y97.356 E.02048
G1 X123.697 Y97.152 E.02046
G1 X123.126 Y96.834 E.02049
G1 X122.626 Y96.414 E.02047
G1 X122.214 Y95.907 E.02048
G1 X121.906 Y95.332 E.02045
G1 X121.712 Y94.708 E.02049
G1 X121.64 Y94.059 E.02047
G1 X121.692 Y93.408 E.02048
G1 X121.906 Y92.678 E.02385
G1 X122.156 Y92.193 E.01711
G1 X122.552 Y91.673 E.02049
G1 X123.039 Y91.238 E.02047
G1 X123.599 Y90.903 E.02046
G1 X124.213 Y90.679 E.02049
G1 X124.837 Y90.579 E.01981
G1 X125.507 Y90.597 E.02101
G1 X125.51 Y90.598 E.0001
G1 X125.491 Y90.974 F15000
;TYPE:External perimeter
G1 F1920
G1 X126.059 Y91.108 E.0183
G1 X126.589 Y91.346 E.01822
G1 X127.065 Y91.681 E.01825
G1 X127.469 Y92.1 E.01825
G1 X127.786 Y92.587 E.01822
G1 X128.006 Y93.126 E.01825
G1 X128.119 Y93.696 E.01822
G1 X128.123 Y94.278 E.01825
G1 X128.016 Y94.85 E.01825
G1 X127.803 Y95.391 E.01823
G1 X127.491 Y95.882 E.01824
G1 X127.092 Y96.306 E.01825
G1 X126.62 Y96.646 E.01824
G1 X126.093 Y96.891 E.01822
G1 X125.528 Y97.031 E.01825
G1 X124.947 Y97.062 E.01824
G1 X124.371 Y96.983 E.01823
G1 X123.82 Y96.796 E.01824
G1 X123.315 Y96.508 E.01823
G1 X122.873 Y96.129 E.01826
G1 X122.511 Y95.674 E.01823
G1 X122.241 Y95.159 E.01823
G1 X122.074 Y94.602 E.01823
G1 X122.015 Y94.023 E.01825
G1 X122.067 Y93.444 E.01823
G1 X122.241 Y92.851 E.01938
G1 X122.491 Y92.366 E.01711
G1 X122.848 Y91.907 E.01823
G1 X123.286 Y91.523 E.01826
G1 X123.788 Y91.229 E.01824
G1 X124.336 Y91.036 E.01822
G1 X124.89 Y90.953 E.01756
G1 X125.431 Y90.972 E.01697
G1 X125.823 Y91.054 F15000
G10 ; retract
G1 Z.6
G1 X108.469 Y112.292
G1 Z.2
G11 ; unretract
;TYPE:Perimeter
G1 F1920
G1 X108.707 Y112.85 E.01902
G1 X108.86 Y113.559 E.02274
G1 X108.876 Y114.283 E.02271
G1 X108.755 Y114.997 E.02271
G1 X108.5 Y115.676 E.02274
G1 X108.122 Y116.294 E.02271
G1 X107.634 Y116.829 E.0227
G1 X107.053 Y117.263 E.02274
G1 X106.401 Y117.578 E.0227
G1 X105.701 Y117.765 E.02272
G1 X104.978 Y117.815 E.02272
G1 X104.259 Y117.728 E.02271
G1 X103.569 Y117.506 E.02273
G1 X102.934 Y117.158 E.0227
G1 X102.376 Y116.696 E.02271
G1 X101.915 Y116.136 E.02274
G1 X101.569 Y115.5 E.0227
G1 X101.349 Y114.809 E.02274
G1 X101.26 Y114.001 E.02549
G1 X101.318 Y113.367 E.01996
G1 X101.506 Y112.667 E.02273
G1 X101.824 Y112.016 E.02272
G1 X102.259 Y111.437 E.02271
G1 X102.796 Y110.95 E.02273
G1 X103.415 Y110.574 E.02271
G1 X104.095 Y110.322 E.02274
G1 X104.787 Y110.205 E.02201
G1 X105.528 Y110.221 E.02324
G1 X106.241 Y110.377 E.02288
G1 X106.907 Y110.663 E.02273
G1 X107.506 Y111.07 E.02271
G1 X108.018 Y111.583 E.02273
G1 X108.423 Y112.184 E.02272
G1 X108.446 Y112.237 E.00181
G1 X108.129 Y112.444 F15000
G1 F1920
G1 X108.357 Y112.99 E.01855
G1 X108.49 Y113.63 E.0205
G1 X108.499 Y114.283 E.02048
G1 X108.385 Y114.926 E.02048
G1 X108.151 Y115.535 E.02046
G1 X107.805 Y116.09 E.02051
G1 X107.362 Y116.569 E.02046
G1 X106.835 Y116.955 E.02048
G1 X106.245 Y117.235 E.02048
G1 X105.612 Y117.398 E.02049
G1 X104.961 Y117.438 E.02045
G1 X104.313 Y117.355 E.02048
G1 X103.693 Y117.15 E.02047
G1 X103.123 Y116.831 E.02048
G1 X102.623 Y116.411 E.02047
G1 X102.212 Y115.903 E.02049
G1 X101.904 Y115.327 E.02048
G1 X101.711 Y114.703 E.02048
G1 X101.638 Y114.001 E.02213
G1 X101.693 Y113.403 E.01883
G1 X101.868 Y112.774 E.02047
G1 X102.159 Y112.189 E.02049
G1 X102.555 Y111.67 E.02047
G1 X103.043 Y111.235 E.0205
G1 X103.603 Y110.901 E.02044
G1 X104.217 Y110.678 E.02048
G1 X104.841 Y110.579 E.01981
G1 X105.512 Y110.598 E.02105
G1 X106.152 Y110.743 E.02058
G1 X106.75 Y111.006 E.02048
G1 X107.287 Y111.377 E.02046
G1 X107.745 Y111.843 E.02049
G1 X108.106 Y112.387 E.02047
G1 X107.788 Y112.591 F15000
;TYPE:External perimeter
G1 F1920
G1 X108.007 Y113.13 E.01824
G1 X108.119 Y113.7 E.01821
G1 X108.122 Y114.282 E.01825
G1 X108.014 Y114.854 E.01825
G1 X107.801 Y115.395 E.01823
G1 X107.488 Y115.885 E.01823
G1 X107.089 Y116.308 E.01823
G1 X106.617 Y116.648 E.01824
G1 X106.089 Y116.892 E.01824
G1 X105.524 Y117.031 E.01824
G1 X104.943 Y117.062 E.01824
G1 X104.367 Y116.981 E.01824
G1 X103.817 Y116.794 E.01821
G1 X103.312 Y116.505 E.01824
G1 X102.87 Y116.126 E.01826
G1 X102.509 Y115.671 E.01821
G1 X102.24 Y115.155 E.01825
G1 X102.073 Y114.597 E.01826
G1 X102.015 Y114.001 E.01878
G1 X102.068 Y113.439 E.0177
G1 X102.23 Y112.881 E.01822
G1 X102.494 Y112.362 E.01826
G1 X102.851 Y111.904 E.01821
G1 X103.289 Y111.521 E.01824
G1 X103.792 Y111.228 E.01825
G1 X104.34 Y111.035 E.01822
G1 X104.894 Y110.952 E.01756
G1 X105.496 Y110.975 E.01889
G1 X106.063 Y111.109 E.01827
G1 X106.593 Y111.348 E.01823
G1 X107.068 Y111.684 E.01824
G1 X107.471 Y112.103 E.01823
G1 X107.755 Y112.54 E.01634
G1 X107.915 Y112.907 F15000
G10 ; retract
G1 Z.6
G1 X133.343 Y85.19
G1 Z.2
G11 ; unretract
;TYPE:Solid infill
;WIDTH:0.422087
G1 F1920
G1 X133.72 Y85.568 E.01683
G1 X133.72 Y86.104 E.0169
G1 X132.976 Y85.359 E.0332
G1 X132.44 Y85.359 E.0169
G1 X133.72 Y86.64 E.05709
G1 X133.72 Y87.176 E.0169
G1 X131.904 Y85.359 E.08099
G1 X131.368 Y85.359 E.0169
G1 X133.72 Y87.712 E.10489
G1 X133.72 Y88.249 E.01693
G1 X130.831 Y85.359 E.12883
G1 X130.295 Y85.359 E.0169
G1 X133.72 Y88.785 E.15273
G1 X133.72 Y89.321 E.0169
G1 X129.759 Y85.359 E.17663
G1 X129.223 Y85.359 E.0169
G1 X133.72 Y89.857 E.20053
G1 X133.72 Y90.394 E.01693
G1 X128.686 Y85.359 E.22447
G1 X128.15 Y85.359 E.0169
G1 X133.72 Y90.93 E.24837
G1 X133.72 Y91.466 E.0169
G1 X127.614 Y85.359 E.27227
G1 X127.078 Y85.359 E.0169
G1 X133.72 Y92.002 E.29617
G1 X133.72 Y92.538 E.0169
G1 X126.542 Y85.359 E.32007
G1 X126.005 Y85.359 E.01693
G1 X133.72 Y93.075 E.34401
G1 X133.72 Y93.611 E.0169
G1 X125.469 Y85.359 E.36791
G1 X124.933 Y85.359 E.0169
G1 X133.72 Y94.147 E.39181
G1 X133.72 Y94.683 E.0169
G1 X124.397 Y85.359 E.41571
G1 X123.86 Y85.359 E.01693
G1 X133.72 Y95.22 E.43965
G1 X133.72 Y95.756 E.0169
M73 P1 R49
G1 X123.324 Y85.359 E.46355
G1 X122.788 Y85.359 E.0169
G1 X133.72 Y96.292 E.48745
G1 X133.72 Y96.828 E.0169
G1 X122.252 Y85.359 E.51135
G1 X121.715 Y85.359 E.01693
G1 X126.524 Y90.168 E.21442
G1 X127.028 Y90.398 E.01747
G1 X127.222 Y90.511 E.00708
G1 X127.675 Y90.833 E.01752
G1 X127.845 Y90.98 E.00709
G1 X128.228 Y91.382 E.01751
G1 X128.367 Y91.559 E.0071
G1 X128.668 Y92.026 E.01752
G1 X128.771 Y92.226 E.00709
G1 X128.897 Y92.54 E.01067
G1 X133.72 Y97.364 E.21507
G1 X133.72 Y97.901 E.01693
G1 X129.103 Y93.284 E.20586
G1 X129.146 Y93.503 E.00704
G1 X129.167 Y93.883 E.012
G1 X133.72 Y98.437 E.20303
G1 X133.72 Y98.973 E.0169
G1 X129.156 Y94.409 E.2035
G1 X129.076 Y94.865 E.0146
G1 X133.72 Y99.509 E.20706
G1 X133.72 Y100.046 E.01693
G1 X128.967 Y95.292 E.21194
G1 X128.814 Y95.675 E.013
G1 X133.72 Y100.582 E.21877
G1 X133.72 Y101.118 E.0169
G1 X128.636 Y96.033 E.2267
G1 X128.426 Y96.36 E.01225
G1 X133.72 Y101.654 E.23604
G1 X133.72 Y102.19 E.0169
G1 X128.194 Y96.664 E.24639
G1 X127.932 Y96.938 E.01195
G1 X133.72 Y102.727 E.25809
G1 X133.72 Y103.263 E.0169
G1 X127.651 Y97.194 E.2706
G1 X127.338 Y97.417 E.01212
G1 X133.72 Y103.799 E.28456
G1 X133.72 Y104.335 E.0169
G1 X127.006 Y97.621 E.29936
G1 X126.636 Y97.787 E.01279
G1 X133.72 Y104.872 E.31588
G1 X133.72 Y105.408 E.0169
G1 X126.241 Y97.928 E.33349
G1 X125.809 Y98.032 E.01401
G1 X133.72 Y105.944 E.35275
G1 X133.72 Y106.48 E.0169
G1 X125.326 Y98.086 E.37426
G1 X124.911 Y98.107 E.0131
G1 X124.795 Y98.091 E.00369
G1 X133.72 Y107.016 E.39794
G1 X133.72 Y107.553 E.01693
G1 X123.915 Y97.747 E.4372
G10 ; retract
G1 X123.915 Y97.747 Z.6 F15000
G1 X126.017 Y90.197
G1 Z.2
G11 ; unretract
G1 F1920
G1 X121.179 Y85.359 E.21571
G1 X120.643 Y85.359 E.0169
G1 X125.201 Y89.917 E.20323
G1 X124.916 Y89.906 E.00899
G1 X124.676 Y89.928 E.0076
G1 X120.107 Y85.359 E.20372
G1 X119.571 Y85.359 E.0169
G1 X124.207 Y89.996 E.20673
G1 X123.798 Y90.124 E.01351
G1 X119.034 Y85.359 E.21244
G1 X118.498 Y85.359 E.0169
G1 X123.401 Y90.262 E.21861
G1 X123.051 Y90.448 E.0125
G1 X117.962 Y85.359 E.2269
G1 X117.426 Y85.359 E.0169
G1 X122.717 Y90.651 E.23593
G1 X122.421 Y90.891 E.01201
G1 X116.889 Y85.359 E.24666
G1 X116.353 Y85.359 E.0169
G1 X122.138 Y91.144 E.25794
G1 X121.891 Y91.434 E.01201
G1 X115.817 Y85.359 E.27084
G1 X115.281 Y85.359 E.0169
G1 X121.659 Y91.737 E.28438
G1 X121.465 Y92.08 E.01242
G1 X114.745 Y85.359 E.29965
G1 X114.208 Y85.359 E.01693
G1 X121.285 Y92.437 E.31557
G1 X121.157 Y92.844 E.01345
G1 X113.672 Y85.359 E.33373
G1 X113.136 Y85.359 E.0169
G1 X121.04 Y93.263 E.35242
G1 X120.994 Y93.753 E.01552
G1 X112.6 Y85.359 E.37426
G1 X112.063 Y85.359 E.01693
G1 X120.994 Y94.29 E.39821
G1 X121.028 Y94.67 E.01203
G1 X121.076 Y94.908 E.00765
G1 X111.527 Y85.359 E.42576
G1 X110.991 Y85.359 E.0169
G1 X121.375 Y95.743 E.46299
G1 X121.603 Y96.195 E.01596
G1 X122.081 Y96.813 E.02463
G1 X122.667 Y97.33 E.02464
G1 X123.367 Y97.735 E.0255
G1 X133.72 Y108.089 E.46163
G1 X133.72 Y108.625 E.0169
G1 X110.455 Y85.359 E1.03734
G1 X109.919 Y85.359 E.0169
G1 X133.72 Y109.161 E1.06124
G1 X133.72 Y109.698 E.01693
G1 X109.382 Y85.359 E1.08518
G1 X108.846 Y85.359 E.0169
G1 X133.72 Y110.234 E1.10908
G1 X133.72 Y110.77 E.0169
G1 X108.31 Y85.359 E1.13298
G1 X107.774 Y85.359 E.0169
G1 X133.72 Y111.306 E1.15688
G1 X133.72 Y111.843 E.01693
G1 X107.237 Y85.359 E1.18082
G1 X106.701 Y85.359 E.0169
G1 X133.72 Y112.379 E1.20472
G1 X133.72 Y112.915 E.0169
G1 X106.165 Y85.359 E1.22862
G1 X105.629 Y85.359 E.0169
G1 X133.72 Y113.451 E1.25252
G1 X133.72 Y113.987 E.0169
G1 X105.093 Y85.359 E1.27642
G1 X104.556 Y85.359 E.01693
G1 X133.72 Y114.524 E1.30036
G1 X133.72 Y115.06 E.0169
M73 P2 R49
G1 X104.02 Y85.359 E1.32426
G1 X103.484 Y85.359 E.0169
G1 X133.72 Y115.596 E1.34816
G1 X133.72 Y116.132 E.0169
G1 X102.948 Y85.359 E1.37206
G1 X102.411 Y85.359 E.01693
G1 X133.72 Y116.669 E1.396
G1 X133.72 Y117.205 E.0169
G1 X101.875 Y85.359 E1.4199
G1 X101.339 Y85.359 E.0169
G1 X133.72 Y117.741 E1.4438
G1 X133.72 Y118.277 E.0169
G1 X100.803 Y85.359 E1.4677
G1 X100.267 Y85.359 E.0169
G1 X133.72 Y118.813 E1.4916
G1 X133.72 Y119.35 E.01693
G1 X99.73 Y85.359 E1.51554
G1 X99.194 Y85.359 E.0169
G1 X133.72 Y119.886 E1.53944
G1 X133.72 Y120.422 E.0169
M73 P2 R48
G1 X98.658 Y85.359 E1.56334
G1 X98.122 Y85.359 E.0169
G1 X133.72 Y120.958 E1.58724
G1 X133.72 Y121.495 E.01693
G1 X97.585 Y85.359 E1.61118
G1 X97.049 Y85.359 E.0169
G1 X133.72 Y122.031 E1.63508
G1 X133.72 Y122.567 E.0169
G1 X96.575 Y85.421 E1.65621
G1 X96.429 Y85.566 E.00649
G1 X96.429 Y85.812 E.00776
G1 X133.311 Y122.693 E1.64444
G1 X132.774 Y122.693 E.01693
G1 X96.429 Y86.348 E1.62052
G1 X96.429 Y86.884 E.0169
G1 X132.238 Y122.693 E1.59662
G1 X131.702 Y122.693 E.0169
G1 X96.429 Y87.42 E1.57272
G1 X96.429 Y87.956 E.0169
M73 P3 R48
G1 X131.166 Y122.693 E1.54882
G1 X130.63 Y122.693 E.0169
G1 X96.429 Y88.493 E1.5249
G1 X96.429 Y89.029 E.0169
G1 X130.093 Y122.693 E1.50098
G1 X129.557 Y122.693 E.0169
G1 X96.429 Y89.565 E1.47708
G1 X96.428 Y90.101 E.0169
G1 X129.021 Y122.693 E1.45321
G1 X128.485 Y122.693 E.0169
G1 X96.428 Y90.637 E1.42931
G1 X96.428 Y91.173 E.0169
G1 X127.948 Y122.693 E1.40539
G1 X127.412 Y122.693 E.0169
G1 X96.428 Y91.709 E1.38149
G1 X96.428 Y92.245 E.0169
G1 X126.876 Y122.693 E1.35759
