; generated by PrusaSlicer 2.7.1 on 2023-12-30 at 21:34:36 UTC
;FLAVOR:Marlin
;TIME:2948
;Filament used: 8.070510
;Layer height: 0.28
;MINX:0.000
;MINY:0.000
;MINZ:0.000
;MAXX:0.000
;MAXY:0.000
;MAXZ:0.000
;POSTPROCESSED
;Header generated for The Ender3v2 Professional Firmware
;https://github.com/mriscoc/Marlin_Ender3v2



;
;

;
;
; 

; external perimeters extrusion width = 0.42mm
; perimeters extrusion width = 0.44mm
; infill extrusion width = 0.44mm
; solid infill extrusion width = 0.44mm
; top infill extrusion width = 0.40mm
; first layer extrusion width = 0.42mm

M73 P0 R49

EXCLUDE_OBJECT_DEFINE NAME=square_tower_stl CENTER=110.000,110.000 POLYGON=[[83.545,77.245],[84.500,77.670],[85.346,78.284],[86.045,79.061],[86.579,80.000],[133.421,80.000],[133.955,79.061],[134.654,78.284],[135.500,77.670],[136.455,77.245],[137.477,77.027],[138.523,77.027],[139.545,77.245],[140.500,77.670],[141.346,78.284],[142.045,79.061],[142.568,79.966],[142.891,80.960],[143.000,82.000],[142.891,83.040],[142.568,84.034],[142.045,84.939],[141.346,85.716],[140.500,86.330],[140.000,86.553],[140.000,133.447],[140.500,133.670],[141.346,134.284],[142.045,135.061],[142.568,135.966],[142.891,136.960],[143.000,138.000],[142.891,139.040],[142.568,140.034],[142.045,140.939],[141.346,141.716],[140.500,142.330],[139.545,142.755],[138.523,142.973],[137.477,142.973],[136.455,142.755],[135.500,142.330],[134.654,141.716],[133.955,140.939],[133.421,140.000],[86.579,140.000],[86.045,140.939],[85.346,141.716],[84.500,142.330],[83.545,142.755],[82.523,142.973],[81.477,142.973],[80.455,142.755],[79.500,142.330],[78.654,141.716],[77.955,140.939],[77.432,140.034],[77.109,139.040],[77.000,138.000],[77.109,136.960],[77.432,135.966],[77.955,135.061],[78.654,134.284],[79.500,133.670],[80.000,133.447],[80.000,86.553],[79.500,86.330],[78.654,85.716],[77.955,84.939],[77.432,84.034],[77.109,83.040],[77.000,82.000],[77.109,80.960],[77.432,79.966],[77.955,79.061],[78.654,78.284],[79.500,77.670],[80.455,77.245],[81.477,77.027],[82.523,77.027]]

M190 S70 ; set bed temperature and wait for it to be reached
M104 S240 ; set temperature
;TYPE:Custom
M117 ;fix for KAMP meshing
START_PRINT BED_TEMP=70 EXTRUDER_TEMP=240
M109 S240 ; set temperature and wait for it to be reached
G21 ; set units to millimeters
G90 ; use absolute coordinates
M83 ; use relative distances for extrusion
; Filament gcode
M107
;LAYER_CHANGE
;Z:0.2
;HEIGHT:0.2
;BEFORE_LAYER_CHANGE
G92 E0
;0.2


G10 ; retract
G1 Z.2 F15000
;AFTER_LAYER_CHANGE
;0.2
G1 X76.669 Y75.552
G11 ; unretract
;TYPE:Skirt/Brim
;WIDTH:0.42
G1 F2400
G1 X78.126 Y74.585 E.05757
G1 X79.753 Y73.941 E.05761
G1 X81.477 Y73.65 E.05756
G1 X138.523 Y73.65 E1.87807
G1 X139.225 Y73.724 E.02324
G1 X140.247 Y73.941 E.0344
G1 X141.874 Y74.585 E.05761
G1 X143.331 Y75.552 E.05757
G1 X143.855 Y76.025 E.02324
G1 X144.555 Y76.801 E.03441
G1 X145.492 Y78.278 E.05759
G1 X146.103 Y79.917 E.05759
G1 X146.359 Y81.647 E.05758
G1 X146.377 Y138 E1.85525
G1 X146.249 Y139.393 E.04605
G1 X145.779 Y141.077 E.05756
G1 X144.97 Y142.627 E.05756
G1 X144.555 Y143.199 E.02327
G1 X143.331 Y144.448 E.05757
G1 X141.874 Y145.415 E.05757
G1 X140.247 Y146.059 E.05761
G1 X138.523 Y146.35 E.05756
G1 X81.477 Y146.35 E1.87807
G1 X79.753 Y146.059 E.05756
G1 X79.081 Y145.84 E.02327
G1 X77.515 Y145.062 E.05757
G1 X76.669 Y144.448 E.03441
G1 X75.445 Y143.199 E.05757
G1 X74.508 Y141.722 E.05759
G1 X73.897 Y140.083 E.05759
G1 X73.751 Y139.393 E.02322
G1 X73.623 Y138 E.04605
G1 X73.623 Y82 E1.84363
G1 X73.751 Y80.607 E.04605
G1 X74.22 Y78.923 E.05755
G1 X74.508 Y78.278 E.02326
G1 X75.445 Y76.801 E.05759
G1 X76.627 Y75.595 E.05559
EXCLUDE_OBJECT_START NAME=square_tower_stl
G10 ; retract
G1 X76.627 Y75.595 Z.6 F15000
G1 X80.421 Y86.012
G1 Z.2
G11 ; unretract
;TYPE:Perimeter
;WIDTH:0.419999
G1 F2400
G1 X80.352 Y85.957 E.0029
G1 X79.845 Y85.732 E.01826
G1 X79.117 Y85.202 E.02965
G1 X78.514 Y84.533 E.02965
G1 X78.063 Y83.753 E.02966
G1 X77.785 Y82.896 E.02966
G1 X77.691 Y82 E.02966
G1 X77.785 Y81.104 E.02966
G1 X78.063 Y80.247 E.02966
G1 X78.514 Y79.467 E.02966
G1 X79.117 Y78.798 E.02965
G1 X79.845 Y78.268 E.02965
G1 X80.668 Y77.902 E.02965
G1 X81.55 Y77.714 E.02969
G1 X82.45 Y77.714 E.02963
G1 X83.332 Y77.902 E.02969
G1 X84.155 Y78.268 E.02965
G1 X84.883 Y78.798 E.02965
G1 X85.486 Y79.467 E.02965
G1 X85.972 Y80.348 E.03312
G1 X86.147 Y80.571 E.00933
G1 X86.304 Y80.656 E.00588
G1 X86.49 Y80.687 E.00621
G1 X133.509 Y80.687 E1.54796
G1 X133.607 Y80.679 E.00324
M73 P0 R48
G1 X133.853 Y80.571 E.00884
G1 X133.969 Y80.451 E.00549
G1 X134.063 Y80.248 E.00736
G1 X134.514 Y79.467 E.02969
G1 X135.117 Y78.798 E.02965
G1 X135.845 Y78.268 E.02965
G1 X136.668 Y77.902 E.02965
G1 X137.55 Y77.714 E.02969
G1 X138.45 Y77.714 E.02963
G1 X139.332 Y77.902 E.02969
G1 X140.155 Y78.268 E.02965
G1 X140.883 Y78.798 E.02965
G1 X141.486 Y79.467 E.02965
G1 X141.691 Y79.822 E.0135
G1 X141.937 Y80.247 E.01617
G1 X142.215 Y81.104 E.02966
G1 X142.309 Y82 E.02966
G1 X142.215 Y82.896 E.02966
G1 X141.937 Y83.753 E.02966
G1 X141.486 Y84.533 E.02966
G1 X140.883 Y85.202 E.02965
G1 X140.155 Y85.732 E.02965
G1 X139.648 Y85.957 E.01826
G1 X139.427 Y86.133 E.0093
G1 X139.344 Y86.289 E.00582
G1 X139.313 Y86.474 E.00618
G1 X139.313 Y133.526 E1.54904
G1 X139.321 Y133.624 E.00324
G1 X139.427 Y133.867 E.00873
G1 X139.648 Y134.043 E.0093
G1 X140.155 Y134.268 E.01826
G1 X140.883 Y134.798 E.02965
G1 X141.486 Y135.467 E.02965
G1 X141.937 Y136.247 E.02966
G1 X142.215 Y137.104 E.02966
G1 X142.309 Y138 E.02966
G1 X142.215 Y138.896 E.02966
G1 X141.937 Y139.753 E.02966
G1 X141.486 Y140.533 E.02966
G1 X140.883 Y141.202 E.02965
G1 X140.155 Y141.732 E.02965
G1 X139.332 Y142.098 E.02965
G1 X138.45 Y142.286 E.02969
G1 X137.55 Y142.286 E.02963
G1 X136.668 Y142.098 E.02969
G1 X135.845 Y141.732 E.02965
G1 X135.117 Y141.202 E.02965
G1 X134.514 Y140.533 E.02965
G1 X134.028 Y139.652 E.03312
G1 X133.853 Y139.429 E.00933
G1 X133.696 Y139.344 E.00588
G1 X133.509 Y139.313 E.00624
G1 X86.49 Y139.313 E1.54796
G1 X86.304 Y139.344 E.00621
G1 X86.147 Y139.429 E.00588
G1 X86.03 Y139.549 E.00552
G1 X85.937 Y139.753 E.00738
G1 X85.486 Y140.533 E.02966
G1 X84.883 Y141.202 E.02965
G1 X84.155 Y141.732 E.02965
G1 X83.332 Y142.098 E.02965
G1 X82.45 Y142.286 E.02969
G1 X81.55 Y142.286 E.02963
G1 X80.668 Y142.098 E.02969
G1 X79.845 Y141.732 E.02965
G1 X79.117 Y141.202 E.02965
G1 X78.514 Y140.533 E.02965
G1 X78.063 Y139.753 E.02966
G1 X77.785 Y138.896 E.02966
G1 X77.691 Y138 E.02966
G1 X77.785 Y137.104 E.02966
G1 X78.063 Y136.247 E.02966
G1 X78.514 Y135.467 E.02966
G1 X79.117 Y134.798 E.02965
G1 X79.845 Y134.268 E.02965
G1 X80.352 Y134.043 E.01826
G1 X80.573 Y133.867 E.0093
G1 X80.656 Y133.711 E.00582
G1 X80.687 Y133.526 E.00618
G1 X80.687 Y86.474 E1.54904
G1 X80.679 Y86.376 E.00324
G1 X80.573 Y86.133 E.00873
G1 X80.468 Y86.049 E.00443
G1 X80.198 Y86.302 F15000
;TYPE:External perimeter
G1 F2400
G1 X79.656 Y86.06 E.01954
G1 X78.863 Y85.484 E.03227
G1 X78.207 Y84.756 E.03226
G1 X77.717 Y83.907 E.03227
G1 X77.414 Y82.975 E.03226
G1 X77.312 Y82 E.03227
G1 X77.414 Y81.025 E.03227
G1 X77.717 Y80.093 E.03226
G1 X78.207 Y79.244 E.03227
G1 X78.863 Y78.516 E.03226
G1 X79.656 Y77.94 E.03227
G1 X80.551 Y77.541 E.03226
G1 X81.51 Y77.337 E.03228
G1 X82.49 Y77.337 E.03226
G1 X83.449 Y77.541 E.03228
G1 X84.344 Y77.94 E.03226
G1 X85.137 Y78.516 E.03227
G1 X85.793 Y79.244 E.03226
G1 X86.337 Y80.231 E.0371
G1 X86.49 Y80.31 E.00567
G1 X133.509 Y80.31 E1.54796
G1 X133.624 Y80.271 E.004
G1 X134.207 Y79.244 E.03888
G1 X134.863 Y78.516 E.03226
G1 X135.656 Y77.94 E.03227
G1 X136.551 Y77.541 E.03226
G1 X137.51 Y77.337 E.03228
G1 X138.49 Y77.337 E.03226
G1 X139.449 Y77.541 E.03228
G1 X140.344 Y77.94 E.03226
G1 X141.137 Y78.516 E.03227
G1 X141.793 Y79.244 E.03226
G1 X142.017 Y79.633 E.01478
G1 X142.283 Y80.093 E.01749
G1 X142.586 Y81.025 E.03226
G1 X142.688 Y82 E.03227
G1 X142.586 Y82.975 E.03227
G1 X142.283 Y83.907 E.03226
G1 X141.793 Y84.756 E.03227
G1 X141.137 Y85.484 E.03226
G1 X140.344 Y86.06 E.03227
G1 X139.768 Y86.321 E.02082
G1 X139.69 Y86.474 E.00565
G1 X139.69 Y133.526 E1.54904
G1 X139.7 Y133.588 E.00207
G1 X139.802 Y133.698 E.00494
G1 X140.344 Y133.94 E.01954
G1 X141.137 Y134.516 E.03227
G1 X141.793 Y135.244 E.03226
G1 X142.283 Y136.093 E.03227
G1 X142.586 Y137.025 E.03226
G1 X142.688 Y138 E.03227
G1 X142.586 Y138.975 E.03227
G1 X142.283 Y139.907 E.03226
G1 X141.793 Y140.756 E.03227
G1 X141.137 Y141.484 E.03226
G1 X140.344 Y142.06 E.03227
G1 X139.449 Y142.459 E.03226
G1 X138.49 Y142.663 E.03228
G1 X137.51 Y142.663 E.03226
G1 X136.551 Y142.459 E.03228
G1 X135.656 Y142.06 E.03226
G1 X134.863 Y141.484 E.03227
G1 X134.207 Y140.756 E.03226
G1 X133.663 Y139.769 E.0371
G1 X133.509 Y139.69 E.0057
G1 X86.49 Y139.69 E1.54796
G1 X86.376 Y139.729 E.00397
G1 X85.793 Y140.756 E.03888
G1 X85.137 Y141.484 E.03226
G1 X84.344 Y142.06 E.03227
G1 X83.449 Y142.459 E.03226
G1 X82.49 Y142.663 E.03228
G1 X81.51 Y142.663 E.03226
G1 X80.551 Y142.459 E.03228
G1 X79.656 Y142.06 E.03226
G1 X78.863 Y141.484 E.03227
G1 X78.207 Y140.756 E.03226
G1 X77.717 Y139.907 E.03227
G1 X77.414 Y138.975 E.03226
G1 X77.312 Y138 E.03227
G1 X77.414 Y137.025 E.03227
G1 X77.717 Y136.093 E.03226
G1 X78.207 Y135.244 E.03227
G1 X78.863 Y134.516 E.03226
G1 X79.656 Y133.94 E.03227
G1 X80.272 Y133.64 E.02256
G1 X80.31 Y133.526 E.00396
G1 X80.31 Y86.474 E1.54904
G1 X80.3 Y86.412 E.00207
G1 X80.239 Y86.346 E.00296
G1 X79.882 Y86.164 F15000
G10 ; retract
G1 Z.6
G1 X84.339 Y84.787
G1 Z.2
G11 ; unretract
;TYPE:Perimeter
G1 F2400
G1 X84.398 Y84.579 E.00712
G1 X84.605 Y84.384 E.00936
G1 X84.879 Y84.313 E.00932
G1 X108.345 Y84.313 E.77255
G1 X108.532 Y83.932 E.01397
G1 X108.781 Y83.821 E.00898
G1 X108.879 Y83.813 E.00324
G1 X111.121 Y83.813 E.07381
G1 X111.31 Y83.845 E.00631
G1 X111.468 Y83.932 E.00594
G1 X111.655 Y84.313 E.01397
G1 X135.121 Y84.313 E.77255
G1 X135.395 Y84.383 E.00931
G1 X135.602 Y84.579 E.00939
G1 X135.687 Y84.879 E.01027
G1 X135.687 Y108.345 E.77255
G1 X136.068 Y108.532 E.01397
G1 X136.179 Y108.781 E.00898
G1 X136.187 Y111.121 E.07704
G1 X136.155 Y111.31 E.00631
G1 X136.068 Y111.468 E.00594
G1 X135.687 Y111.655 E.01397
G1 X135.687 Y135.121 E.77255
G1 X135.602 Y135.421 E.01027
G1 X135.395 Y135.617 E.00939
G1 X135.121 Y135.687 E.00931
G1 X111.655 Y135.687 E.77255
G1 X111.468 Y136.068 E.01397
G1 X111.219 Y136.179 E.00898
G1 X111.121 Y136.187 E.00324
G1 X108.879 Y136.187 E.07381
G1 X108.69 Y136.155 E.00631
G1 X108.532 Y136.068 E.00594
G1 X108.345 Y135.687 E.01397
G1 X84.879 Y135.687 E.77255
G1 X84.605 Y135.616 E.00932
G1 X84.504 Y135.545 E.00406
G1 X84.383 Y135.395 E.00634
G1 X84.313 Y135.121 E.00931
G1 X84.313 Y107.655 E.90423
G1 X83.932 Y107.468 E.01397
G1 X83.821 Y107.219 E.00898
G1 X83.813 Y107.121 E.00324
G1 X83.813 Y104.879 E.07381
G1 X83.845 Y104.69 E.00631
G1 X83.932 Y104.532 E.00594
G1 X84.313 Y104.345 E.01397
G1 X84.313 Y84.879 E.64086
G1 X84.323 Y84.845 E.00117
G1 X84.879 Y84.69 F15000
;TYPE:External perimeter
G1 F2400
G1 X108.69 Y84.69 E.7839
G1 X108.69 Y84.379 E.01024
G1 X108.763 Y84.23 E.00546
G1 X108.879 Y84.19 E.00404
G1 X111.121 Y84.19 E.07381
G1 X111.237 Y84.23 E.00404
G1 X111.31 Y84.379 E.00546
G1 X111.31 Y84.69 E.01024
G1 X135.121 Y84.69 E.7839
G1 X135.27 Y84.762 E.00545
G1 X135.31 Y84.879 E.00407
G1 X135.31 Y108.69 E.7839
G1 X135.621 Y108.69 E.01024
G1 X135.77 Y108.763 E.00546
G1 X135.81 Y108.879 E.00404
G1 X135.81 Y111.121 E.07381
G1 X135.77 Y111.237 E.00404
G1 X135.621 Y111.31 E.00546
G1 X135.31 Y111.31 E.01024
G1 X135.31 Y135.121 E.7839
G1 X135.24 Y135.268 E.00536
G1 X135.121 Y135.31 E.00415
G1 X111.31 Y135.31 E.7839
G1 X111.31 Y135.621 E.01024
M73 P1 R48
G1 X111.237 Y135.77 E.00546
G1 X111.121 Y135.81 E.00404
G1 X108.879 Y135.81 E.07381
G1 X108.763 Y135.77 E.00404
G1 X108.69 Y135.621 E.00546
G1 X108.69 Y135.31 E.01024
G1 X84.879 Y135.31 E.7839
G1 X84.754 Y135.263 E.0044
G1 X84.69 Y135.121 E.00513
G1 X84.69 Y107.31 E.91559
G1 X84.379 Y107.31 E.01024
G1 X84.23 Y107.237 E.00546
G1 X84.19 Y107.121 E.00404
G1 X84.19 Y104.879 E.07381
G1 X84.23 Y104.763 E.00404
G1 X84.379 Y104.69 E.00546
G1 X84.69 Y104.69 E.01024
G1 X84.69 Y84.879 E.65222
G1 X84.76 Y84.732 E.00536
G1 X84.822 Y84.71 E.00217
G1 X85.222 Y84.692 F15000
G10 ; retract
G1 Z.6
G1 X139.12 Y77.98
G1 Z.2
G11 ; unretract
;TYPE:Solid infill
;WIDTH:0.420497
G1 F1920
G1 X141.749 Y80.609 E.12256
G1 X141.929 Y81.165 E.01927
G1 X141.948 Y81.342 E.00587
G1 X138.663 Y78.056 E.15317
G1 X138.42 Y78.005 E.00819
G1 X138.077 Y78.005 E.01131
G1 X142.011 Y81.939 E.1834
G1 X141.972 Y82.433 E.01634
G1 X137.55 Y78.011 E.20615
G1 X137.109 Y78.105 E.01486
G1 X141.907 Y82.903 E.22368
G1 X141.776 Y83.306 E.01397
G1 X136.683 Y78.213 E.23744
G1 X136.314 Y78.377 E.01331
G1 X141.633 Y83.697 E.248
G1 X141.438 Y84.036 E.01289
G1 X135.952 Y78.55 E.25576
G1 X135.643 Y78.774 E.01258
G1 X141.24 Y84.372 E.26096
G1 X140.987 Y84.653 E.01246
G1 X135.333 Y78.999 E.26359
G1 X135.077 Y79.276 E.01243
G1 X140.734 Y84.934 E.26375
G1 X140.435 Y85.169 E.01254
G1 X134.824 Y79.557 E.26161
G1 X134.75 Y79.639 E.00364
G1 X134.611 Y79.879 E.00914
G1 X140.126 Y85.394 E.25711
G1 X140.009 Y85.479 E.00477
G1 X139.779 Y85.581 E.00829
G1 X134.416 Y80.217 E.25005
G1 X134.232 Y80.568 E.01306
G1 X139.42 Y85.755 E.24184
G1 X139.194 Y85.957 E.00999
G1 X139.157 Y86.027 E.00261
G1 X133.967 Y80.836 E.24198
G1 X133.791 Y80.931 E.00659
G1 X133.566 Y80.969 E.00752
G1 X139.028 Y86.432 E.25466
G1 X139.023 Y86.96 E.01741
G1 X133.04 Y80.977 E.27893
G1 X132.506 Y80.977 E.0176
G1 X139.023 Y87.494 E.30382
G1 X139.023 Y88.028 E.0176
G1 X135.977 Y84.983 E.14198
G1 X135.942 Y84.631 E.01166
G1 X135.87 Y84.463 E.00603
G1 X135.725 Y84.27 E.00796
G1 X135.537 Y84.129 E.00775
G1 X135.369 Y84.058 E.00601
G1 X135.017 Y84.023 E.01166
G1 X131.972 Y80.977 E.14198
G1 X131.438 Y80.977 E.0176
G1 X134.483 Y84.023 E.14198
G1 X133.949 Y84.023 E.0176
G1 X130.904 Y80.977 E.14198
G1 X130.37 Y80.977 E.0176
G1 X133.415 Y84.023 E.14198
G1 X132.881 Y84.023 E.0176
G1 X129.836 Y80.977 E.14198
G1 X129.302 Y80.977 E.0176
G1 X132.347 Y84.023 E.14198
G1 X131.813 Y84.023 E.0176
G1 X128.768 Y80.977 E.14198
G1 X128.234 Y80.977 E.0176
G1 X131.279 Y84.023 E.14198
G1 X130.745 Y84.023 E.0176
G1 X127.7 Y80.977 E.14198
G1 X127.166 Y80.977 E.0176
G1 X130.211 Y84.023 E.14198
G1 X129.677 Y84.023 E.0176
G1 X126.632 Y80.977 E.14198
G1 X126.098 Y80.977 E.0176
G1 X129.143 Y84.023 E.14198
G1 X128.609 Y84.023 E.0176
G1 X125.564 Y80.977 E.14198
G1 X125.03 Y80.977 E.0176
G1 X128.076 Y84.023 E.14201
G1 X127.542 Y84.023 E.0176
G1 X124.496 Y80.977 E.14201
G1 X123.962 Y80.977 E.0176
G1 X127.008 Y84.023 E.14201
G1 X126.474 Y84.023 E.0176
G1 X123.428 Y80.977 E.14201
G1 X122.894 Y80.977 E.0176
G1 X125.94 Y84.023 E.14201
G1 X125.406 Y84.023 E.0176
G1 X122.36 Y80.977 E.14201
G1 X121.827 Y80.977 E.01757
G1 X124.872 Y84.023 E.14198
G1 X124.338 Y84.023 E.0176
G1 X121.293 Y80.977 E.14198
G1 X120.759 Y80.977 E.0176
G1 X123.804 Y84.023 E.14198
G1 X123.27 Y84.023 E.0176
G1 X120.225 Y80.977 E.14198
G1 X119.691 Y80.977 E.0176
G1 X122.736 Y84.023 E.14198
G1 X122.202 Y84.023 E.0176
G1 X119.157 Y80.977 E.14198
G1 X118.623 Y80.977 E.0176
G1 X121.668 Y84.023 E.14198
G1 X121.134 Y84.023 E.0176
G1 X118.089 Y80.977 E.14198
G1 X117.555 Y80.977 E.0176
G1 X120.6 Y84.023 E.14198
G1 X120.066 Y84.023 E.0176
G1 X117.021 Y80.977 E.14198
G1 X116.487 Y80.977 E.0176
G1 X119.532 Y84.023 E.14198
G1 X118.998 Y84.023 E.0176
G1 X115.953 Y80.977 E.14198
G1 X115.419 Y80.977 E.0176
G1 X118.464 Y84.023 E.14198
G1 X117.93 Y84.023 E.0176
G1 X114.885 Y80.977 E.14198
G1 X114.351 Y80.977 E.0176
G1 X117.396 Y84.023 E.14198
G1 X116.862 Y84.023 E.0176
G1 X113.817 Y80.977 E.14198
G1 X113.283 Y80.977 E.0176
G1 X116.328 Y84.023 E.14198
G1 X115.794 Y84.023 E.0176
G1 X112.749 Y80.977 E.14198
G1 X112.215 Y80.977 E.0176
G1 X115.26 Y84.023 E.14198
G1 X114.726 Y84.023 E.0176
G1 X111.681 Y80.977 E.14198
G1 X111.147 Y80.977 E.0176
G1 X114.192 Y84.023 E.14198
G1 X113.658 Y84.023 E.0176
G1 X110.613 Y80.977 E.14198
G1 X110.079 Y80.977 E.0176
G1 X113.124 Y84.023 E.14198
G1 X112.59 Y84.023 E.0176
G1 X109.545 Y80.977 E.14198
