; generated by PrusaSlicer 2.7.1 on 2023-12-21 at 08:20:07 UTC


;
;

;
;
; 

; external perimeters extrusion width = 0.42mm
; perimeters extrusion width = 0.44mm
; infill extrusion width = 0.44mm
; solid infill extrusion width = 0.44mm
; top infill extrusion width = 0.40mm
; first layer extrusion width = 0.42mm

M73 P0 R11

EXCLUDE_OBJECT_DEFINE NAME=ender_3_s1_knob_v2_2_stl CENTER=110.001,110.000 POLYGON=[[111.993,99.350],[112.634,99.502],[112.933,99.656],[113.142,99.926],[113.407,100.911],[113.691,101.256],[114.070,101.486],[114.720,101.560],[115.138,101.423],[115.469,101.212],[115.796,101.138],[116.269,101.298],[116.784,101.722],[116.987,101.996],[117.062,102.333],[116.888,103.338],[116.999,103.776],[117.243,104.152],[117.798,104.512],[118.786,104.556],[119.209,104.826],[119.589,105.582],[119.658,105.920],[119.584,106.257],[119.004,107.084],[118.920,107.530],[118.982,107.979],[119.331,108.550],[120.203,109.032],[120.412,109.302],[120.494,109.638],[120.473,110.489],[120.207,110.923],[119.337,111.409],[118.991,111.983],[118.930,112.432],[119.016,112.876],[119.599,113.701],[119.675,114.038],[119.608,114.376],[119.323,114.990],[118.967,115.347],[118.642,115.428],[118.255,115.388],[117.821,115.454],[117.268,115.815],[117.025,116.192],[116.915,116.632],[117.075,117.810],[116.934,118.122],[116.650,118.394],[116.160,118.762],[115.833,118.836],[115.506,118.764],[115.174,118.555],[114.755,118.418],[114.317,118.432],[113.907,118.596],[113.445,119.074],[113.094,120.206],[112.678,120.488],[112.037,120.640],[111.702,120.634],[111.401,120.484],[110.748,119.716],[110.347,119.532],[109.910,119.496],[109.292,119.720],[108.501,120.582],[108.007,120.650],[107.366,120.498],[107.067,120.344],[106.858,120.074],[106.593,119.090],[106.309,118.744],[105.930,118.515],[105.280,118.440],[104.204,118.862],[103.876,118.790],[103.557,118.564],[103.100,118.152],[102.958,117.840],[103.112,116.663],[103.001,116.224],[102.757,115.847],[102.202,115.488],[101.214,115.444],[100.791,115.174],[100.411,114.418],[100.342,114.081],[100.416,113.742],[100.996,112.916],[101.080,112.471],[101.018,112.022],[100.669,111.451],[99.797,110.968],[99.588,110.698],[99.501,110.137],[99.527,109.512],[99.793,109.078],[100.663,108.592],[101.009,108.018],[101.070,107.569],[100.984,107.125],[100.401,106.300],[100.325,105.962],[100.392,105.624],[100.677,105.010],[101.033,104.652],[102.179,104.546],[102.732,104.184],[102.975,103.808],[103.085,103.368],[102.925,102.191],[103.066,101.878],[103.521,101.464],[103.840,101.238],[104.167,101.164],[104.494,101.236],[104.826,101.446],[105.245,101.582],[105.683,101.568],[106.093,101.404],[106.555,100.926],[106.906,99.794],[107.165,99.574],[107.535,99.458],[108.131,99.345],[108.456,99.424],[108.721,99.636],[108.932,99.974],[109.252,100.284],[109.653,100.468],[110.090,100.504],[110.708,100.280],[111.499,99.418]]

M190 S60 ; set bed temperature and wait for it to be reached
M104 S215 ; set temperature
;TYPE:Custom
M117 ;fix for KAMP meshing
START_PRINT BED_TEMP=60 EXTRUDER_TEMP=215
M109 S215 ; set temperature and wait for it to be reached
G21 ; set units to millimeters
G90 ; use absolute coordinates
M83 ; use relative distances for extrusion
; Filament gcode
M107
;LAYER_CHANGE
;Z:0.2
;HEIGHT:0.2
;BEFORE_LAYER_CHANGE
G92 E0
;0.2


G10 ; retract
G1 Z.2 F9000
;AFTER_LAYER_CHANGE
;0.2
G1 X100.247 Y99.687
G11 ; unretract
M204 S500
;TYPE:Skirt/Brim
;WIDTH:0.42
G1 F1200
G1 X101.443 Y98.558 E.05157
G1 X102.229 Y98.054 E.02928
G1 X105.575 Y96.38 E.11731
G1 X106.603 Y96.015 E.0342
G1 X108.099 Y95.779 E.04749
G1 X112.149 Y95.783 E.12698
G1 X112.794 Y95.876 E.02043
G1 X114.045 Y96.219 E.04067
G1 X117.73 Y98.025 E.12867
G1 X118.286 Y98.363 E.0204
G1 X119.532 Y99.442 E.05168
G1 X122.039 Y102.648 E.12761
G1 X122.54 Y103.464 E.03002
G1 X123.126 Y104.964 E.05049
G1 X124.018 Y109.023 E.1303
G1 X124.072 Y110.129 E.03472
G1 X123.968 Y111.226 E.03455
G1 X123.144 Y114.995 E.12097
G1 X122.544 Y116.532 E.05173
G1 X122.072 Y117.296 E.02816
G1 X119.753 Y120.312 E.11929
G1 X118.553 Y121.445 E.05175
G1 X117.771 Y121.946 E.02912
G1 X114.425 Y123.619 E.11729
G1 X113.112 Y124.055 E.04338
G1 X111.901 Y124.221 E.03833
G1 X108.161 Y124.23 E.11727
G1 X107.231 Y124.132 E.02932
G1 X105.643 Y123.643 E.0521
G1 X101.71 Y121.634 E.13847
G1 X100.969 Y121.054 E.0295
G1 X100.291 Y120.355 E.03053
G1 X97.959 Y117.349 E.11929
G1 X97.302 Y116.21 E.04123
G1 X96.878 Y115.053 E.03864
G1 X95.958 Y110.744 E.13815
G1 X95.929 Y109.775 E.0304
G1 X96.032 Y108.774 E.03155
G1 X96.856 Y105.005 E.12097
G1 X97.455 Y103.471 E.05163
G1 X97.928 Y102.703 E.02828
G1 X100.211 Y99.735 E.11741
G1 X100.509 Y99.965 F9000
G1 F1200
G1 X100.546 Y99.917 E.0019
G1 X101.681 Y98.851 E.04882
G1 X102.398 Y98.391 E.02671
G1 X105.744 Y96.717 E.11731
G1 X106.693 Y96.381 E.03157
G1 X108.1 Y96.156 E.04468
G1 X112.117 Y96.158 E.12595
G1 X112.709 Y96.243 E.01875
G1 X113.909 Y96.571 E.03901
G1 X118.063 Y98.667 E.14589
G1 X119.254 Y99.698 E.04939
G1 X121.741 Y102.88 E.12663
G1 X122.198 Y103.623 E.02735
G1 X122.758 Y105.046 E.04795
G1 X123.645 Y109.073 E.12929
G1 X123.695 Y110.132 E.03324
M73 P1 R11
G1 X123.599 Y111.146 E.03194
G1 X122.775 Y114.914 E.12093
G1 X122.203 Y116.369 E.04902
G1 X121.773 Y117.066 E.02568
G1 X119.454 Y120.082 E.11929
G1 X118.315 Y121.152 E.049
G1 X117.602 Y121.609 E.02655
G1 X114.256 Y123.282 E.11729
G1 X113.022 Y123.689 E.04074
G1 X111.9 Y123.843 E.03551
G1 X108.16 Y123.852 E.11727
G1 X107.312 Y123.764 E.02673
G1 X105.81 Y123.305 E.04924
G1 X101.933 Y121.33 E.13642
G1 X101.212 Y120.765 E.02872
G1 X100.589 Y120.123 E.02805
G1 X98.257 Y117.118 E.11926
G1 X97.643 Y116.05 E.03863
G1 X97.246 Y114.971 E.03605
G1 X96.334 Y110.718 E.13638
G1 X96.306 Y109.774 E.02961
G1 X96.401 Y108.854 E.029
G1 X97.225 Y105.086 E.12093
G1 X97.795 Y103.634 E.04891
G1 X98.227 Y102.933 E.02582
G1 X100.473 Y100.012 E.11553
EXCLUDE_OBJECT_START NAME=ender_3_s1_knob_v2_2_stl
G10 ; retract
G1 X100.473 Y100.012 F9000
G1 X118.221 Y109.03
G11 ; unretract
;TYPE:Perimeter
;WIDTH:0.584792
G1 F1200
G1 X118.32 Y109.111 E.00576
;WIDTH:0.543594
G1 X118.419 Y109.191 E.0053
;WIDTH:0.502396
G1 X118.517 Y109.272 E.00486
;WIDTH:0.461198
G1 X118.616 Y109.352 E.00443
;WIDTH:0.419999
G1 X119.133 Y109.718 E.01986
G1 X119.417 Y109.85 E.00982
G1 X119.417 Y110.107 E.00806
G1 X119.002 Y110.312 E.01451
G1 X118.577 Y110.65 E.01703
G1 X118.247 Y111.065 E.01662
G1 X118.318 Y110.38 E.02159
G1 X118.306 Y109.546 E.02615
;WIDTH:0.461198
G1 X118.285 Y109.417 E.00455
;WIDTH:0.502396
G1 X118.264 Y109.288 E.00499
;WIDTH:0.543594
G1 X118.242 Y109.159 E.00545
;WIDTH:0.584792
G1 X118.231 Y109.089 E.00319
G1 X118.775 Y109.916 F9000
;WIDTH:0.523156
G1 F1200
G1 X118.715 Y109.916 E.0024
G1 X118.685 Y109.968 E.0024
G1 X118.715 Y110.02 E.0024
G1 X118.775 Y110.02 E.0024
G1 X118.805 Y109.968 E.0024
G10 ; retract
G1 X118.805 Y109.968 F9000
G1 X117.1 Y108.33
G11 ; unretract
;WIDTH:0.521509
G1 F1200
G1 X117.423 Y108.088 E.01606
G1 X117.56 Y107.903 E.00916
;WIDTH:0.554477
G1 X117.674 Y107.674 E.01088
;WIDTH:0.587445
G1 X117.787 Y107.445 E.01156
G1 X117.795 Y107.607 E.00734
;WIDTH:0.557713
G1 X117.803 Y107.768 E.0069
;WIDTH:0.527981
G1 X117.912 Y108.294 E.02167
;WIDTH:0.552125
G1 X118.043 Y108.618 E.0148
;WIDTH:0.58274
G1 X118.174 Y108.942 E.01569
G1 X118.006 Y108.783 E.01038
;WIDTH:0.552125
G1 X117.838 Y108.623 E.00982
;WIDTH:0.521509
G1 X117.493 Y108.408 E.01618
G1 X117.159 Y108.341 E.01356
G10 ; retract
G1 X117.159 Y108.341 F9000
G1 X116.949 Y105.276
G11 ; unretract
;WIDTH:0.419999
G1 F1200
G1 X117.202 Y105.431 E.0093
G1 X117.668 Y105.598 E.01552
G1 X117.904 Y105.632 E.00748
G1 X118.423 Y105.649 E.01628
G1 X118.522 Y105.861 E.00734
G1 X118.364 Y106.054 E.00782
G1 X118.014 Y106.681 E.02251
;WIDTH:0.465478
G1 X117.966 Y106.798 E.00444
;WIDTH:0.510957
G1 X117.918 Y106.916 E.00496
;WIDTH:0.556436
G1 X117.869 Y107.033 E.00542
;WIDTH:0.601914
G1 X117.821 Y107.15 E.00588
G1 X117.773 Y107 E.00732
;WIDTH:0.556436
G1 X117.724 Y106.849 E.00678
;WIDTH:0.510957
G1 X117.676 Y106.698 E.00617
;WIDTH:0.465478
G1 X117.627 Y106.547 E.00558
;WIDTH:0.419999
G1 X117.38 Y106.02 E.01825
G1 X116.979 Y105.328 E.02508
G1 X117.902 Y106.007 F9000
;WIDTH:0.521272
G1 F1200
G1 X117.842 Y106.007 E.00239
G1 X117.812 Y106.059 E.00239
G1 X117.842 Y106.111 E.00239
G1 X117.902 Y106.111 E.00239
G1 X117.932 Y106.059 E.00239
G10 ; retract
G1 X117.932 Y106.059 F9000
G1 X114.467 Y102.753
G11 ; unretract
;WIDTH:0.677522
G1 F1200
G1 X114.541 Y102.731 E.00407
;WIDTH:0.634602
G1 X114.614 Y102.71 E.00374
;WIDTH:0.591681
G1 X114.688 Y102.688 E.00352
;WIDTH:0.548761
G1 X114.762 Y102.667 E.00324
;WIDTH:0.50584
G1 X114.836 Y102.645 E.00297
;WIDTH:0.46292
G1 X114.91 Y102.623 E.0027
;WIDTH:0.419999
G1 X115.447 Y102.454 E.01765
G1 X115.768 Y102.299 E.01118
G1 X115.945 Y102.449 E.00727
G1 X115.825 Y102.943 E.01594
G1 X115.828 Y103.463 E.0163
G1 X115.959 Y104.044 E.01867
G1 X115.338 Y103.432 E.02734
G1 X114.877 Y103.054 E.01869
;WIDTH:0.46292
G1 X114.809 Y103.004 E.00295
;WIDTH:0.50584
G1 X114.74 Y102.953 E.0033
;WIDTH:0.548761
G1 X114.672 Y102.903 E.00355
;WIDTH:0.591681
G1 X114.604 Y102.853 E.00385
;WIDTH:0.634602
G1 X114.535 Y102.803 E.00419
;WIDTH:0.677522
G1 X114.515 Y102.788 E.00132
G1 X113.875 Y102.892 F9000
;WIDTH:0.451265
G1 F1200
G1 X113.787 Y102.901 E.003
;WIDTH:0.493647
G1 X113.652 Y102.915 E.00509
;WIDTH:0.536028
G1 X113.517 Y102.928 E.00556
G1 X113.225 Y103.121 E.01435
G1 X113.201 Y102.829 E.01201
G1 X113.106 Y102.518 E.01333
;WIDTH:0.579392
G1 X112.873 Y102.073 E.02241
G1 X112.925 Y102.108 E.0028
;WIDTH:0.572419
G1 X113.533 Y102.482 E.03143
;WIDTH:0.536028
G1 X113.664 Y102.499 E.00542
;WIDTH:0.493647
G1 X113.795 Y102.516 E.00495
;WIDTH:0.451265
G1 X113.927 Y102.534 E.00452
;WIDTH:0.408884
G1 X114.058 Y102.551 E.00402
;WIDTH:0.409446
G1 X114.112 Y102.579 E.00185
;WIDTH:0.452389
G1 X114.167 Y102.607 E.0021
;WIDTH:0.495332
G1 X114.221 Y102.635 E.00229
;WIDTH:0.538275
G1 X114.275 Y102.663 E.00251
;WIDTH:0.581218
G1 X114.329 Y102.691 E.00272
;WIDTH:0.624161
G1 X114.384 Y102.719 E.00298
;WIDTH:0.667104
G1 X114.438 Y102.747 E.00316
G1 X114.383 Y102.765 E.003
;WIDTH:0.624161
G1 X114.329 Y102.783 E.00275
;WIDTH:0.581218
G1 X114.274 Y102.801 E.00259
;WIDTH:0.538275
G1 X114.22 Y102.819 E.00234
;WIDTH:0.495332
G1 X114.165 Y102.837 E.00218
;WIDTH:0.452389
G1 X114.111 Y102.855 E.00194
;WIDTH:0.409446
G1 X114.056 Y102.873 E.00176
;WIDTH:0.408884
G1 X113.935 Y102.885 E.0037
G1 X115.429 Y102.866 F9000
;WIDTH:0.520202
G1 F1200
G1 X115.369 Y102.866 E.00238
G1 X115.339 Y102.917 E.00235
G1 X115.369 Y102.969 E.00238
G1 X115.429 Y102.969 E.00238
G1 X115.458 Y102.917 E.00236
G1 X113.924 Y103.238 F9000
;TYPE:External perimeter
;WIDTH:0.419999
G1 F1200
G1 X114.282 Y103.223 E.01123
G1 X114.752 Y103.42 E.01598
G1 X115.143 Y103.768 E.01641
G1 X115.761 Y104.378 E.02723
;WIDTH:0.468728
G1 X115.95 Y104.545 E.00893
;WIDTH:0.517457
G1 X116.138 Y104.711 E.0099
;WIDTH:0.542489
G1 X116.483 Y105.161 E.02355
G1 X116.579 Y105.348 E.00873
;WIDTH:0.501659
G1 X116.675 Y105.535 E.00802
;WIDTH:0.460829
G1 X116.771 Y105.721 E.00727
;WIDTH:0.419999
G1 X117.053 Y106.209 E.01767
G1 X117.285 Y106.706 E.0172
G1 X117.357 Y107.208 E.0159
G1 X117.216 Y107.649 E.01452
G1 X117.009 Y107.888 E.00991
;WIDTH:0.463539
G1 X116.869 Y107.987 E.006
;WIDTH:0.507079
G1 X116.729 Y108.087 E.00664
;WIDTH:0.550619
G1 X116.589 Y108.186 E.00724
;WIDTH:0.556032
G1 X113.523 Y108.906 E.13437
G1 X113.362 Y108.915 E.00688
;WIDTH:0.519829
G1 X113.202 Y108.925 E.00636
;WIDTH:0.483626
G1 X113.041 Y108.934 E.00591
;WIDTH:0.447422
G1 X112.698 Y108.875 E.01171
;WIDTH:0.417466
G1 X112.491 Y108.754 E.00747
;WIDTH:0.408404
G1 X112.234 Y108.263 E.01684
;WIDTH:0.414825
G1 X111.67 Y107.672 E.02526
;WIDTH:0.417911
G1 X111.628 Y107.612 E.00228
;WIDTH:0.419999
G1 X111.63 Y107.462 E.0047
;WIDTH:0.463212
G1 X111.696 Y107.211 E.00907
;WIDTH:0.506425
G1 X111.763 Y106.96 E.01001
;WIDTH:0.549637
G1 X111.829 Y106.709 E.01094
G1 X111.915 Y106.481 E.01027
;WIDTH:0.54063
G1 X113.176 Y103.766 E.12389
;WIDTH:0.53955
G1 X113.302 Y103.646 E.00719
;WIDTH:0.4997
G1 X113.428 Y103.526 E.00661
;WIDTH:0.45985
G1 X113.554 Y103.406 E.00603
;WIDTH:0.419999
G1 X113.869 Y103.263 E.01085
G1 X114.269 Y103.242 F9000
G1 X112.752 Y101.956
;TYPE:Perimeter
;WIDTH:0.591368
G1 F1200
G1 X112.718 Y101.943 E.00166
;WIDTH:0.575381
G1 X112.565 Y101.881 E.00731
;WIDTH:0.536536
G1 X112.413 Y101.82 E.00672
;WIDTH:0.49769
G1 X112.26 Y101.759 E.00623
;WIDTH:0.458845
G1 X112.108 Y101.698 E.00566
;WIDTH:0.419999
G1 X111.149 Y101.515 E.03061
G1 X110.617 Y101.453 E.01679
G1 X111.105 Y101.301 E.01603
G1 X111.603 Y100.933 E.01942
G1 X111.988 Y100.468 E.01893
G1 X112.166 Y100.508 E.00572
G1 X112.213 Y100.749 E.0077
G1 X112.514 Y101.495 E.02522
;WIDTH:0.462842
G1 X112.573 Y101.611 E.00454
;WIDTH:0.505684
G1 X112.633 Y101.726 E.00499
;WIDTH:0.548526
G1 X112.693 Y101.841 E.00545
;WIDTH:0.591368
G1 X112.725 Y101.903 E.00318
G1 X111.956 Y101.169 F9000
;WIDTH:0.532102
G1 F1200
G1 X111.895 Y101.169 E.00248
G1 X111.864 Y101.222 E.0025
G1 X111.895 Y101.275 E.0025
G1 X111.956 Y101.275 E.00248
G1 X111.987 Y101.222 E.0025
G10 ; retract
G1 X111.987 Y101.222 F9000
G1 X109.289 Y101.453
G11 ; unretract
;WIDTH:0.419999
G1 F1200
G1 X109.034 Y101.48 E.00804
G1 X108.114 Y101.656 E.02937
G1 X107.697 Y101.774 E.01359
;WIDTH:0.463971
G1 X107.574 Y101.828 E.0047
;WIDTH:0.507942
G1 X107.45 Y101.881 E.00521
;WIDTH:0.551913
G1 X107.326 Y101.935 E.00572
;WIDTH:0.595884
G1 X107.202 Y101.989 E.00622
G1 X107.253 Y101.89 E.00512
;WIDTH:0.551913
G1 X107.304 Y101.791 E.00471
;WIDTH:0.507942
G1 X107.355 Y101.691 E.00434
;WIDTH:0.463971
G1 X107.407 Y101.592 E.00392
;WIDTH:0.419999
G1 X107.629 Y101.08 E.0175
G1 X107.796 Y100.527 E.01811
G1 X107.988 Y100.479 E.00621
G1 X108.425 Y100.996 E.02123
G1 X108.928 Y101.329 E.01891
G1 X109.233 Y101.433 E.0101
G1 X108.063 Y101.179 F9000
M73 P2 R11
;WIDTH:0.52955
G1 F1200
G1 X108.003 Y101.179 E.00243
G1 X107.972 Y101.231 E.00245
G1 X108.003 Y101.284 E.00248
G1 X108.063 Y101.284 E.00243
G1 X108.094 Y101.231 E.00248
G10 ; retract
G1 X108.094 Y101.231 F9000
G1 X106.8 Y103.149
G11 ; unretract
;WIDTH:0.534906
G1 F1200
G1 X106.546 Y102.956 E.01305
G1 X106.3 Y102.852 E.01093
;WIDTH:0.570589
G1 X106.151 Y102.81 E.00679
;WIDTH:0.606272
G1 X106.002 Y102.768 E.00725
;WIDTH:0.641954
G1 X105.854 Y102.726 E.00766
G1 X105.981 Y102.69 E.00658
;WIDTH:0.605341
G1 X106.109 Y102.654 E.00622
;WIDTH:0.568728
G1 X106.587 Y102.43 E.02308
;WIDTH:0.564824
G1 X106.853 Y102.253 E.01387
;WIDTH:0.594742
G1 X107.118 Y102.075 E.01465
G1 X106.979 Y102.311 E.01257
;WIDTH:0.553246
G1 X106.815 Y102.776 E.02092
;WIDTH:0.534906
G1 X106.802 Y103.089 E.01282
G1 X105.607 Y102.748 F9000
;WIDTH:0.639336
G1 F1200
G1 X105.548 Y102.788 E.00353
;WIDTH:0.600302
G1 X105.441 Y102.855 E.00585
;WIDTH:0.555227
G1 X105.335 Y102.922 E.00534
;WIDTH:0.510151
G1 X105.228 Y102.988 E.00488
;WIDTH:0.465075
G1 X105.122 Y103.055 E.0044
;WIDTH:0.419999
G1 X104.627 Y103.465 E.02015
G1 X104 Y104.116 E.02834
G1 X104.133 Y103.561 E.01789
G1 X104.146 Y102.973 E.01844
G1 X104.026 Y102.475 E.01606
G1 X104.203 Y102.322 E.00734
G1 X104.551 Y102.501 E.01227
G1 X105.084 Y102.65 E.01735
;WIDTH:0.463867
G1 X105.189 Y102.67 E.00374
;WIDTH:0.507734
G1 X105.293 Y102.689 E.00409
;WIDTH:0.551602
G1 X105.398 Y102.709 E.00452
;WIDTH:0.595469
G1 X105.503 Y102.728 E.0049
;WIDTH:0.639336
G1 X105.548 Y102.737 E.00228
G1 X104.6 Y102.896 F9000
;WIDTH:0.515754
G1 F1200
G1 X104.541 Y102.896 E.00232
G1 X104.511 Y102.947 E.00233
G1 X104.541 Y102.999 E.00236
G1 X104.6 Y102.999 E.00232
G1 X104.629 Y102.947 E.00234
G10 ; retract
G1 X104.629 Y102.947 F9000
G1 X103.04 Y105.308
G11 ; unretract
;WIDTH:0.419999
G1 F1200
G1 X102.829 Y105.643 E.01241
G1 X102.334 Y106.661 E.03549
;WIDTH:0.461305
G1 X102.297 Y106.784 E.00447
;WIDTH:0.502611
G1 X102.26 Y106.906 E.00487
;WIDTH:0.543917
G1 X102.224 Y107.029 E.00534
;WIDTH:0.585222
G1 X102.187 Y107.151 E.00575
G1 X102.139 Y107.054 E.00488
;WIDTH:0.543917
G1 X102.091 Y106.957 E.00451
;WIDTH:0.502611
G1 X102.043 Y106.86 E.00414
;WIDTH:0.461305
G1 X101.995 Y106.763 E.00377
;WIDTH:0.419999
