; HEADER_BLOCK_START
; generated by OrcaSlicer 2.0.0 on 2024-05-23 at 10:03:50
; total layer number: 70
; filament_density: 1.27
; filament_diameter: 1.75
; max_z_height: 14.00
; HEADER_BLOCK_END

; THUMBNAIL_BLOCK_START

;
; THUMBNAIL_BLOCK_END

; external perimeters extrusion width = 0.40mm
; perimeters extrusion width = 0.45mm
; infill extrusion width = 0.45mm
; solid infill extrusion width = 0.40mm
; top infill extrusion width = 0.40mm
; support material extrusion width = 0.40mm
; first layer extrusion width = 0.50mm

; EXECUTABLE_BLOCK_START
EXCLUDE_OBJECT_DEFINE NAME=CableHolder_v1-1.stl_id_0_copy_0 CENTER=110,110 POLYGON=[[103,102.5],[107,102.5],[117,102.5],[117,117.5],[103,117.5],[103,102.5]]
M73 P0 R16
;TYPE:Custom
M117 ; clear display for KAMP meshing
START_PRINT BED_TEMP=80 EXTRUDER_TEMP=255
G90
G21
M83 ; use relative distances for extrusion
; filament start gcode
M106 S0
;LAYER_CHANGE
;Z:0.2
;HEIGHT:0.2
;BEFORE_LAYER_CHANGE
;0.2
G92 E0

G1 E-5 F3600
;_SET_FAN_SPEED_CHANGING_LAYER
SET_VELOCITY_LIMIT ACCEL=500 ACCEL_TO_DECEL=250
; printing object CableHolder_v1-1.stl id:0 copy 0
EXCLUDE_OBJECT_START NAME=CableHolder_v1-1.stl_id_0_copy_0
G1 Z.4 F9000
G1 X109.783 Y95.738
G1 Z.4
G1 Z.2
G1 E5 F2400
;TYPE:Support
;WIDTH:0.5
G1 F900
G1 X110.214 Y95.786 E.01567
G1 X111.058 Y96.057 E.03201
G1 X111.843 Y96.526 E.03302
G1 X112.5 Y97.162 E.03302
G1 X112.994 Y97.927 E.03285
G1 X113.305 Y98.798 E.03341
G1 X113.409 Y99.7 E.03279
G1 X113.305 Y100.609 E.03302
G1 X112.996 Y101.47 E.03302
G1 X112.719 Y101.9 E.0185
G1 X106.09 Y101.9 E.23932
G1 X105.742 Y101.27 E.02598
G1 X105.593 Y100.844 E.01632
G1 X105.478 Y100.362 E.01787
G1 X105.432 Y99.948 E.01506
G1 X105.432 Y99.452 E.01787
G1 X105.478 Y99.038 E.01506
G1 X105.593 Y98.556 E.01787
G1 X105.742 Y98.13 E.01632
G1 X106.158 Y97.377 E.03107
G1 X106.771 Y96.698 E.033
G1 X107.522 Y96.177 E.03301
G1 X108.372 Y95.84 E.03301
G1 X109.256 Y95.707 E.03229
G1 X109.714 Y95.734 E.01656
G1 X112.539 Y101.694 F9000
G1 F900
G1 X112.539 Y97.981 E.13407
G1 X112.18 Y97.425 E.0239
G1 X112.031 Y97.281 E.00748
G1 X112.031 Y101.489 E.15193
G1 X111.524 Y101.489 E.01834
G1 X111.524 Y96.815 E.16875
G1 X111.016 Y96.511 E.02137
G1 X111.016 Y101.489 E.17973
G1 X110.508 Y101.489 E.01834
G1 X110.508 Y96.313 E.18689
G1 X110.127 Y96.191 E.01443
G1 X110 Y96.176 E.00462
G1 X110 Y101.489 E.1918
G1 X109.492 Y101.489 E.01834
G1 X109.492 Y96.133 E.19337
G1 X109.275 Y96.12 E.00786
G1 X108.984 Y96.164 E.01061
G1 X108.984 Y101.489 E.19226
G1 X108.476 Y101.489 E.01834
G1 X108.476 Y96.241 E.18949
G1 X107.969 Y96.442 E.01973
G1 X107.969 Y101.489 E.18221
G1 X107.461 Y101.489 E.01834
G1 X107.461 Y96.72 E.17217
G1 X107.045 Y97.009 E.01829
G1 X106.953 Y97.111 E.00494
G1 X106.953 Y101.489 E.15807
G1 X106.445 Y101.489 E.01834
G1 X106.445 Y97.709 E.13648
G1 X106.119 Y98.298 E.02434
G1 X105.988 Y98.672 E.01429
G1 X105.937 Y98.887 E.00796
G1 X105.937 Y101.198 E.08347
G1 E-3.5 F3600
;WIPE_START
G1 F900
G1 X105.937 Y100.198 E-1.5
;WIPE_END
G1 Z.6 F9000
G1 X114.348 Y118.527 Z.6
G1 Z.2
G1 E5 F2400
G1 F900
G1 X114.66 Y119.398 E.03341
G1 X114.763 Y120.3 E.03279
G1 X114.659 Y121.209 E.03302
G1 X114.35 Y122.07 E.03302
G1 X113.863 Y122.825 E.03248
G1 X113.188 Y123.479 E.03393
G1 X112.412 Y123.943 E.03263
G1 X111.541 Y124.222 E.03302
M73 P1 R16
G1 X110.63 Y124.296 E.03301
G1 X109.726 Y124.16 E.03301
G1 X108.876 Y123.823 E.03301
G1 X108.162 Y123.327 E.03138
G1 X107.847 Y123.012 E.0161
G1 X107.497 Y122.595 E.01965
G1 X107.096 Y121.87 E.02991
G1 X106.947 Y121.444 E.01632
G1 X106.833 Y120.962 E.01787
G1 X106.786 Y120.548 E.01506
G1 X106.786 Y120.052 E.01787
G1 X106.833 Y119.638 E.01506
G1 X106.947 Y119.156 E.01787
G1 X107.096 Y118.73 E.01632
G1 X107.444 Y118.1 E.02598
G1 X114.073 Y118.1 E.23932
G1 X114.311 Y118.469 E.01585
G1 X114.063 Y122.136 F9000
G1 F900
G1 X114.063 Y118.946 E.11516
G1 X113.977 Y118.711 E.00905
G1 X113.849 Y118.511 E.00857
G1 X113.555 Y118.511 E.0106
G1 X113.555 Y122.543 E.14558
G1 X113.047 Y123.046 E.0258
G1 X113.047 Y118.511 E.16373
G1 X112.539 Y118.511 E.01834
G1 X112.539 Y123.388 E.17606
G1 X112.242 Y123.566 E.01252
G1 X112.031 Y123.633 E.00797
G1 X112.031 Y118.511 E.18493
G1 X111.524 Y118.511 E.01834
G1 X111.524 Y123.796 E.1908
G1 X111.461 Y123.816 E.00237
G1 X111.016 Y123.852 E.01613
G1 X111.016 Y118.511 E.19282
G1 X110.508 Y118.511 E.01834
G1 X110.508 Y123.861 E.19317
G1 X110 Y123.785 E.01854
G1 X110 Y118.511 E.19043
G1 X109.492 Y118.511 E.01834
G1 X109.492 Y123.625 E.18464
G1 X109.072 Y123.458 E.01633
M73 P1 R15
G1 X108.984 Y123.397 E.00384
G1 X108.984 Y118.511 E.17642
G1 X108.476 Y118.511 E.01834
G1 X108.476 Y123.045 E.16368
G1 X108.15 Y122.734 E.01627
G1 X107.969 Y122.517 E.01021
G1 X107.969 Y118.511 E.14463
G1 X107.687 Y118.511 E.01017
G1 X107.461 Y118.933 E.01728
G1 X107.461 Y122.105 E.11451
G1 E-3.5 F3600
;WIPE_START
G1 F900
G1 X107.461 Y121.105 E-1.5
;WIPE_END
G1 Z.6 F9000
G1 X115.836 Y116.336 Z.6
G1 Z.2
G1 E5 F2400
;TYPE:Inner wall
;WIDTH:0.499999
G1 F900
G1 X104.164 Y116.336 E.42142
G1 X104.164 Y103.664 E.45752
G1 X115.836 Y103.664 E.42142
G1 X115.836 Y116.296 E.45608
M73 P2 R15
G1 X116.293 Y116.793 F9000
G1 F900
G1 X103.707 Y116.793 E.45442
G1 X103.707 Y103.207 E.49053
G1 X116.293 Y103.207 E.45442
G1 X116.293 Y116.753 E.48909
G1 X116.75 Y117.25 F9000
;TYPE:Outer wall
G1 F900
G1 X103.25 Y117.25 E.48743
G1 X103.25 Y102.75 E.52354
G1 X116.75 Y102.75 E.48743
G1 X116.75 Y117.21 E.52209
G1 E-3.5 F3600
;WIPE_START
G1 F900
G1 X115.75 Y117.213 E-1.5
;WIPE_END
G1 Z.6 F9000
G1 X115.69 Y104.759 Z.6
G1 Z.2
G1 E5 F2400
;TYPE:Bottom surface
;WIDTH:0.511372
G1 F1200
G1 X114.947 Y104.016 E.03885
G1 X114.285 Y104.016 E.02452
G1 X115.484 Y105.215 E.06276
G1 X115.484 Y105.878 E.02452
G1 X113.622 Y104.016 E.09743
G1 X112.96 Y104.016 E.02452
G1 X115.484 Y106.54 E.1321
G1 X115.484 Y107.203 E.02452
G1 X112.297 Y104.016 E.16677
G1 X111.635 Y104.016 E.02452
G1 X115.484 Y107.865 E.20144
M73 P3 R15
G1 X115.484 Y108.528 E.02452
G1 X110.972 Y104.016 E.23611
G1 X110.31 Y104.016 E.02452
G1 X115.484 Y109.19 E.27077
G1 X115.484 Y109.853 E.02452
G1 X109.647 Y104.016 E.30544
G1 X108.985 Y104.016 E.02452
G1 X115.484 Y110.515 E.34011
G1 X115.484 Y111.178 E.02452
G1 X108.322 Y104.016 E.37478
G1 X107.66 Y104.016 E.02452
G1 X115.484 Y111.84 E.40945
G1 X115.484 Y112.503 E.02452
G1 X106.997 Y104.016 E.44412
G1 X106.335 Y104.016 E.02452
G1 X115.484 Y113.165 E.47879
G1 X115.484 Y113.828 E.02452
G1 X105.672 Y104.016 E.51346
G1 X105.01 Y104.016 E.02452
G1 X115.484 Y114.49 E.54813
G1 X115.484 Y115.153 E.02452
G1 X104.516 Y104.185 E.57397
G1 X104.516 Y104.847 E.02452
G1 X115.484 Y115.815 E.57397
G1 X115.484 Y115.984 E.00624
G1 X114.99 Y115.984 E.01827
G1 X104.516 Y105.51 E.54813
G1 X104.516 Y106.172 E.02452
G1 X114.328 Y115.984 E.51346
G1 X113.665 Y115.984 E.02452
G1 X104.516 Y106.835 E.47879
M73 P4 R15
G1 X104.516 Y107.497 E.02452
G1 X113.003 Y115.984 E.44412
G1 X112.34 Y115.984 E.02452
G1 X104.516 Y108.16 E.40945
G1 X104.516 Y108.822 E.02452
G1 X111.678 Y115.984 E.37478
G1 X111.015 Y115.984 E.02452
G1 X104.516 Y109.485 E.34011
G1 X104.516 Y110.147 E.02452
G1 X110.353 Y115.984 E.30544
G1 X109.69 Y115.984 E.02452
G1 X104.516 Y110.81 E.27077
G1 X104.516 Y111.472 E.02452
G1 X109.028 Y115.984 E.2361
G1 X108.365 Y115.984 E.02452
G1 X104.516 Y112.135 E.20143
G1 X104.516 Y112.797 E.02452
G1 X107.703 Y115.984 E.16676
G1 X107.04 Y115.984 E.02452
G1 X104.516 Y113.46 E.13209
G1 X104.516 Y114.122 E.02452
G1 X106.378 Y115.984 E.09742
G1 X105.715 Y115.984 E.02452
G1 X104.516 Y114.785 E.06275
G1 X104.516 Y115.447 E.02452
G1 X105.258 Y116.19 E.03885
; stop printing object CableHolder_v1-1.stl id:0 copy 0
;LAYER_CHANGE
;Z:0.4
;HEIGHT:0.2
;BEFORE_LAYER_CHANGE
;0.4
G92 E0

G1 E-3.5 F3600
;WIPE_START
G1 F1200
G1 X104.551 Y115.482 E-1.5
;WIPE_END
EXCLUDE_OBJECT_END NAME=CableHolder_v1-1.stl_id_0_copy_0
;_SET_FAN_SPEED_CHANGING_LAYER
M140 S80 ; set bed temperature
; printing object CableHolder_v1-1.stl id:0 copy 0
EXCLUDE_OBJECT_START NAME=CableHolder_v1-1.stl_id_0_copy_0
G1 Z.6 F9000
G1 X109.572 Y120.219 Z.6
G1 Z.4
G1 E5 F2400
;TYPE:Support
;WIDTH:0.4
G1 F8401.487
G1 X109.648 Y119.866 E.01017
G1 X109.771 Y119.627 E.00758
G1 X109.952 Y119.417 E.00782
G1 X110.176 Y119.254 E.00782
G1 X110.432 Y119.147 E.00782
G1 X110.717 Y119.101 E.00816
G1 X110.741 Y118.702 E.01128
G1 X110.993 Y118.717 E.00712
G1 X111.414 Y118.835 E.01235
G1 X111.728 Y119.019 E.01025
G1 X111.996 Y119.274 E.01045
G1 X112.199 Y119.584 E.01046
G1 X112.325 Y119.929 E.01034
G1 X112.368 Y120.3 E.01054
G1 X112.325 Y120.668 E.01045
G1 X112.199 Y121.016 E.01045
G1 X111.992 Y121.332 E.01066
G1 X111.729 Y121.581 E.0102
G1 X111.408 Y121.768 E.01048
G1 X111.054 Y121.877 E.01044
G1 X110.685 Y121.901 E.01044
G1 X110.32 Y121.84 E.01044
G1 X109.984 Y121.699 E.01028
G1 X109.636 Y121.435 E.01232
G1 X109.439 Y121.201 E.0086
G1 X109.267 Y120.87 E.01054
G1 X109.177 Y120.511 E.01044
G1 X109.171 Y120.145 E.01031
G1 X109.27 Y119.726 E.01216
G1 X109.438 Y119.402 E.0103
G1 X109.679 Y119.121 E.01044
G1 X109.978 Y118.904 E.01044
G1 X110.32 Y118.76 E.01044
G1 X110.687 Y118.699 E.01051
G1 X111.059 Y118.32 F9000
G1 F8401.487
G1 X111.572 Y118.464 E.01502
G1 X111.97 Y118.697 E.013
G1 X112.306 Y119.016 E.01307
G1 X112.559 Y119.404 E.01307
G1 X112.701 Y119.794 E.01169
G1 X112.77 Y120.3 E.01441
G1 X112.717 Y120.76 E.01307
G1 X112.559 Y121.196 E.01307
G1 X112.271 Y121.619 E.01445
G1 X111.97 Y121.903 E.01165
G1 X111.57 Y122.137 E.01308
G1 X111.127 Y122.273 E.01307
G1 X110.665 Y122.303 E.01307
G1 X110.208 Y122.227 E.01307
G1 X109.782 Y122.048 E.01301
G1 X109.358 Y121.727 E.01501
G1 X109.105 Y121.425 E.01112
G1 X108.891 Y121.013 E.0131
G1 X108.778 Y120.564 E.01306
G1 X108.77 Y120.102 E.01302
G1 X108.892 Y119.586 E.01496
G1 X109.104 Y119.176 E.01302
G1 X109.406 Y118.825 E.01306
G1 X109.781 Y118.553 E.01306
G1 X110.208 Y118.373 E.01307
G1 X110.665 Y118.297 E.01309
G1 X111.006 Y118.317 E.00962
G1 E-4.5715 F3600
;WIPE_START
G1 F8401.487
G1 X110.665 Y118.297 E-.14613
G1 X110.208 Y118.373 E-.19883
G1 X110.028 Y118.449 E-.08354
;WIPE_END
G1 Z.8 F9000
G1 X108.218 Y99.619 Z.8
G1 Z.4
G1 E5 F2400
G1 F8401.487
G1 X108.293 Y99.266 E.01017
G1 X108.417 Y99.027 E.00758
G1 X108.598 Y98.817 E.00782
G1 X108.822 Y98.654 E.00782
G1 X109.077 Y98.547 E.00782
G1 X109.363 Y98.501 E.00816
G1 X109.386 Y98.102 E.01128
G1 X109.639 Y98.117 E.00712
G1 X110.06 Y98.235 E.01235
G1 X110.374 Y98.419 E.01025
G1 X110.642 Y98.674 E.01045
G1 X110.845 Y98.984 E.01046
G1 X110.97 Y99.329 E.01034
G1 X111.014 Y99.7 E.01054
G1 X110.971 Y100.068 E.01045
G1 X110.845 Y100.416 E.01045
G1 X110.638 Y100.732 E.01066
G1 X110.375 Y100.981 E.0102
G1 X110.054 Y101.168 E.01048
G1 X109.7 Y101.277 E.01044
G1 X109.331 Y101.301 E.01044
G1 X108.966 Y101.24 E.01044
G1 X108.63 Y101.099 E.01028
G1 X108.281 Y100.835 E.01232
G1 X108.085 Y100.601 E.00861
G1 X107.913 Y100.27 E.01054
G1 X107.823 Y99.911 E.01044
G1 X107.817 Y99.545 E.01031
G1 X107.915 Y99.126 E.01216
G1 X108.084 Y98.802 E.0103
G1 X108.325 Y98.521 E.01044
G1 X108.624 Y98.304 E.01044
G1 X108.966 Y98.16 E.01044
G1 X109.333 Y98.099 E.01051
G1 X109.705 Y97.72 F9000
G1 F8401.487
G1 X110.218 Y97.864 E.01502
G1 X110.616 Y98.097 E.013
G1 X110.952 Y98.416 E.01307
G1 X111.205 Y98.804 E.01307
G1 X111.347 Y99.194 E.01169
G1 X111.416 Y99.7 E.01441
G1 X111.363 Y100.16 E.01307
G1 X111.205 Y100.596 E.01307
G1 X110.917 Y101.019 E.01445
G1 X110.616 Y101.303 E.01165
G1 X110.216 Y101.537 E.01308
G1 X109.773 Y101.673 E.01307
G1 X109.311 Y101.703 E.01307
G1 X108.854 Y101.627 E.01307
G1 X108.428 Y101.448 E.01301
G1 X108.004 Y101.127 E.01501
G1 X107.751 Y100.825 E.01112
G1 X107.537 Y100.413 E.0131
G1 X107.423 Y99.964 E.01306
G1 X107.416 Y99.502 E.01302
G1 X107.537 Y98.986 E.01496
G1 X107.75 Y98.576 E.01302
G1 X108.052 Y98.225 E.01306
G1 X108.427 Y97.953 E.01306
G1 X108.854 Y97.773 E.01307
G1 X109.311 Y97.697 E.01309
G1 X109.652 Y97.717 E.00962
G1 E-4.5715 F3600
;WIPE_START
G1 F8401.487
G1 X109.311 Y97.697 E-.14613
G1 X108.854 Y97.773 E-.19883
G1 X108.674 Y97.849 E-.08354
;WIPE_END
G1 Z.8 F9000
G1 X116.011 Y116.511 Z.8
G1 Z.4
G1 E5 F2400
;TYPE:Inner wall
;WIDTH:0.449999
G1 X103.989 Y116.511 E.38657
G1 X103.989 Y103.489 E.41873
M73 P5 R15
G1 X116.011 Y103.489 E.38657
G1 X116.011 Y116.471 E.41744
G1 X116.418 Y116.918 F9000
G1 F2400
G1 X103.582 Y116.918 E.41275
G1 X103.582 Y103.082 E.44491
G1 X116.418 Y103.082 E.41275
G1 X116.418 Y116.878 E.44362
G1 X116.8 Y117.3 F9000
;TYPE:Outer wall
;WIDTH:0.399999
G1 F1500
G1 X103.2 Y117.3 E.38361
G1 X103.2 Y102.7 E.41182
G1 X116.8 Y102.7 E.38361
G1 X116.8 Y117.26 E.41069
G1 X115.703 Y116.145 F9000
;TYPE:Internal solid infill
;WIDTH:0.38292
G1 F2400
G1 X115.639 Y116.181 E.00198
G1 X115.704 Y116.216 E.00198
G1 X115.099 Y116.383 F9000
;WIDTH:0.401551
G1 F2400
G1 X115.722 Y115.759 E.02499
G1 X115.722 Y115.252 E.01437
G1 X114.752 Y116.222 E.03887
G1 X114.245 Y116.222 E.01437
G1 X115.722 Y114.745 E.05919
G1 X115.722 Y114.238 E.01437
G1 X113.738 Y116.222 E.07951
G1 X113.231 Y116.222 E.01437
G1 X115.722 Y113.731 E.09983
G1 X115.722 Y113.224 E.01437
G1 X112.724 Y116.222 E.12015
G1 X112.216 Y116.222 E.01437
G1 X115.722 Y112.716 E.14047
G1 X115.722 Y112.209 E.01437
G1 X111.709 Y116.222 E.16078
G1 X111.202 Y116.222 E.01437
G1 X115.722 Y111.702 E.1811
G1 X115.722 Y111.195 E.01437
G1 X110.695 Y116.222 E.20142
G1 X110.188 Y116.222 E.01437
G1 X115.722 Y110.688 E.22174
G1 X115.722 Y110.18 E.01437
G1 X109.68 Y116.222 E.24206
G1 X109.173 Y116.222 E.01437
G1 X115.722 Y109.673 E.26238
G1 X115.722 Y109.166 E.01437
G1 X108.666 Y116.222 E.2827
G1 X108.159 Y116.222 E.01437
G1 X115.722 Y108.659 E.30302
G1 X115.722 Y108.152 E.01437
G1 X107.652 Y116.222 E.32334
G1 X107.145 Y116.222 E.01437
G1 X115.722 Y107.645 E.34366
G1 X115.722 Y107.137 E.01437
G1 X106.637 Y116.222 E.36398
G1 X106.13 Y116.222 E.01437
G1 X115.722 Y106.63 E.3843
M73 P6 R15
G1 X115.722 Y106.123 E.01437
G1 X105.623 Y116.222 E.40462
G1 X105.116 Y116.222 E.01437
G1 X115.722 Y105.616 E.42494
G1 X115.722 Y105.109 E.01437
G1 X104.609 Y116.222 E.44526
G1 X104.278 Y116.222 E.00938
G1 X104.278 Y116.046 E.00499
G1 X115.722 Y104.601 E.45852
G1 X115.722 Y104.094 E.01437
G1 X104.278 Y115.539 E.45852
G1 X104.278 Y115.032 E.01437
G1 X115.532 Y103.778 E.45089
G1 X115.025 Y103.778 E.01437
G1 X104.278 Y114.525 E.43057
G1 X104.278 Y114.018 E.01437
G1 X114.518 Y103.778 E.41025
G1 X114.01 Y103.778 E.01437
G1 X104.278 Y113.51 E.38993
G1 X104.278 Y113.003 E.01437
G1 X113.503 Y103.778 E.36961
G1 X112.996 Y103.778 E.01437
G1 X104.278 Y112.496 E.34929
G1 X104.278 Y111.989 E.01437
G1 X112.489 Y103.778 E.32897
G1 X111.982 Y103.778 E.01437
G1 X104.278 Y111.482 E.30865
G1 X104.278 Y110.974 E.01437
G1 X111.474 Y103.778 E.28833
G1 X110.967 Y103.778 E.01437
G1 X104.278 Y110.467 E.26801
G1 X104.278 Y109.96 E.01437
G1 X110.46 Y103.778 E.24769
G1 X109.953 Y103.778 E.01437
G1 X104.278 Y109.453 E.22737
G1 X104.278 Y108.946 E.01437
G1 X109.446 Y103.778 E.20705
G1 X108.939 Y103.778 E.01437
G1 X104.278 Y108.439 E.18673
G1 X104.278 Y107.931 E.01437
G1 X108.431 Y103.778 E.16641
G1 X107.924 Y103.778 E.01437
G1 X104.278 Y107.424 E.14609
G1 X104.278 Y106.917 E.01437
G1 X107.417 Y103.778 E.12577
G1 X106.91 Y103.778 E.01437
G1 X104.278 Y106.41 E.10546
G1 X104.278 Y105.903 E.01437
G1 X106.403 Y103.778 E.08514
G1 X105.895 Y103.778 E.01437
G1 X104.278 Y105.395 E.06482
G1 X104.278 Y104.888 E.01437
G1 X105.388 Y103.778 E.0445
G1 X104.881 Y103.778 E.01437
G1 X104.117 Y104.542 E.03061
G1 X115.744 Y103.909 F9000
;TYPE:Gap infill
;WIDTH:0.118551
G1 F1800
G1 X115.774 Y103.807 E.00064
G1 X115.751 Y103.693 E.0007
G1 X104.381 Y103.823 F9000
;TYPE:Internal solid infill
;WIDTH:0.38292
G1 F2400
G1 X104.317 Y103.86 E.00198
G1 X104.382 Y103.894 E.00198
; stop printing object CableHolder_v1-1.stl id:0 copy 0
;LAYER_CHANGE
;Z:0.6
;HEIGHT:0.2
;BEFORE_LAYER_CHANGE
;0.6
G92 E0

G1 E-4.7791 F3600
;WIPE_START
M73 P7 R15
G1 F2400
G1 X104.317 Y103.86 E-.11048
G1 X104.381 Y103.823 E-.11042
;WIPE_END
EXCLUDE_OBJECT_END NAME=CableHolder_v1-1.stl_id_0_copy_0
;_SET_FAN_SPEED_CHANGING_LAYER
; printing object CableHolder_v1-1.stl id:0 copy 0
