; HEADER_BLOCK_START
; generated by OrcaSlicer 2.0.0 on 2024-05-23 at 10:34:01
; total layer number: 58
; filament_density: 1.27
; filament_diameter: 1.75
; max_z_height: 11.60
; HEADER_BLOCK_END

; THUMBNAIL_BLOCK_START

;
; THUMBNAIL_BLOCK_END

; external perimeters extrusion width = 0.40mm
; perimeters extrusion width = 0.45mm
; infill extrusion width = 0.45mm
; solid infill extrusion width = 0.40mm
; top infill extrusion width = 0.40mm
; support material extrusion width = 0.40mm
; first layer extrusion width = 0.50mm

; EXECUTABLE_BLOCK_START
EXCLUDE_OBJECT_DEFINE NAME=CableHolder_v1-1.stl_id_0_copy_0 CENTER=110,110 POLYGON=[[104.214,103.8],[115.786,103.8],[115.786,116.2],[104.214,116.2],[104.214,103.8]]
M73 P0 R11
;TYPE:Custom
M117 ; clear display for KAMP meshing
START_PRINT BED_TEMP=80 EXTRUDER_TEMP=255
G90
G21
M83 ; use relative distances for extrusion
; filament start gcode
M106 S0
;LAYER_CHANGE
;Z:0.2
;HEIGHT:0.2
;BEFORE_LAYER_CHANGE
;0.2
G92 E0

G1 E-5 F3600
;_SET_FAN_SPEED_CHANGING_LAYER
SET_VELOCITY_LIMIT ACCEL=500 ACCEL_TO_DECEL=250
; printing object CableHolder_v1-1.stl id:0 copy 0
EXCLUDE_OBJECT_START NAME=CableHolder_v1-1.stl_id_0_copy_0
G1 Z.4 F9000
G1 X109.242 Y97.928
G1 Z.4
G1 Z.2
G1 E5 F2400
;TYPE:Support
;WIDTH:0.5
G1 F900
G1 X109.759 Y98.027 E.01899
G1 X110.559 Y98.39 E.03173
G1 X111.257 Y98.955 E.03242
G1 X111.788 Y99.679 E.03242
G1 X112.118 Y100.514 E.03242
G1 X112.225 Y101.406 E.03243
G1 X112.102 Y102.296 E.03244
G1 X111.764 Y103.111 E.03186
G1 X111.698 Y103.2 E.004
G1 X105.731 Y103.2 E.21544
G1 X105.413 Y102.544 E.02636
G1 X105.29 Y102.075 E.01751
G1 X105.226 Y101.633 E.01609
G1 X105.224 Y101.175 E.01656
G1 X105.275 Y100.746 E.0156
G1 X105.391 Y100.288 E.01705
G1 X105.547 Y99.898 E.01517
G1 X105.804 Y99.425 E.01942
G1 X106.332 Y98.808 E.02933
G1 X106.681 Y98.537 E.01594
G1 X107.139 Y98.245 E.01963
G1 X107.957 Y97.949 E.03139
G1 X108.824 Y97.872 E.03144
G1 X109.174 Y97.919 E.01276
G1 X111.524 Y102.995 F9000
G1 F900
G1 X111.524 Y100.129 E.10346
G1 X111.425 Y99.88 E.0097
G1 X111.016 Y99.322 E.02498
G1 X111.016 Y102.789 E.12519
G1 X110.508 Y102.789 E.01834
G1 X110.508 Y98.877 E.14124
G1 X110.342 Y98.743 E.00773
G1 X110 Y98.588 E.01354
G1 X110 Y102.789 E.15168
G1 X109.492 Y102.789 E.01834
G1 X109.492 Y98.395 E.15865
G1 X108.984 Y98.308 E.0186
G1 X108.984 Y102.789 E.16178
G1 X108.476 Y102.789 E.01834
G1 X108.476 Y98.316 E.16152
G1 X108.047 Y98.354 E.01558
G1 X107.969 Y98.382 E.00299
G1 X107.969 Y102.789 E.15911
G1 X107.461 Y102.789 E.01834
G1 X107.461 Y98.566 E.15248
G1 X107.322 Y98.616 E.00533
G1 X106.953 Y98.851 E.01581
G1 X106.953 Y102.789 E.14217
G1 X106.445 Y102.789 E.01834
G1 X106.445 Y99.309 E.12565
G1 X106.145 Y99.66 E.01666
G1 X105.937 Y100.042 E.01572
G1 X105.937 Y102.995 E.1066
M73 P1 R11
G1 E-3.5 F3600
;WIPE_START
G1 F900
G1 X105.937 Y101.995 E-1.5
;WIPE_END
G1 Z.6 F9000
G1 X113.87 Y116.945 Z.6
G1 Z.2
G1 E5 F2400
G1 F900
G1 X114.199 Y117.771 E.0321
G1 X114.317 Y118.668 E.03266
G1 X114.213 Y119.566 E.03264
G1 X113.895 Y120.403 E.03233
G1 X113.629 Y120.792 E.01701
G1 X113.368 Y121.158 E.01622
G1 X112.693 Y121.744 E.03229
G1 X111.903 Y122.143 E.03193
G1 X111.405 Y122.267 E.01853
G1 X110.977 Y122.35 E.01575
G1 X110.098 Y122.327 E.03175
G1 X109.256 Y122.091 E.03159
G1 X108.787 Y121.844 E.01914
G1 X108.405 Y121.599 E.01636
G1 X107.813 Y121.025 E.02977
G1 X107.517 Y120.592 E.01894
G1 X107.312 Y120.212 E.01559
G1 X107.148 Y119.776 E.01683
G1 X107.042 Y119.345 E.01602
G1 X106.99 Y118.895 E.01635
G1 X106.995 Y118.438 E.0165
G1 X107.054 Y117.963 E.01728
G1 X107.308 Y117.165 E.03024
G1 X107.534 Y116.8 E.01551
G1 X113.769 Y116.8 E.22512
G1 X113.831 Y116.889 E.00393
G1 X113.555 Y120.536 F9000
G1 F900
G1 X113.555 Y117.266 E.11806
G1 X113.533 Y117.211 E.00215
G1 X113.047 Y117.211 E.01754
G1 X113.047 Y120.892 E.1329
G1 X112.539 Y121.333 E.02428
G1 X112.539 Y117.211 E.14882
G1 X112.031 Y117.211 E.01834
G1 X112.031 Y121.618 E.15911
G1 X111.759 Y121.755 E.01101
G1 X111.524 Y121.814 E.00877
G1 X111.524 Y117.211 E.16619
G1 X111.016 Y117.211 E.01834
G1 X111.016 Y121.923 E.17015
G1 X110.943 Y121.937 E.00268
G1 X110.508 Y121.926 E.01571
G1 X110.508 Y117.211 E.17025
G1 X110 Y117.211 E.01834
G1 X110 Y121.872 E.1683
G1 X109.492 Y121.73 E.01904
G1 X109.492 Y117.211 E.16316
G1 X108.984 Y117.211 E.01834
G1 X108.984 Y121.482 E.1542
G1 X108.662 Y121.275 E.01382
G1 X108.476 Y121.095 E.00933
G1 X108.476 Y117.211 E.14024
G1 X107.969 Y117.211 E.01834
G1 X107.969 Y120.524 E.11962
G1 X107.869 Y120.378 E.00639
G1 X107.687 Y120.042 E.01379
G1 X107.542 Y119.654 E.01495
G1 X107.461 Y119.323 E.01231
G1 X107.461 Y117.365 E.07068
G1 E-3.5 F3600
;WIPE_START
M73 P2 R11
G1 F900
G1 X107.461 Y118.365 E-1.5
;WIPE_END
G1 Z.6 F9000
G1 X114.622 Y115.035 Z.6
G1 Z.2
G1 E5 F2400
;TYPE:Inner wall
;WIDTH:0.499999
G1 F900
G1 X105.378 Y115.035 E.33377
G1 X105.378 Y104.965 E.36361
G1 X114.622 Y104.965 E.33377
G1 X114.622 Y114.995 E.36217
M73 P2 R10
G1 X115.079 Y115.492 F9000
G1 F900
G1 X104.921 Y115.492 E.36677
G1 X104.921 Y104.508 E.39662
G1 X115.079 Y104.508 E.36677
G1 X115.079 Y115.452 E.39517
G1 X115.536 Y115.95 F9000
;TYPE:Outer wall
G1 F900
G1 X104.464 Y115.95 E.39978
M73 P3 R10
G1 X104.464 Y104.05 E.42963
G1 X115.536 Y104.05 E.39978
G1 X115.536 Y115.91 E.42818
G1 E-3.5 F3600
;WIPE_START
G1 F900
G1 X114.536 Y115.913 E-1.5
;WIPE_END
G1 Z.6 F9000
G1 X114.476 Y106.039 Z.6
G1 Z.2
G1 E5 F2400
;TYPE:Bottom surface
;WIDTH:0.501836
G1 F1200
G1 X113.754 Y105.317 E.03702
G1 X113.105 Y105.317 E.02353
G1 X114.27 Y106.482 E.05975
G1 X114.27 Y107.131 E.02353
G1 X112.456 Y105.317 E.09302
G1 X111.807 Y105.317 E.02353
G1 X114.27 Y107.78 E.1263
G1 X114.27 Y108.429 E.02353
G1 X111.158 Y105.317 E.15957
G1 X110.509 Y105.317 E.02353
G1 X114.27 Y109.078 E.19284
G1 X114.27 Y109.727 E.02353
G1 X109.86 Y105.317 E.22611
G1 X109.211 Y105.317 E.02353
G1 X114.27 Y110.376 E.25939
G1 X114.27 Y111.025 E.02353
G1 X108.562 Y105.317 E.29266
G1 X107.913 Y105.317 E.02353
G1 X114.27 Y111.674 E.32593
G1 X114.27 Y112.323 E.02353
G1 X107.264 Y105.317 E.3592
G1 X106.615 Y105.317 E.02353
G1 X114.27 Y112.972 E.39248
M73 P4 R10
G1 X114.27 Y113.621 E.02353
G1 X105.966 Y105.317 E.42575
G1 X105.73 Y105.317 E.00854
G1 X105.73 Y105.73 E.01498
G1 X114.27 Y114.27 E.43783
G1 X114.27 Y114.683 E.01498
G1 X114.034 Y114.683 E.00855
G1 X105.73 Y106.379 E.42574
G1 X105.73 Y107.028 E.02353
G1 X113.385 Y114.683 E.39247
G1 X112.736 Y114.683 E.02353
G1 X105.73 Y107.677 E.3592
G1 X105.73 Y108.326 E.02353
G1 X112.087 Y114.683 E.32592
G1 X111.438 Y114.683 E.02353
G1 X105.73 Y108.975 E.29265
G1 X105.73 Y109.624 E.02353
G1 X110.789 Y114.683 E.25938
G1 X110.14 Y114.683 E.02353
G1 X105.73 Y110.273 E.22611
G1 X105.73 Y110.922 E.02353
G1 X109.491 Y114.683 E.19283
G1 X108.842 Y114.683 E.02353
G1 X105.73 Y111.571 E.15956
G1 X105.73 Y112.22 E.02353
G1 X108.193 Y114.683 E.12629
G1 X107.544 Y114.683 E.02353
G1 X105.73 Y112.869 E.09302
G1 X105.73 Y113.518 E.02353
G1 X106.895 Y114.683 E.05975
G1 X106.246 Y114.683 E.02353
G1 X105.524 Y113.961 E.03702
; stop printing object CableHolder_v1-1.stl id:0 copy 0
;LAYER_CHANGE
;Z:0.4
;HEIGHT:0.2
;BEFORE_LAYER_CHANGE
;0.4
G92 E0

G1 E-3.5 F3600
;WIPE_START
G1 F1200
G1 X106.231 Y114.668 E-1.5
;WIPE_END
EXCLUDE_OBJECT_END NAME=CableHolder_v1-1.stl_id_0_copy_0
;_SET_FAN_SPEED_CHANGING_LAYER
M140 S80 ; set bed temperature
; printing object CableHolder_v1-1.stl id:0 copy 0
EXCLUDE_OBJECT_START NAME=CableHolder_v1-1.stl_id_0_copy_0
M73 P5 R10
G1 Z.6 F9000
G1 X109.843 Y119.017 Z.6
G1 Z.4
G1 E5 F2400
;TYPE:Support
;WIDTH:0.4
G1 F8401.487
G1 X109.782 Y118.763 E.00737
G1 X109.784 Y118.613 E.00424
G1 X109.852 Y118.349 E.00769
G1 X109.953 Y118.174 E.00568
G1 X110.1 Y118.022 E.00598
G1 X110.281 Y117.909 E.00601
G1 X110.48 Y117.845 E.00592
G1 X110.706 Y117.833 E.00637
G1 X110.78 Y117.44 E.01128
G1 X111.034 Y117.488 E.0073
G1 X111.314 Y117.618 E.00873
G1 X111.566 Y117.823 E.00914
G1 X111.736 Y118.054 E.0081
G1 X111.871 Y118.373 E.00979
G1 X111.913 Y118.682 E.00879
G1 X111.877 Y118.996 E.0089
G1 X111.761 Y119.297 E.00909
G1 X111.583 Y119.547 E.00868
G1 X111.341 Y119.753 E.00894
G1 X111.048 Y119.897 E.00923
G1 X110.753 Y119.957 E.00849
G1 X110.432 Y119.943 E.00906
G1 X110.111 Y119.845 E.00947
G1 X109.862 Y119.69 E.00827
G1 X109.634 Y119.457 E.0092
G1 X109.458 Y119.15 E.00997
G1 X109.382 Y118.805 E.00998
G1 X109.384 Y118.559 E.00691
G1 X109.479 Y118.196 E.01058
G1 X109.63 Y117.932 E.00858
G1 X109.846 Y117.708 E.00878
G1 X110.111 Y117.543 E.00881
G1 X110.407 Y117.449 E.00875
G1 X110.727 Y117.43 E.00904
G1 X111.157 Y117.104 F9000
G1 F8401.487
G1 X111.528 Y117.276 E.01155
G1 X111.857 Y117.544 E.01196
G1 X112.086 Y117.854 E.01088
G1 X112.261 Y118.267 E.01264
G1 X112.316 Y118.678 E.01171
G1 X112.268 Y119.092 E.01174
G1 X112.119 Y119.482 E.01178
G1 X112.076 Y119.544 E.00213
G1 X111.88 Y119.82 E.00955
G1 X111.563 Y120.09 E.01175
G1 X111.186 Y120.275 E.01185
G1 X111.083 Y120.3 E.00299
G1 X110.783 Y120.358 E.00862
G1 X110.364 Y120.34 E.01182
G1 X109.958 Y120.217 E.01197
G1 X109.864 Y120.167 E.00298
G1 X109.607 Y120.002 E.00862
G1 X109.312 Y119.7 E.01193
G1 X109.072 Y119.258 E.01419
G1 X108.981 Y118.846 E.01189
G1 X108.985 Y118.506 E.00959
G1 X109.105 Y118.044 E.01347
G1 X109.308 Y117.69 E.01149
G1 X109.593 Y117.395 E.01158
G1 X109.942 Y117.177 E.01161
G1 X110.333 Y117.052 E.01158
G1 X110.752 Y117.028 E.01185
G1 X111.104 Y117.094 E.01009
G1 E-4.5715 F3600
;WIPE_START
G1 F8401.487
G1 X110.752 Y117.028 E-.15332
G1 X110.333 Y117.052 E-.17996
G1 X110.122 Y117.12 E-.09521
;WIPE_END
G1 Z.8 F9000
G1 X107.62 Y101.368 Z.8
G1 Z.4
G1 E5 F2400
G1 F8401.487
G1 X107.646 Y101.104 E.0075
G1 X107.774 Y100.811 E.00902
G1 X107.959 Y100.579 E.00838
G1 X108.168 Y100.422 E.00735
G1 X108.454 Y100.31 E.00866
G1 X108.748 Y100.279 E.00835
G1 X108.801 Y99.883 E.01128
G1 X109.129 Y99.933 E.00936
G1 X109.491 Y100.09 E.01112
G1 X109.796 Y100.333 E.011
G1 X110.029 Y100.645 E.01099
G1 X110.173 Y101.007 E.01099
G1 X110.22 Y101.394 E.011
G1 X110.165 Y101.779 E.01096
G1 X109.995 Y102.164 E.01189
G1 X109.773 Y102.448 E.01014
G1 X109.462 Y102.684 E.01101
G1 X109.102 Y102.832 E.01098
G1 X108.717 Y102.882 E.01096
G1 X108.334 Y102.833 E.0109
G1 X107.96 Y102.679 E.01139
G1 X107.667 Y102.458 E.01035
G1 X107.429 Y102.16 E.01077
G1 X107.258 Y101.749 E.01256
G1 X107.212 Y101.432 E.00903
G1 X107.266 Y100.974 E.01299
G1 X107.428 Y100.602 E.01145
G1 X107.676 Y100.292 E.01121
G1 X107.986 Y100.063 E.01084
G1 X108.358 Y99.919 E.01126
G1 X108.748 Y99.875 E.01109
G1 E-4.5715 F3600
;WIPE_START
G1 F8401.487
G1 X108.358 Y99.919 E-.16849
G1 X107.986 Y100.063 E-.171
G1 X107.819 Y100.187 E-.089
;WIPE_END
G1 Z.8 F9000
G1 X114.797 Y115.21 Z.8
G1 Z.4
G1 E5 F2400
;TYPE:Inner wall
;WIDTH:0.449999
G1 X105.203 Y115.21 E.30851
G1 X105.203 Y104.79 E.33509
G1 X114.797 Y104.79 E.30851
G1 X114.797 Y115.17 E.33381
G1 X115.204 Y115.617 F9000
G1 F2400
G1 X104.796 Y115.617 E.33469
G1 X104.796 Y104.383 E.36127
G1 X115.204 Y104.383 E.33469
G1 X115.204 Y115.577 E.35999
G1 X115.586 Y116 F9000
;TYPE:Outer wall
;WIDTH:0.399999
G1 F1500
G1 X104.414 Y116 E.31514
G1 X104.414 Y104 E.33845
M73 P6 R10
G1 X115.586 Y104 E.31514
G1 X115.586 Y115.96 E.33732
G1 X114.483 Y114.838 F9000
;TYPE:Internal solid infill
;WIDTH:0.38292
G1 F2400
G1 X114.419 Y114.875 E.00198
G1 X114.484 Y114.909 E.00198
G1 X113.863 Y115.083 F9000
;WIDTH:0.401983
G1 F2400
G1 X114.509 Y114.437 E.02588
G1 X114.509 Y113.93 E.0144
G1 X113.516 Y114.922 E.03981
G1 X113.008 Y114.922 E.0144
G1 X114.509 Y113.422 E.06017
G1 X114.509 Y112.914 E.0144
G1 X112.501 Y114.922 E.08054
G1 X111.993 Y114.922 E.0144
G1 X114.509 Y112.406 E.10091
G1 X114.509 Y111.898 E.0144
G1 X111.485 Y114.922 E.12128
G1 X110.977 Y114.922 E.0144
G1 X114.509 Y111.391 E.14165
G1 X114.509 Y110.883 E.0144
G1 X110.469 Y114.922 E.16202
G1 X109.962 Y114.922 E.0144
G1 X114.509 Y110.375 E.18239
G1 X114.509 Y109.867 E.0144
G1 X109.454 Y114.922 E.20275
G1 X108.946 Y114.922 E.0144
G1 X114.509 Y109.359 E.22312
G1 X114.509 Y108.852 E.0144
G1 X108.438 Y114.922 E.24349
G1 X107.931 Y114.922 E.0144
G1 X114.509 Y108.344 E.26386
G1 X114.509 Y107.836 E.0144
G1 X107.423 Y114.922 E.28423
G1 X106.915 Y114.922 E.0144
G1 X114.509 Y107.328 E.3046
G1 X114.509 Y106.82 E.0144
G1 X106.407 Y114.922 E.32496
G1 X105.899 Y114.922 E.0144
G1 X114.509 Y106.313 E.34533
G1 X114.509 Y105.805 E.0144
G1 X105.491 Y114.822 E.3617
G1 X105.491 Y114.314 E.0144
G1 X114.509 Y105.297 E.3617
G1 X114.509 Y105.078 E.00621
G1 X114.22 Y105.078 E.00819
G1 X105.491 Y113.806 E.35011
M73 P7 R10
G1 X105.491 Y113.299 E.0144
G1 X113.712 Y105.078 E.32974
G1 X113.204 Y105.078 E.0144
G1 X105.491 Y112.791 E.30938
G1 X105.491 Y112.283 E.0144
G1 X112.696 Y105.078 E.28901
G1 X112.189 Y105.078 E.0144
G1 X105.491 Y111.775 E.26864
G1 X105.491 Y111.268 E.0144
G1 X111.681 Y105.078 E.24827
G1 X111.173 Y105.078 E.0144
G1 X105.491 Y110.76 E.2279
G1 X105.491 Y110.252 E.0144
G1 X110.665 Y105.078 E.20753
G1 X110.157 Y105.078 E.0144
G1 X105.491 Y109.744 E.18716
G1 X105.491 Y109.236 E.0144
G1 X109.65 Y105.078 E.1668
G1 X109.142 Y105.078 E.0144
G1 X105.491 Y108.729 E.14643
G1 X105.491 Y108.221 E.0144
G1 X108.634 Y105.078 E.12606
G1 X108.126 Y105.078 E.0144
G1 X105.491 Y107.713 E.10569
G1 X105.491 Y107.205 E.0144
G1 X107.619 Y105.078 E.08532
G1 X107.111 Y105.078 E.0144
G1 X105.491 Y106.697 E.06495
G1 X105.491 Y106.19 E.0144
G1 X106.603 Y105.078 E.04459
G1 X106.095 Y105.078 E.0144
G1 X105.331 Y105.843 E.03066
G1 X105.595 Y105.123 F9000
;WIDTH:0.38292
G1 F2400
G1 X105.531 Y105.16 E.00198
G1 X105.596 Y105.195 E.00198
; stop printing object CableHolder_v1-1.stl id:0 copy 0
;LAYER_CHANGE
;Z:0.6
;HEIGHT:0.2
;BEFORE_LAYER_CHANGE
;0.6
G92 E0

G1 E-4.7791 F3600
;WIPE_START
G1 F2400
G1 X105.531 Y105.16 E-.11048
G1 X105.595 Y105.123 E-.11042
;WIPE_END
EXCLUDE_OBJECT_END NAME=CableHolder_v1-1.stl_id_0_copy_0
;_SET_FAN_SPEED_CHANGING_LAYER
; printing object CableHolder_v1-1.stl id:0 copy 0
EXCLUDE_OBJECT_START NAME=CableHolder_v1-1.stl_id_0_copy_0
G1 Z.8 F9000
G1 X107.816 Y101.751 Z.8
G1 Z.6
G1 E5 F2400
;TYPE:Support
;WIDTH:0.4
G1 F8401.487
G1 X107.74 Y101.566 E.00563
G1 X107.706 Y101.321 E.00696
G1 X107.736 Y101.069 E.00718
G1 X107.804 Y100.889 E.00542
G1 X107.993 Y100.623 E.00921
G1 X108.184 Y100.471 E.00688
G1 X108.44 Y100.361 E.00787
G1 X108.717 Y100.325 E.00788
G1 X108.774 Y99.929 E.01128
G1 X109.11 Y99.979 E.00958
G1 X109.444 Y100.125 E.01027
G1 X109.738 Y100.363 E.01069
G1 X109.956 Y100.67 E.01062
G1 X110.082 Y101.023 E.01055
G1 X110.105 Y101.393 E.01048
G1 X110.002 Y101.806 E.01199
G1 X109.848 Y102.078 E.00883
G1 X109.591 Y102.344 E.01043
G1 X109.277 Y102.532 E.01033
G1 X108.94 Y102.632 E.0099
G1 X108.588 Y102.65 E.00994
G1 X108.252 Y102.587 E.00965
G1 X107.988 Y102.469 E.00817
G1 X107.683 Y102.239 E.01077
G1 X107.478 Y101.974 E.00944
G1 X107.351 Y101.669 E.00933
G1 X107.302 Y101.325 E.00978
G1 X107.345 Y100.973 E.01001
G1 X107.448 Y100.699 E.00825
G1 X107.7 Y100.345 E.01227
G1 X107.977 Y100.124 E.00998
G1 X108.333 Y99.971 E.01095
G1 X108.721 Y99.921 E.01103
G1 E-4.5715 F3600
;WIPE_START
G1 F8401.487
G1 X108.333 Y99.971 E-.16762
G1 X107.977 Y100.124 E-.16637
G1 X107.804 Y100.262 E-.09451
;WIPE_END
G1 Z1 F9000
G1 X110.113 Y119.312 Z1
G1 Z.6
G1 E5 F2400
G1 F8401.487
G1 X110.009 Y119.195 E.00442
G1 X109.906 Y119.003 E.00614
G1 X109.875 Y118.862 E.00408
G1 X109.877 Y118.677 E.00523
G1 X109.92 Y118.513 E.00478
G1 X109.97 Y118.421 E.00295
G1 X110.121 Y118.248 E.00647
G1 X110.252 Y118.16 E.00445
G1 X110.418 Y118.099 E.005
G1 X110.63 Y118.074 E.006
G1 X110.658 Y117.675 E.01128
G1 X110.885 Y117.698 E.00643
G1 X111.166 Y117.793 E.00838
G1 X111.403 Y117.946 E.00793
G1 X111.607 Y118.168 E.00853
G1 X111.746 Y118.433 E.00844
G1 X111.788 Y118.609 E.00509
G1 X111.803 Y118.697 E.00253
G1 X111.784 Y119 E.00855
G1 X111.689 Y119.279 E.00832
G1 X111.522 Y119.527 E.00842
G1 X111.295 Y119.725 E.00851
G1 X111.022 Y119.859 E.00858
G1 X110.722 Y119.919 E.00862
G1 X110.414 Y119.9 E.0087
G1 X110.127 Y119.805 E.00853
G1 X109.859 Y119.627 E.00908
G1 X109.678 Y119.426 E.00761
G1 X109.527 Y119.143 E.00906
G1 X109.475 Y118.904 E.0069
