; HEADER_BLOCK_START
; generated by OrcaSlicer 2.0.0 on 2024-05-21 at 19:39:08
; total layer number: 52
; filament_density: 1.27
; filament_diameter: 1.75
; max_z_height: 10.40
; HEADER_BLOCK_END

; THUMBNAIL_BLOCK_START

;
; THUMBNAIL_BLOCK_END

; external perimeters extrusion width = 0.40mm
; perimeters extrusion width = 0.45mm
; infill extrusion width = 0.45mm
; solid infill extrusion width = 0.40mm
; top infill extrusion width = 0.40mm
; support material extrusion width = 0.40mm
; first layer extrusion width = 0.50mm

; EXECUTABLE_BLOCK_START
EXCLUDE_OBJECT_DEFINE NAME=Roomba_Base_Station_Charge_Pad_Insert.stl_id_0_copy_0 CENTER=110,110 POLYGON=[[102.625,106.925],[116.775,106.325],[116.842,106.329],[116.909,106.34],[116.973,106.359],[117.035,106.384],[117.094,106.417],[117.149,106.456],[117.199,106.501],[117.244,106.551],[117.283,106.606],[117.316,106.665],[117.341,106.727],[117.36,106.791],[117.371,106.858],[117.375,106.925],[117.375,113.075],[117.371,113.142],[117.36,113.209],[117.341,113.273],[117.316,113.335],[117.283,113.394],[117.244,113.449],[117.199,113.499],[117.149,113.544],[117.094,113.583],[117.035,113.616],[116.973,113.641],[116.909,113.66],[116.842,113.671],[116.775,113.675],[102.625,113.075],[102.625,106.925]]
M73 P0 R9
;TYPE:Custom
M117 ; clear display for KAMP meshing
START_PRINT BED_TEMP=80 EXTRUDER_TEMP=255
G90
G21
M83 ; use relative distances for extrusion
; filament start gcode
M106 S0
;LAYER_CHANGE
;Z:0.2
;HEIGHT:0.2
;BEFORE_LAYER_CHANGE
;0.2
G92 E0

G1 E-5 F3600
;_SET_FAN_SPEED_CHANGING_LAYER
SET_VELOCITY_LIMIT ACCEL=500 ACCEL_TO_DECEL=250
; printing object Roomba_Base_Station_Charge_Pad_Insert.stl id:0 copy 0
EXCLUDE_OBJECT_START NAME=Roomba_Base_Station_Charge_Pad_Insert.stl_id_0_copy_0
M73 P0 R8
G1 Z.4 F9000
G1 X111.06 Y109.894
G1 Z.4
G1 Z.2
G1 E5 F2400
;TYPE:Support
;WIDTH:0.5
G1 F900
G1 X110.901 Y110.821 E.03398
G1 X110.814 Y110.975 E.00636
G1 X105.813 Y110.975 E.18059
G1 X105.683 Y110.597 E.01444
G1 X105.599 Y110.119 E.0175
G1 X105.599 Y109.678 E.01594
G1 X105.683 Y109.201 E.0175
G1 X105.743 Y109.025 E.00671
G1 X110.91 Y109.025 E.18657
G1 X111.049 Y109.826 E.02936
G1 X110.508 Y110.769 F9000
G1 F900
G1 X110.508 Y109.436 E.04813
G1 X110 Y109.436 E.01834
G1 X110 Y110.564 E.0407
G1 X109.492 Y110.564 E.01834
G1 X109.492 Y109.436 E.0407
G1 X108.984 Y109.436 E.01834
G1 X108.984 Y110.564 E.0407
G1 X108.476 Y110.564 E.01834
G1 X108.476 Y109.436 E.0407
G1 X107.969 Y109.436 E.01834
G1 X107.969 Y110.564 E.0407
G1 X107.461 Y110.564 E.01834
G1 X107.461 Y109.436 E.0407
G1 X106.953 Y109.436 E.01834
G1 X106.953 Y110.564 E.0407
G1 X106.445 Y110.564 E.01834
G1 X106.445 Y109.231 E.04813
G1 E-3.5 F3600
;WIPE_START
G1 F900
G1 X106.445 Y110.231 E-1.5
;WIPE_END
G1 Z.6 F9000
G1 X116.54 Y104.236 Z.6
G1 Z.2
G1 E5 F2400
G1 F900
G1 X117.004 Y104.341 E.01717
G1 X117.776 Y104.757 E.03166
G1 X118.41 Y105.409 E.03281
G1 X118.818 Y106.221 E.03283
G1 X118.964 Y107.118 E.03283
G1 X118.82 Y108.108 E.0361
G1 X118.921 Y108.311 E.00817
G1 X119.061 Y109.21 E.03287
G1 X118.924 Y110.103 E.03259
G1 X118.564 Y110.836 E.0295
G1 X118.85 Y111.422 E.02356
G1 X118.985 Y112.319 E.03276
G1 X118.845 Y113.216 E.03276
G1 X118.443 Y114.028 E.03275
G1 X117.815 Y114.683 E.03272
G1 X117.021 Y115.118 E.0327
M73 P1 R8
G1 X116.134 Y115.296 E.03266
G1 X115.235 Y115.201 E.03264
G1 X114.406 Y114.841 E.03263
G1 X113.756 Y114.279 E.03104
G1 X113.339 Y113.675 E.02649
G1 X114.524 Y113.675 E.04275
G1 X114.875 Y113.324 E.01795
G1 X114.875 Y112.226 E.03961
G1 X114.524 Y111.875 E.01795
G1 X114.275 Y111.875 E.00897
G1 X114.275 Y108.125 E.1354
G1 X114.524 Y108.125 E.00897
G1 X114.875 Y107.774 E.01795
G1 X114.875 Y106.676 E.03961
G1 X114.524 Y106.325 E.01795
G1 X113.127 Y106.325 E.05042
G1 X113.248 Y105.942 E.01449
G1 X113.687 Y105.221 E.03049
G1 X114.364 Y104.627 E.03251
G1 X115.188 Y104.26 E.03259
G1 X116.058 Y104.159 E.03161
G1 X116.473 Y104.225 E.01516
G1 X118.634 Y110.232 F9000
G1 F900
G1 X118.634 Y109.142 E.03935
G1 X118.524 Y108.437 E.02578
G1 X118.395 Y108.176 E.01051
G1 X118.548 Y107.122 E.03845
G1 X118.422 Y106.349 E.02826
G1 X118.126 Y105.76 E.02381
G1 X118.126 Y113.741 E.28816
G1 X118.102 Y113.789 E.00194
G1 X117.618 Y114.294 E.02524
G1 X117.618 Y105.185 E.32889
G1 X117.525 Y105.089 E.00481
G1 X117.11 Y104.866 E.01702
G1 X117.11 Y114.6 E.35147
G1 X116.879 Y114.727 E.00953
G1 X116.602 Y114.783 E.01018
G1 X116.602 Y104.672 E.36507
G1 X116.094 Y104.582 E.01862
G1 X116.094 Y114.878 E.37177
G1 X115.587 Y114.824 E.01844
G1 X115.587 Y104.628 E.36815
M73 P2 R8
G1 X115.298 Y104.661 E.01049
G1 X115.079 Y104.759 E.00866
G1 X115.079 Y106.298 E.05559
G1 X114.694 Y105.914 E.01965
G1 X114.571 Y105.914 E.00445
G1 X114.571 Y104.992 E.03327
G1 X114.063 Y105.439 E.02442
G1 X114.063 Y106.119 E.02457
G1 E-3.5 F3600
;WIPE_START
G1 F900
G1 X114.063 Y105.439 E-1.02071
G1 X114.303 Y105.228 E-.47929
;WIPE_END
G1 Z.6 F9000
G1 X115.079 Y114.909 Z.6
G1 Z.2
G1 E5 F2400
G1 F900
G1 X115.079 Y113.702 E.04358
G1 X114.694 Y114.086 E.01965
G1 X114.571 Y114.086 E.00445
G1 X114.571 Y114.688 E.02173
G1 X115.079 Y112.139 F9000
G1 F900
G1 X115.079 Y107.861 E.15448
G1 E-3.5 F3600
;WIPE_START
G1 F900
G1 X115.079 Y108.861 E-1.5
;WIPE_END
G1 Z.6 F9000
G1 X112.196 Y107.675 Z.6
G1 Z.2
G1 E5 F2400
;TYPE:Inner wall
;WIDTH:0.58584
G1 F900
G1 X112.464 Y107.651 E.01151
;WIDTH:0.53702
G1 X112.731 Y107.626 E.01047
;WIDTH:0.488199
G1 X112.998 Y107.602 E.00944
;WIDTH:0.439378
G1 X112.998 Y107.8 E.00621
;WIDTH:0.488199
G1 X112.974 Y108.001 E.00713
;WIDTH:0.53702
G1 X112.949 Y108.202 E.00791
;WIDTH:0.58584
G1 X112.925 Y108.404 E.00869
G1 X112.837 Y108.249 E.00763
;WIDTH:0.53702
G1 X112.748 Y108.095 E.00695
;WIDTH:0.488199
G1 X112.66 Y107.94 E.00626
G1 X112.505 Y107.852 E.00626
;WIDTH:0.53702
G1 X112.351 Y107.763 E.00695
;WIDTH:0.58584
G1 X112.231 Y107.695 E.00592
G1 X113.975 Y107.225 F9000
;TYPE:Outer wall
;WIDTH:0.604218
G1 F900
G1 X113.605 Y107.227 E.0164
G1 E-3.52017 F3600
;WIPE_START
G1 F900
G1 X113.975 Y107.225 E-1.47983
;WIPE_END
G1 Z.6 F9000
G1 X112.998 Y112.398 Z.6
G1 Z.2
G1 E5 F2400
;TYPE:Inner wall
;WIDTH:0.478754
G1 F900
G1 X112.829 Y112.379 E.00585
;WIDTH:0.51813
G1 X112.661 Y112.359 E.00638
;WIDTH:0.557506
G1 X112.492 Y112.339 E.00691
;WIDTH:0.596882
G1 X112.323 Y112.319 E.00743
G1 X112.407 Y112.255 E.00465
;WIDTH:0.557506
G1 X112.492 Y112.19 E.00432
;WIDTH:0.51813
G1 X112.576 Y112.125 E.00399
;WIDTH:0.478754
G1 X112.66 Y112.06 E.00366
G1 X112.725 Y111.976 E.00366
;WIDTH:0.518129
G1 X112.79 Y111.892 E.00399
;WIDTH:0.557505
G1 X112.855 Y111.807 E.00432
;WIDTH:0.59688
G1 X112.919 Y111.723 E.00465
G1 X112.939 Y111.892 E.00743
;WIDTH:0.557505
G1 X112.959 Y112.061 E.00691
;WIDTH:0.518129
G1 X112.979 Y112.229 E.00638
;WIDTH:0.478754
G1 X112.994 Y112.359 E.00447
G1 X113.654 Y112.775 F9000
;TYPE:Outer wall
;WIDTH:0.6
G1 F900
G1 X113.975 Y112.775 E.01415
G1 E-3.71416 F3600
;WIPE_START
G1 F900
G1 X113.654 Y112.775 E-1.28584
;WIPE_END
G1 Z.6 F9000
G1 X103.981 Y111.723 Z.6
G1 Z.2
G1 E5 F2400
;TYPE:Inner wall
;WIDTH:0.596884
G1 F900
G1 X104.045 Y111.807 E.00465
;WIDTH:0.557508
G1 X104.11 Y111.892 E.00432
;WIDTH:0.518131
G1 X104.175 Y111.976 E.00399
;WIDTH:0.478755
G1 X104.24 Y112.06 E.00366
;WIDTH:0.4882
G1 X104.395 Y112.148 E.00626
;WIDTH:0.537021
G1 X104.549 Y112.237 E.00695
;WIDTH:0.585842
G1 X104.704 Y112.325 E.00763
G1 X104.436 Y112.349 E.01151
;WIDTH:0.537021
G1 X104.169 Y112.374 E.01047
;WIDTH:0.4882
G1 X103.902 Y112.398 E.00944
;WIDTH:0.478755
G1 X103.921 Y112.229 E.00585
;WIDTH:0.518131
G1 X103.941 Y112.061 E.00638
;WIDTH:0.557508
G1 X103.961 Y111.892 E.00691
;WIDTH:0.596884
G1 X103.976 Y111.763 E.00568
G1 X102.925 Y112.775 F9000
;TYPE:Outer wall
;WIDTH:0.60422
G1 F900
G1 X103.295 Y112.773 E.0164
G1 E-3.52017 F3600
;WIPE_START
G1 F900
G1 X102.925 Y112.775 E-1.47983
;WIPE_END
G1 Z.6 F9000
G1 X104.185 Y108.037 Z.6
M73 P3 R8
G1 Z.2
G1 E5 F2400
;TYPE:Inner wall
;WIDTH:0.4882
G1 F900
G1 X104.152 Y108.095 E.00232
;WIDTH:0.537022
G1 X104.063 Y108.249 E.00695
;WIDTH:0.585844
G1 X103.975 Y108.404 E.00763
G1 X103.951 Y108.136 E.01151
;WIDTH:0.537022
G1 X103.926 Y107.869 E.01047
;WIDTH:0.4882
G1 X103.902 Y107.602 E.00944
;WIDTH:0.478754
G1 X104.071 Y107.621 E.00585
;WIDTH:0.518129
G1 X104.239 Y107.641 E.00638
;WIDTH:0.557505
G1 X104.408 Y107.661 E.00691
;WIDTH:0.59688
G1 X104.577 Y107.681 E.00743
G1 X104.493 Y107.745 E.00465
;WIDTH:0.557505
G1 X104.408 Y107.81 E.00432
;WIDTH:0.518129
G1 X104.324 Y107.875 E.00399
;WIDTH:0.478754
G1 X104.24 Y107.94 E.00366
;WIDTH:0.4882
G1 X104.204 Y108.003 E.00253
G1 X102.925 Y107.225 F9000
;TYPE:Outer wall
;WIDTH:0.599998
G1 F900
G1 X103.246 Y107.225 E.01415
G1 X104.542 Y108.242 F9000
;WIDTH:0.499999
G1 F900
G1 X104.704 Y108.175 E.00632
G1 X112.196 Y108.175 E.27054
G1 X112.358 Y108.242 E.00632
G1 X112.425 Y108.404 E.00632
G1 X112.425 Y111.596 E.11528
G1 X112.358 Y111.758 E.00632
G1 X112.196 Y111.825 E.00632
G1 X104.704 Y111.825 E.27054
G1 X104.542 Y111.758 E.00632
G1 X104.475 Y111.596 E.00632
G1 X104.475 Y108.404 E.11528
G1 X104.527 Y108.279 E.00487
G1 E-3.5 F3600
;WIPE_START
G1 F900
G1 X104.704 Y108.175 E-.30774
G1 X105.498 Y108.175 E-1.19226
;WIPE_END
G1 Z.6 F9000
G1 X113.654 Y112.775 Z.6
G1 Z.2
G1 E5 F2400
;WIDTH:0.6
G1 F900
G1 X113.468 Y112.792 E.0082
;WIDTH:0.566667
G1 X113.282 Y112.808 E.00771
;WIDTH:0.533333
G1 X113.096 Y112.825 E.00722
;WIDTH:0.499999
G1 X103.804 Y112.825 E.33553
;WIDTH:0.53474
G1 X103.634 Y112.808 E.00662
;WIDTH:0.56948
G1 X103.464 Y112.79 E.00709
;WIDTH:0.60422
G1 X103.295 Y112.773 E.00756
G1 X103.355 Y112.681 E.00488
;WIDTH:0.56948
G1 X103.415 Y112.589 E.00457
;WIDTH:0.53474
G1 X103.475 Y112.496 E.00427
;WIDTH:0.499999
G1 X103.475 Y107.504 E.18027
;WIDTH:0.549999
G1 X103.361 Y107.364 E.00722
;WIDTH:0.599998
G1 X103.246 Y107.225 E.00793
G1 X103.525 Y107.2 E.01231
;WIDTH:0.549999
G1 X103.804 Y107.175 E.0112
;WIDTH:0.499999
G1 X113.096 Y107.175 E.33553
;WIDTH:0.534739
G1 X113.266 Y107.192 E.00662
;WIDTH:0.569479
G1 X113.436 Y107.21 E.00709
;WIDTH:0.604218
G1 X113.605 Y107.227 E.00756
G1 X113.545 Y107.319 E.00488
;WIDTH:0.569479
G1 X113.485 Y107.411 E.00457
;WIDTH:0.534739
G1 X113.425 Y107.504 E.00427
;WIDTH:0.499999
G1 X113.425 Y112.496 E.18027
;WIDTH:0.533333
G1 X113.501 Y112.589 E.00465
;WIDTH:0.566667
G1 X113.577 Y112.682 E.00497
;WIDTH:0.6
G1 X113.628 Y112.744 E.00352
G1 X112.323 Y112.319 F9000
;TYPE:Inner wall
;WIDTH:0.596882
G1 F900
G1 X112.196 Y112.325 E.00556
;WIDTH:0.585842
G1 X104.704 Y112.325 E.32135
M73 P4 R8
G1 X103.981 Y111.723 F9000
;WIDTH:0.596884
G1 F900
G1 X103.975 Y111.596 E.00556
;WIDTH:0.585844
G1 X103.975 Y108.404 E.13694
G1 X104.577 Y107.681 F9000
;WIDTH:0.59688
G1 F900
G1 X104.704 Y107.675 E.00556
;WIDTH:0.58584
G1 X112.196 Y107.675 E.32135
G1 X112.925 Y108.404 F9000
G1 F900
G1 X112.925 Y111.596 E.13693
;WIDTH:0.59688
G1 X112.919 Y111.723 E.00556
; stop printing object Roomba_Base_Station_Charge_Pad_Insert.stl id:0 copy 0
;LAYER_CHANGE
;Z:0.4
;HEIGHT:0.2
;BEFORE_LAYER_CHANGE
;0.4
G92 E0

G1 E-3.5 F3600
;WIPE_START
G1 F900
G1 X112.925 Y111.596 E-.19043
G1 X112.925 Y110.723 E-1.30957
;WIPE_END
EXCLUDE_OBJECT_END NAME=Roomba_Base_Station_Charge_Pad_Insert.stl_id_0_copy_0
;_SET_FAN_SPEED_CHANGING_LAYER
M140 S80 ; set bed temperature
; printing object Roomba_Base_Station_Charge_Pad_Insert.stl id:0 copy 0
EXCLUDE_OBJECT_START NAME=Roomba_Base_Station_Charge_Pad_Insert.stl_id_0_copy_0
G1 Z.6 F9000
G1 X115.819 Y108.051 Z.6
G1 Z.4
G1 E5 F2400
;TYPE:Support
;WIDTH:0.4
G1 F3216
G1 X115.713 Y107.686 E.01072
G1 X115.504 Y107.446 E.00897
G1 X115.431 Y107.284 E.00501
G1 X115.412 Y107.112 E.00488
G1 X115.445 Y106.943 E.00488
G1 X115.528 Y106.791 E.00489
G1 X115.653 Y106.671 E.00489
G1 X115.809 Y106.594 E.0049
G1 X115.984 Y106.569 E.00498
G1 X116.039 Y106.172 E.01128
G1 X116.245 Y106.205 E.00589
G1 X116.55 Y106.352 E.00954
G1 X116.76 Y106.563 E.00841
G1 X116.898 Y106.831 E.00849
G1 X116.947 Y107.128 E.00849
G1 X116.903 Y107.425 E.00849
G1 X116.768 Y107.698 E.00857
G1 X116.698 Y107.775 E.00292
G1 X116.621 Y108.045 E.00794
G1 X116.751 Y108.535 E.01431
G1 X116.858 Y108.646 E.00434
G1 X116.995 Y108.916 E.00853
G1 X117.042 Y109.213 E.00849
G1 X116.996 Y109.51 E.00849
G1 X116.861 Y109.78 E.00849
G1 X116.629 Y110.016 E.00936
G1 X116.343 Y110.383 E.01311
G1 X116.309 Y110.629 E.00701
G1 X116.247 Y110.761 E.00412
G1 X116.22 Y111.011 E.00707
G1 X116.466 Y111.469 E.01467
G1 X116.582 Y111.535 E.00377
G1 X116.793 Y111.751 E.00853
G1 X116.927 Y112.02 E.00846
G1 X116.973 Y112.316 E.00846
G1 X116.926 Y112.609 E.00837
G1 X116.762 Y112.911 E.00969
G1 X116.58 Y113.093 E.00725
G1 X116.315 Y113.232 E.00846
G1 X116.02 Y113.284 E.00844
G1 X115.723 Y113.243 E.00843
G1 X115.454 Y113.114 E.00843
G1 X115.201 Y112.862 E.01007
G1 X115.092 Y112.651 E.00671
G1 X115.033 Y112.354 E.00853
G1 X115.067 Y112.055 E.00851
G1 X115.198 Y111.756 E.00919
G1 X115.009 Y111.234 E.01566
G1 X114.763 Y111.084 E.00813
G1 X114.564 Y110.857 E.00854
G1 X114.445 Y110.593 E.00815
G1 X114.409 Y110.306 E.00818
G1 X114.459 Y110.019 E.00821
G1 X114.6 Y109.747 E.00863
G1 X115.121 Y109.04 E.0248
G1 X115.156 Y108.892 E.00428
G1 X115.268 Y108.672 E.00696
G1 X115.506 Y108.413 E.00993
G1 X115.354 Y107.882 E.01558
G1 X115.164 Y107.664 E.00814
G1 X115.041 Y107.392 E.00843
G1 X115.007 Y107.097 E.00838
G1 X115.064 Y106.805 E.00838
G1 X115.206 Y106.544 E.00839
G1 X115.421 Y106.339 E.0084
G1 X115.689 Y106.208 E.00842
G1 X115.986 Y106.164 E.00845
G1 E-4.5715 F3600
;WIPE_START
G1 F8401.487
G1 X115.689 Y106.208 E-.12843
G1 X115.421 Y106.339 E-.12784
G1 X115.206 Y106.544 E-.1276
G1 X115.156 Y106.636 E-.04463
;WIPE_END
G1 Z.8 F9000
G1 X108.675 Y109.776 Z.8
G1 Z.4
G1 E5 F2400
G1 F3216
G1 X108.696 Y109.899 E.00352
G1 X108.676 Y110.023 E.00353
G1 X108.614 Y110.135 E.00361
G1 X108.52 Y110.22 E.00358
G1 X108.403 Y110.27 E.00358
G1 X108.277 Y110.278 E.00358
G1 X108.154 Y110.245 E.00357
G1 X108.05 Y110.173 E.00357
G1 X107.975 Y110.071 E.00357
G1 X107.935 Y109.94 E.00386
G1 X107.935 Y109.857 E.00235
G1 X107.975 Y109.726 E.00386
G1 X108.059 Y109.613 E.00398
G1 X108.147 Y109.555 E.00298
G1 X108.277 Y109.519 E.00378
G1 X108.289 Y109.119 E.01129
G1 X108.497 Y109.133 E.00587
G1 X108.738 Y109.235 E.00738
G1 X108.932 Y109.411 E.00739
G1 X109.058 Y109.64 E.00739
G1 X109.102 Y109.899 E.00739
G1 X109.064 Y110.126 E.00649
G1 X108.932 Y110.387 E.00824
G1 X108.738 Y110.562 E.00739
G1 X108.497 Y110.664 E.00738
G1 X108.236 Y110.682 E.00738
G1 X107.983 Y110.612 E.00738
G1 X107.768 Y110.464 E.00738
G1 X107.613 Y110.254 E.00737
G1 X107.535 Y110.001 E.00747
G1 X107.535 Y109.797 E.00576
G1 X107.613 Y109.544 E.00747
G1 X107.796 Y109.307 E.00845
G1 X107.981 Y109.186 E.00624
G1 X108.236 Y109.116 E.00745
G1 E-4.5715 F3600
;WIPE_START
G1 F8401.487
G1 X107.981 Y109.186 E-.11315
G1 X107.796 Y109.307 E-.0948
G1 X107.613 Y109.544 E-.12831
G1 X107.549 Y109.749 E-.09223
;WIPE_END
G1 Z.8 F9000
G1 X113.048 Y112.448 Z.8
G1 Z.4
G1 E5 F2400
;TYPE:Inner wall
;WIDTH:0.539378
G1 X112.599 Y112.469 E.01764
;WIDTH:0.497713
G1 X112.398 Y112.49 E.00727
;WIDTH:0.456047
G1 X112.196 Y112.511 E.0066
;WIDTH:0.414381
G1 X104.704 Y112.511 E.21986
;WIDTH:0.456047
G1 X104.42 Y112.49 E.00929
;WIDTH:0.497713
G1 X104.136 Y112.469 E.01023
;WIDTH:0.539378
G1 X103.852 Y112.448 E.01116
G1 X103.831 Y111.999 E.01764
;WIDTH:0.497713
G1 X103.81 Y111.798 E.00727
;WIDTH:0.456048
G1 X103.789 Y111.596 E.0066
;WIDTH:0.414382
G1 X103.789 Y108.404 E.09369
;WIDTH:0.456048
G1 X103.81 Y108.12 E.00929
;WIDTH:0.497713
G1 X103.831 Y107.836 E.01023
;WIDTH:0.539378
G1 X103.852 Y107.552 E.01116
G1 X104.301 Y107.531 E.01764
;WIDTH:0.497712
G1 X104.502 Y107.51 E.00727
;WIDTH:0.456046
G1 X104.704 Y107.489 E.0066
;WIDTH:0.41438
G1 X112.196 Y107.489 E.21986
;WIDTH:0.456046
M73 P5 R8
G1 X112.48 Y107.51 E.00929
;WIDTH:0.497712
G1 X112.764 Y107.531 E.01023
;WIDTH:0.539378
G1 X113.048 Y107.552 E.01116
G1 X113.069 Y108.001 E.01764
;WIDTH:0.497712
G1 X113.09 Y108.202 E.00727
;WIDTH:0.456046
G1 X113.111 Y108.404 E.0066
;WIDTH:0.41438
G1 X113.111 Y111.69 E.09643
;WIDTH:0.456046
G1 X113.09 Y111.943 E.00828
;WIDTH:0.497712
G1 X113.069 Y112.195 E.00911
;WIDTH:0.539378
