; HEADER_BLOCK_START
; generated by OrcaSlicer 2.0.0 on 2024-05-21 at 21:39:03
; total layer number: 105
; filament_density: 1.27
; filament_diameter: 1.75
; max_z_height: 21.00
; HEADER_BLOCK_END

; THUMBNAIL_BLOCK_START

;
; THUMBNAIL_BLOCK_END

; external perimeters extrusion width = 0.40mm
; perimeters extrusion width = 0.45mm
; infill extrusion width = 0.45mm
; solid infill extrusion width = 0.40mm
; top infill extrusion width = 0.40mm
; support material extrusion width = 0.40mm
; first layer extrusion width = 0.50mm

; EXECUTABLE_BLOCK_START
EXCLUDE_OBJECT_DEFINE NAME=Roomba_Caster.stl_id_0_copy_0 CENTER=110,110 POLYGON=[[86.934,110.635],[86.9453,109.24],[87.0411,107.849],[87.2211,106.466],[87.4845,105.096],[87.8305,103.745],[88.2577,102.417],[88.7646,101.118],[89.3493,99.8518],[89.9282,98.7698],[90.0097,98.6233],[90.649,97.5533],[90.7289,97.4284],[91.4432,96.3835],[91.5192,96.2792],[92.3078,95.2646],[92.3778,95.18],[93.2395,94.201],[93.3013,94.1349],[94.2347,93.1967],[94.2865,93.1477],[95.2899,92.2554],[95.3297,92.222],[96.4008,91.3807],[96.4271,91.3613],[97.5634,90.5759],[97.5747,90.5686],[98.7682,89.847],[98.7733,89.8441],[100.003,89.199],[100.026,89.188],[101.275,88.6271],[101.316,88.6102],[102.58,88.1333],[102.64,88.1127],[103.912,87.7195],[103.992,87.6975],[105.266,87.3872],[105.366,87.3661],[106.638,87.1376],[106.758,87.1198],[108.023,86.9717],[108.163,86.9596],[109.415,86.8899],[109.575,86.8859],[110.81,86.8927],[110.989,86.8992],[112.202,86.9801],[112.4,86.9994],[113.586,87.1516],[113.801,87.186],[114.957,87.4067],[115.189,87.4584],[116.311,87.7445],[116.557,87.8155],[117.641,88.1637],[117.9,88.256],[118.943,88.6627],[119.214,88.7782],[120.213,89.2397],[120.494,89.3802],[121.445,89.8927],[121.734,90.0597],[122.636,90.6191],[122.93,90.8141],[123.78,91.4164],[124.077,91.6406],[124.874,92.2815],[125.171,92.536],[125.914,93.2114],[126.209,93.4969],[126.895,94.2026],[127.185,94.5198],[127.814,95.2514],[128.096,95.6007],[128.668,96.354],[128.94,96.7356],[129.454,97.5064],[129.712,97.9202],[129.832,98.1202],[130.168,98.7042],[130.49,99.3042],[130.809,99.9432],[131.078,100.525],[131.373,101.219],[131.592,101.778],[131.859,102.526],[132.032,103.06],[132.265,103.86],[132.395,104.365],[132.589,105.217],[132.681,105.689],[132.83,106.591],[132.889,107.027],[132.987,107.976],[133.017,108.376],[133.061,109.369],[133.066,109.73],[133.049,110.764],[133.035,111.084],[132.954,112.155],[132.924,112.434],[132.774,113.538],[132.734,113.775],[132.51,114.908],[132.466,115.103],[132.164,116.259],[132.119,116.413],[131.737,117.587],[131.697,117.7],[131.23,118.886],[131.199,118.96],[130.645,120.152],[130.628,120.188],[129.985,121.381],[129.266,122.576],[128.476,123.725],[127.617,124.824],[126.693,125.869],[125.708,126.856],[124.665,127.782],[123.568,128.643],[122.42,129.435],[121.227,130.157],[119.992,130.805],[118.719,131.377],[117.415,131.871],[116.083,132.284],[114.729,132.617],[113.356,132.866],[111.972,133.032],[110.579,133.114],[109.185,133.111],[107.793,133.024],[106.409,132.852],[105.037,132.597],[103.684,132.259],[102.354,131.84],[101.052,131.341],[99.7819,130.764],[98.5495,130.111],[97.3589,129.385],[96.2145,128.588],[95.1206,127.722],[94.0811,126.793],[93.0999,125.801],[92.1806,124.753],[91.3265,123.65],[90.5408,122.498],[89.8265,121.3],[89.186,120.061],[88.6218,118.785],[88.136,117.478],[87.7302,116.144],[87.4062,114.787],[87.1649,113.413],[87.0073,112.028],[86.934,110.635]]
M73 P0 R69
;TYPE:Custom
M117 ; clear display for KAMP meshing
START_PRINT BED_TEMP=80 EXTRUDER_TEMP=255
G90
G21
M83 ; use relative distances for extrusion
; filament start gcode
M106 S0
;LAYER_CHANGE
;Z:0.2
;HEIGHT:0.2
;BEFORE_LAYER_CHANGE
;0.2
G92 E0

G1 E-5 F3600
;_SET_FAN_SPEED_CHANGING_LAYER
SET_VELOCITY_LIMIT ACCEL=500 ACCEL_TO_DECEL=250
; printing object Roomba_Caster.stl id:0 copy 0
EXCLUDE_OBJECT_START NAME=Roomba_Caster.stl_id_0_copy_0
G1 Z.4 F9000
G1 X121.18 Y94.498
G1 Z.4
G1 Z.2
G1 E5 F2400
;TYPE:Support
;WIDTH:0.5
G1 F900
G1 X121.631 Y94.984 E.02395
G1 X121.792 Y95.318 E.01337
G1 X121.719 Y95.259 E.00339
G1 X121.036 Y95.585 E.02732
G1 X121.036 Y98.169 E.09328
G1 X121.388 Y98.52 E.01795
G1 X121.572 Y98.52 E.00664
G1 X121.007 Y99.129 E.03001
G1 X120.211 Y99.589 E.03317
G1 X119.315 Y99.793 E.03317
G1 X118.399 Y99.724 E.03317
G1 X117.544 Y99.389 E.03317
G1 X116.826 Y98.816 E.03317
G1 X116.624 Y98.52 E.01293
G1 X117.23 Y98.52 E.02186
G1 X117.581 Y98.169 E.01795
G1 X117.581 Y95.62 E.09202
G1 X120.836 Y95.62 E.11751
G1 X121.102 Y94.783 E.03171
G1 X120.605 Y94.433 E.02193
G1 X120.063 Y94.09 E.02318
G1 X120.251 Y93.496 E.02247
G1 X121.133 Y94.448 E.04686
G1 X120.665 Y99.089 F9000
G1 F900
G1 X120.665 Y98.379 E.02562
G1 X120.625 Y98.339 E.00205
G1 X120.625 Y96.032 E.08332
G1 X120.157 Y96.032 E.01688
G1 X120.157 Y99.145 E.1124
G1 X120.059 Y99.201 E.0041
G1 X119.649 Y99.295 E.01517
G1 X119.649 Y96.032 E.11783
G1 X119.142 Y96.032 E.01834
G1 X119.142 Y99.368 E.12045
G1 X118.634 Y99.329 E.01839
G1 X118.634 Y96.032 E.11908
G1 X118.126 Y96.032 E.01834
G1 X118.126 Y99.175 E.1135
G1 X117.752 Y99.029 E.01448
G1 X117.618 Y98.921 E.00621
G1 X117.618 Y98.423 E.018
G1 E-3.5 F3600
;WIPE_START
G1 F900
G1 X117.618 Y98.921 E-.74765
G1 X117.752 Y99.029 E-.25791
G1 X118.059 Y99.149 E-.49444
;WIPE_END
G1 Z.6 F9000
G1 X115.331 Y104.057 Z.6
G1 Z.2
G1 E5 F2400
G1 F900
G1 X115.727 Y104.075 E.01433
G1 X116.658 Y104.288 E.03447
G1 X117.536 Y104.663 E.03447
G1 X118.333 Y105.189 E.03447
G1 X119.023 Y105.849 E.03447
G1 X119.583 Y106.621 E.03447
G1 X119.997 Y107.482 E.03447
G1 X120.251 Y108.402 E.03446
G1 X120.336 Y109.353 E.03446
G1 X120.25 Y110.303 E.03446
G1 X119.996 Y111.223 E.03446
G1 X119.582 Y112.083 E.03446
G1 X119.021 Y112.855 E.03445
G1 X118.331 Y113.514 E.03445
G1 X117.534 Y114.039 E.03445
G1 X116.657 Y114.414 E.03445
G1 X115.727 Y114.626 E.03445
G1 X114.774 Y114.669 E.03445
G1 X113.828 Y114.541 E.03445
G1 X112.921 Y114.246 E.03445
G1 X112.08 Y113.794 E.03445
G1 X111.334 Y113.2 E.03445
G1 X110.706 Y112.481 E.03445
G1 X110.216 Y111.662 E.03446
G1 X109.881 Y110.769 E.03446
G1 X109.71 Y109.83 E.03446
G1 X109.71 Y108.875 E.03446
G1 X109.88 Y107.936 E.03446
G1 X110.215 Y107.042 E.03447
G1 X110.704 Y106.223 E.03447
G1 X111.332 Y105.503 E.03447
G1 X112.079 Y104.908 E.03447
G1 X112.919 Y104.456 E.03447
G1 X113.827 Y104.16 E.03447
G1 X114.774 Y104.032 E.03447
G1 X115.262 Y104.054 E.01767
G1 X119.649 Y111.469 F9000
G1 F900
G1 X119.649 Y107.768 E.13363
G1 X119.611 Y107.627 E.00528
G1 X119.229 Y106.833 E.03179
G1 X119.142 Y106.713 E.00536
G1 X119.142 Y111.989 E.19048
G1 X118.71 Y112.583 E.02652
G1 X118.634 Y112.655 E.0038
G1 X118.634 Y106.046 E.23862
G1 X118.126 Y105.561 E.02538
G1 X118.126 Y113.141 E.27369
G1 X117.618 Y113.491 E.02228
G1 X117.618 Y105.21 E.299
G1 X117.34 Y105.027 E.01202
G1 X117.11 Y104.928 E.00903
G1 X117.11 Y113.773 E.31936
G1 X116.602 Y113.99 E.01994
G1 X116.602 Y104.711 E.33503
G1 X116.094 Y104.581 E.01893
G1 X116.094 Y114.121 E.34444
G1 X115.671 Y114.217 E.01566
G1 X115.587 Y114.221 E.00307
G1 X115.587 Y104.481 E.35169
G1 X115.079 Y104.458 E.01836
G1 X115.079 Y114.244 E.35333
G1 X114.792 Y114.257 E.01035
G1 X114.571 Y114.227 E.00807
G1 X114.571 Y104.475 E.3521
G1 X114.063 Y104.544 E.0185
G1 X114.063 Y114.158 E.34713
G1 X113.92 Y114.139 E.00521
G1 X113.555 Y114.02 E.01385
G1 X113.555 Y104.681 E.33718
G1 X113.082 Y104.835 E.01797
G1 X113.047 Y104.854 E.00142
G1 X113.047 Y113.847 E.32472
G1 X112.539 Y113.574 E.02082
G1 X112.539 Y105.127 E.30499
G1 X112.306 Y105.253 E.00956
G1 X112.031 Y105.472 E.01269
G1 X112.031 Y113.229 E.28009
G1 X111.62 Y112.901 E.01902
G1 X111.524 Y112.791 E.00526
G1 X111.524 Y105.91 E.24846
G1 X111.016 Y106.504 E.02821
G1 X111.016 Y112.197 E.20558
G1 X110.589 Y111.483 E.03006
G1 X110.508 Y111.268 E.00828
G1 X110.508 Y106.953 E.1558
G1 E-3.5 F3600
;WIPE_START
G1 F900
G1 X110.508 Y107.953 E-1.5
;WIPE_END
G1 Z.6 F9000
G1 X119.668 Y116.717 Z.6
G1 Z.2
G1 E5 F2400
G1 F900
G1 X120.173 Y116.784 E.01841
G1 X120.978 Y117.1 E.03121
G1 X121.688 Y117.631 E.03202
G1 X122.229 Y118.327 E.03182
G1 X122.402 Y118.735 E.01602
G1 X122.573 Y119.155 E.01637
G1 X122.684 Y120.03 E.03184
G1 X122.56 Y120.897 E.03163
G1 X122.203 Y121.72 E.03239
G1 X121.388 Y121.72 E.02944
G1 X121.036 Y122.072 E.01795
G1 X121.036 Y122.855 E.02828
G1 X120.953 Y122.915 E.0037
G1 X120.579 Y123.069 E.01463
G1 X120.083 Y123.244 E.01898
G1 X119.22 Y123.322 E.03127
G1 X118.397 Y123.176 E.0302
G1 X118.013 Y123.018 E.01499
G1 X117.581 Y122.798 E.01749
G1 X117.581 Y122.072 E.02624
G1 X117.23 Y121.72 E.01795
G1 X116.546 Y121.72 E.0247
G1 X116.427 Y121.547 E.00759
G1 X116.249 Y121.121 E.01667
G1 X116.121 Y120.685 E.01639
G1 X116.062 Y120.252 E.01579
G1 X116.057 Y119.811 E.01594
G1 X116.114 Y119.364 E.01626
G1 X116.225 Y118.949 E.01552
G1 X116.421 Y118.47 E.01867
G1 X116.868 Y117.817 E.0286
G1 X117.2 Y117.502 E.01651
G1 X117.615 Y117.182 E.01894
G1 X118.39 Y116.825 E.0308
G1 X119.237 Y116.687 E.03098
G1 X119.599 Y116.712 E.01312
G1 X122.189 Y121.248 F9000
G1 F900
G1 X122.189 Y119.393 E.06697
G1 X122.172 Y119.26 E.00482
G1 X121.871 Y118.537 E.0283
G1 X121.681 Y118.292 E.01121
G1 X121.681 Y121.309 E.10894
G1 X121.217 Y121.309 E.01674
G1 X121.173 Y121.353 E.00226
G1 X121.173 Y117.76 E.12975
G1 X120.776 Y117.463 E.0179
G1 X120.665 Y117.419 E.0043
G1 X120.665 Y121.861 E.16037
G1 X120.625 Y121.901 E.00205
G1 X120.625 Y122.605 E.02542
G1 X120.157 Y122.781 E.01804
G1 X120.157 Y117.22 E.20081
G1 X120.07 Y117.185 E.0034
G1 X119.649 Y117.13 E.0153
G1 X119.649 Y122.87 E.20727
G1 X119.238 Y122.908 E.01492
G1 X119.142 Y122.891 E.00353
G1 X119.142 Y117.119 E.20839
G1 X118.634 Y117.202 E.01858
G1 X118.634 Y122.801 E.20213
G1 X118.512 Y122.779 E.00445
G1 X118.126 Y122.614 E.01517
G1 X118.126 Y117.4 E.18827
G1 X117.83 Y117.536 E.01177
G1 X117.618 Y117.699 E.00965
G1 X117.618 Y121.526 E.13818
G1 X117.4 Y121.309 E.01112
G1 X117.11 Y121.309 E.01048
G1 X117.11 Y118.191 E.11256
G1 X116.785 Y118.667 E.02079
G1 X116.602 Y119.131 E.01801
G1 X116.602 Y121.433 E.08311
G1 E-3.5 F3600
;WIPE_START
G1 F900
G1 X116.602 Y120.433 E-1.5
;WIPE_END
G1 Z.6 F9000
G1 X130.848 Y111.974 Z.6
G1 Z.2
G1 E5 F2400
G1 F900
G1 X131.412 Y111.999 E.02038
G1 X132.343 Y112.211 E.03446
G1 X133.22 Y112.587 E.03446
G1 X134.017 Y113.112 E.03446
G1 X134.707 Y113.772 E.03446
G1 X135.268 Y114.544 E.03446
G1 X135.682 Y115.404 E.03446
G1 X135.936 Y116.324 E.03446
G1 X136.021 Y117.275 E.03446
G1 X135.936 Y118.225 E.03446
G1 X135.682 Y119.145 E.03446
G1 X135.268 Y120.005 E.03446
G1 X134.707 Y120.777 E.03446
G1 X134.017 Y121.437 E.03446
G1 X133.22 Y121.963 E.03446
G1 X132.343 Y122.338 E.03446
G1 X131.412 Y122.55 E.03446
G1 X130.459 Y122.593 E.03446
G1 X129.513 Y122.465 E.03446
G1 X128.605 Y122.17 E.03446
G1 X127.765 Y121.718 E.03446
G1 X127.018 Y121.123 E.03446
G1 X126.39 Y120.404 E.03446
G1 X125.901 Y119.585 E.03446
G1 X125.566 Y118.691 E.03446
G1 X125.395 Y117.752 E.03446
G1 X125.395 Y116.797 E.03446
G1 X125.566 Y115.858 E.03446
G1 X125.901 Y114.965 E.03446
G1 X126.39 Y114.145 E.03446
G1 X127.018 Y113.427 E.03446
G1 X127.765 Y112.832 E.03446
G1 X128.605 Y112.379 E.03446
G1 X129.513 Y112.084 E.03446
G1 X130.459 Y111.956 E.03446
G1 X130.78 Y111.971 E.01161
G1 X135.393 Y119.271 F9000
G1 F900
G1 X135.393 Y115.904 E.12154
G1 X135.295 Y115.549 E.01331
G1 X134.885 Y114.718 E.03347
G1 X134.885 Y119.832 E.18465
G1 X134.378 Y120.523 E.03097
G1 X134.378 Y114.026 E.23457
G1 X133.87 Y113.541 E.02537
G1 X133.87 Y121.009 E.26964
G1 X133.759 Y121.114 E.00551
G1 X133.362 Y121.377 E.0172
G1 X133.362 Y113.173 E.2962
G1 X133.025 Y112.95 E.01459
G1 X132.854 Y112.877 E.0067
G1 X132.854 Y121.672 E.31755
G1 X132.346 Y121.889 E.01994
G1 X132.346 Y112.66 E.33322
G1 X132.215 Y112.604 E.00515
G1 X131.838 Y112.518 E.01396
G1 X131.838 Y122.031 E.34348
G1 X131.33 Y122.142 E.01877
G1 X131.33 Y112.407 E.3515
M73 P0 R68
G1 X130.823 Y112.384 E.01836
G1 X130.823 Y122.165 E.35314
G1 X130.477 Y122.181 E.01248
G1 X130.315 Y122.159 E.00592
G1 X130.315 Y112.391 E.35267
G1 X129.807 Y112.46 E.0185
G1 X129.807 Y122.09 E.34771
G1 X129.605 Y122.062 E.00736
G1 X129.299 Y121.963 E.01161
G1 X129.299 Y112.586 E.33855
G1 X128.791 Y112.751 E.01928
G1 X128.791 Y121.798 E.32664
G1 X128.767 Y121.79 E.0009
G1 X128.283 Y121.53 E.01986
G1 X128.283 Y113.02 E.30727
G1 X127.992 Y113.176 E.01193
G1 X127.775 Y113.349 E.01002
G1 X127.775 Y121.2 E.28347
G1 X127.267 Y120.783 E.02374
G1 X127.267 Y113.767 E.25331
G1 X126.76 Y114.348 E.02787
G1 X126.76 Y120.201 E.21133
G1 X126.252 Y119.349 E.03583
G1 X126.252 Y114.779 E.165
G1 E-3.5 F3600
;WIPE_START
G1 F900
G1 X126.252 Y115.779 E-1.5
;WIPE_END
G1 Z.6 F9000
G1 X130.815 Y99.683 Z.6
G1 Z.2
G1 E5 F2400
G1 F900
G1 X131.378 Y99.708 E.02036
G1 X132.309 Y99.921 E.03446
G1 X133.186 Y100.296 E.03446
G1 X133.983 Y100.822 E.03446
G1 X134.673 Y101.481 E.03446
G1 X135.234 Y102.254 E.03446
G1 X135.648 Y103.114 E.03446
G1 X135.902 Y104.034 E.03446
G1 X135.987 Y104.984 E.03446
G1 X135.902 Y105.935 E.03446
G1 X135.648 Y106.855 E.03446
G1 X135.234 Y107.715 E.03446
G1 X134.673 Y108.487 E.03446
G1 X133.983 Y109.147 E.03446
G1 X133.186 Y109.672 E.03446
G1 X132.309 Y110.047 E.03446
G1 X131.378 Y110.26 E.03446
G1 X130.425 Y110.303 E.03446
G1 X129.479 Y110.174 E.03446
G1 X128.571 Y109.88 E.03446
M73 P1 R68
G1 X127.731 Y109.427 E.03446
G1 X126.984 Y108.832 E.03446
G1 X126.357 Y108.113 E.03446
G1 X125.867 Y107.294 E.03446
G1 X125.532 Y106.401 E.03446
G1 X125.361 Y105.461 E.03446
G1 X125.361 Y104.507 E.03446
G1 X125.531 Y103.568 E.03446
G1 X125.867 Y102.674 E.03446
G1 X126.356 Y101.855 E.03446
G1 X126.984 Y101.136 E.03446
G1 X127.731 Y100.541 E.03446
G1 X128.571 Y100.089 E.03446
G1 X129.479 Y99.794 E.03446
G1 X130.425 Y99.666 E.03446
G1 X130.746 Y99.68 E.01163
G1 X135.393 Y106.909 F9000
G1 F900
G1 X135.393 Y103.737 E.11454
G1 X135.261 Y103.259 E.01792
G1 X134.885 Y102.478 E.03128
G1 X134.885 Y107.49 E.18096
G1 X134.378 Y108.193 E.03132
G1 X134.378 Y101.775 E.23175
G1 X133.87 Y101.283 E.02554
G1 X133.87 Y108.686 E.26729
G1 X133.725 Y108.824 E.00721
G1 X133.362 Y109.064 E.01572
G1 X133.362 Y100.905 E.29458
G1 X132.991 Y100.66 E.01606
G1 X132.854 Y100.601 E.00537
G1 X132.854 Y109.367 E.3165
G1 X132.346 Y109.584 E.01994
G1 X132.346 Y100.384 E.33217
G1 X132.181 Y100.314 E.00648
G1 X131.838 Y100.235 E.0127
G1 X131.838 Y109.733 E.34292
G1 X131.33 Y109.849 E.01881
G1 X131.33 Y100.119 E.35129
G1 X130.823 Y100.095 E.01836
G1 X130.823 Y109.873 E.35303
G1 X130.443 Y109.89 E.01371
G1 X130.315 Y109.873 E.00468
G1 X130.315 Y100.096 E.35301
G1 X129.807 Y100.164 E.0185
G1 X129.807 Y109.804 E.34804
G1 X129.571 Y109.772 E.0086
G1 X129.299 Y109.683 E.01032
G1 X129.299 Y100.285 E.33935
G1 X128.791 Y100.45 E.01928
G1 X128.791 Y109.518 E.32744
G1 X128.733 Y109.5 E.00219
G1 X128.283 Y109.257 E.01846
G1 X128.283 Y100.711 E.30859
G1 X127.958 Y100.886 E.01333
G1 X127.775 Y101.031 E.00844
G1 X127.775 Y108.937 E.28543
G1 X127.267 Y108.531 E.02347
G1 X127.267 Y101.437 E.25612
G1 X126.76 Y102.019 E.02787
G1 X126.76 Y107.95 E.21414
G1 X126.691 Y107.871 E.00378
G1 X126.252 Y107.136 E.0309
G1 X126.252 Y102.431 E.16988
G1 E-3.5 F3600
;WIPE_START
G1 F900
G1 X126.252 Y103.431 E-1.5
;WIPE_END
G1 Z.6 F9000
G1 X123.194 Y121.535 Z.6
G1 Z.2
G1 E5 F2400
;TYPE:Brim
G1 F900
G1 X123.44 Y121.576 E.00901
G1 X123.618 Y121.662 E.00713
G1 X123.804 Y121.81 E.00859
G1 X123.926 Y121.999 E.00812
G1 X123.98 Y122.223 E.00831
G1 X123.969 Y122.439 E.00782
G1 X123.908 Y122.671 E.00864
G1 X123.777 Y122.866 E.00848
G1 X123.216 Y123.436 E.02887
G1 X122.726 Y123.895 E.02426
G1 X122.165 Y124.381 E.02678
G1 X121.952 Y124.511 E.00901
G1 X121.761 Y124.562 E.00714
G1 X121.524 Y124.572 E.00859
G1 X121.316 Y124.511 E.0078
G1 X121.04 Y124.281 E.013
G1 X120.885 Y124.003 E.01146
G1 X120.851 Y123.782 E.0081
G1 X120.851 Y123.45 E.01198
G1 X121.139 Y123.333 E.01124
G1 X121.308 Y123.222 E.0073
G1 X121.308 Y123.799 E.02085
G1 X121.353 Y123.935 E.00517
G1 X121.423 Y124.031 E.00429
G1 X121.506 Y124.1 E.00391
G1 X121.654 Y124.119 E.00538
G1 X121.749 Y124.098 E.0035
G1 X121.851 Y124.048 E.00413
G1 X122.427 Y123.549 E.02748
G1 X122.911 Y123.096 E.02395
