; HEADER_BLOCK_START
; generated by OrcaSlicer 2.0.0 on 2024-05-23 at 10:01:32
; total layer number: 5
; filament_density: 1.27
; filament_diameter: 1.75
; max_z_height: 1.00
; HEADER_BLOCK_END

; THUMBNAIL_BLOCK_START

;
; THUMBNAIL_BLOCK_END

; external perimeters extrusion width = 0.40mm
; perimeters extrusion width = 0.45mm
; infill extrusion width = 0.45mm
; solid infill extrusion width = 0.40mm
; top infill extrusion width = 0.40mm
; support material extrusion width = 0.40mm
; first layer extrusion width = 0.50mm

; EXECUTABLE_BLOCK_START
EXCLUDE_OBJECT_DEFINE NAME=square-BodyPad.stl_id_0_copy_0 CENTER=110,110 POLYGON=[[103,101],[117,101],[117,119],[103,119],[103,101]]
M73 P0 R2
;TYPE:Custom
M117 ; clear display for KAMP meshing
START_PRINT BED_TEMP=80 EXTRUDER_TEMP=255
G90
G21
M83 ; use relative distances for extrusion
; filament start gcode
M106 S0
;LAYER_CHANGE
;Z:0.2
;HEIGHT:0.2
;BEFORE_LAYER_CHANGE
;0.2
G92 E0

G1 E-5 F3600
;_SET_FAN_SPEED_CHANGING_LAYER
SET_VELOCITY_LIMIT ACCEL=500 ACCEL_TO_DECEL=250
; printing object square-BodyPad.stl id:0 copy 0
EXCLUDE_OBJECT_START NAME=square-BodyPad.stl_id_0_copy_0
G1 Z.4 F9000
G1 X115.836 Y117.836
M73 P1 R2
G1 Z.4
G1 Z.2
G1 E5 F2400
;TYPE:Inner wall
;WIDTH:0.499999
G1 F900
G1 X104.164 Y117.836 E.42142
G1 X104.164 Y102.164 E.56584
M73 P2 R2
G1 X115.836 Y102.164 E.42142
M73 P3 R2
G1 X115.836 Y117.796 E.5644
M73 P4 R2
G1 X116.293 Y118.293 F9000
G1 F900
G1 X103.707 Y118.293 E.45442
G1 X103.707 Y101.707 E.59885
M73 P5 R2
G1 X116.293 Y101.707 E.45442
M73 P6 R2
G1 X116.293 Y118.253 E.5974
G1 X116.75 Y118.75 F9000
;TYPE:Outer wall
M73 P7 R2
G1 F900
G1 X103.25 Y118.75 E.48743
G1 X103.25 Y101.25 E.63185
M73 P8 R2
G1 X116.75 Y101.25 E.48743
M73 P9 R2
G1 X116.75 Y118.71 E.63041
M73 P10 R2
G1 E-3.5 F3600
;WIPE_START
G1 F900
G1 X115.75 Y118.713 E-1.5
;WIPE_END
G1 Z.6 F9000
G1 X115.69 Y103.247 Z.6
G1 Z.2
G1 E5 F2400
;TYPE:Bottom surface
;WIDTH:0.505984
G1 F1200
G1 X114.959 Y102.516 E.03781
G1 X114.304 Y102.516 E.02395
G1 X115.484 Y103.696 E.06105
G1 X115.484 Y104.351 E.02395
G1 X113.649 Y102.516 E.09493
G1 X112.994 Y102.516 E.02395
M73 P11 R2
G1 X115.484 Y105.006 E.1288
M73 P11 R1
G1 X115.484 Y105.661 E.02395
G1 X112.339 Y102.516 E.16268
G1 X111.684 Y102.516 E.02395
G1 X115.484 Y106.316 E.19656
G1 X115.484 Y106.971 E.02395
G1 X111.029 Y102.516 E.23043
G1 X110.374 Y102.516 E.02395
G1 X115.484 Y107.626 E.26431
M73 P12 R1
G1 X115.484 Y108.28 E.02395
G1 X109.72 Y102.516 E.29819
G1 X109.065 Y102.516 E.02395
G1 X115.484 Y108.935 E.33206
G1 X115.484 Y109.59 E.02395
G1 X108.41 Y102.516 E.36594
M73 P13 R1
G1 X107.755 Y102.516 E.02395
G1 X115.484 Y110.245 E.39982
G1 X115.484 Y110.9 E.02395
G1 X107.1 Y102.516 E.43369
M73 P14 R1
G1 X106.445 Y102.516 E.02395
G1 X115.484 Y111.555 E.46757
G1 X115.484 Y112.21 E.02395
G1 X105.79 Y102.516 E.50145
M73 P15 R1
G1 X105.136 Y102.516 E.02395
G1 X115.484 Y112.864 E.53532
G1 X115.484 Y113.519 E.02395
G1 X104.516 Y102.552 E.56737
M73 P16 R1
G1 X104.516 Y103.206 E.02395
G1 X115.484 Y114.174 E.56737
M73 P17 R1
G1 X115.484 Y114.829 E.02395
G1 X104.516 Y103.861 E.56737
G1 X104.516 Y104.516 E.02395
G1 X115.484 Y115.484 E.56737
M73 P18 R1
G1 X115.484 Y116.139 E.02395
G1 X104.516 Y105.171 E.56737
M73 P19 R1
G1 X104.516 Y105.826 E.02395
G1 X115.484 Y116.794 E.56737
G1 X115.484 Y117.449 E.02395
G1 X104.516 Y106.481 E.56737
M73 P20 R1
G1 X104.516 Y107.136 E.02395
G1 X114.864 Y117.484 E.53532
G1 X114.209 Y117.484 E.02395
G1 X104.516 Y107.791 E.50144
M73 P21 R1
G1 X104.516 Y108.445 E.02395
G1 X113.555 Y117.484 E.46756
G1 X112.9 Y117.484 E.02395
G1 X104.516 Y109.1 E.43369
M73 P22 R1
G1 X104.516 Y109.755 E.02395
G1 X112.245 Y117.484 E.39981
G1 X111.59 Y117.484 E.02395
G1 X104.516 Y110.41 E.36593
M73 P23 R1
G1 X104.516 Y111.065 E.02395
G1 X110.935 Y117.484 E.33206
G1 X110.28 Y117.484 E.02395
G1 X104.516 Y111.72 E.29818
G1 X104.516 Y112.375 E.02395
G1 X109.625 Y117.484 E.2643
M73 P24 R1
G1 X108.97 Y117.484 E.02395
G1 X104.516 Y113.03 E.23043
G1 X104.516 Y113.684 E.02395
G1 X108.316 Y117.484 E.19655
G1 X107.661 Y117.484 E.02395
G1 X104.516 Y114.339 E.16267
G1 X104.516 Y114.994 E.02395
M73 P25 R1
G1 X107.006 Y117.484 E.1288
G1 X106.351 Y117.484 E.02395
G1 X104.516 Y115.649 E.09492
G1 X104.516 Y116.304 E.02395
G1 X105.696 Y117.484 E.06104
G1 X105.041 Y117.484 E.02395
G1 X104.31 Y116.753 E.03781
; stop printing object square-BodyPad.stl id:0 copy 0
;LAYER_CHANGE
;Z:0.4
;HEIGHT:0.2
;BEFORE_LAYER_CHANGE
;0.4
G92 E0

G1 E-3.5 F3600
;WIPE_START
G1 F1200
G1 X105.018 Y117.46 E-1.5
;WIPE_END
EXCLUDE_OBJECT_END NAME=square-BodyPad.stl_id_0_copy_0
;_SET_FAN_SPEED_CHANGING_LAYER
M140 S80 ; set bed temperature
; printing object square-BodyPad.stl id:0 copy 0
EXCLUDE_OBJECT_START NAME=square-BodyPad.stl_id_0_copy_0
G1 Z.6 F9000
G1 X116.011 Y118.011 Z.6
G1 Z.4
G1 E5 F2400
;TYPE:Inner wall
;WIDTH:0.449999
G1 X103.989 Y118.011 E.38657
M73 P26 R1
G1 X103.989 Y101.989 E.5152
G1 X116.011 Y101.989 E.38657
G1 X116.011 Y117.971 E.51391
M73 P27 R1
G1 X116.418 Y118.418 F9000
G1 F2400
G1 X103.582 Y118.418 E.41275
G1 X103.582 Y101.582 E.54138
G1 X116.418 Y101.582 E.41275
M73 P28 R1
G1 X116.418 Y118.378 E.54009
G1 X116.8 Y118.8 F9000
;TYPE:Outer wall
;WIDTH:0.399999
G1 F1500
G1 X103.2 Y118.8 E.38361
G1 X103.2 Y101.2 E.49644
M73 P29 R1
G1 X116.8 Y101.2 E.38361
G1 X116.8 Y118.76 E.49531
M73 P30 R1
G1 X115.157 Y117.883 F9000
;TYPE:Internal solid infill
;WIDTH:0.401766
G1 F2400
G1 X115.722 Y117.318 E.02265
G1 X115.722 Y116.811 E.01439
G1 X114.811 Y117.722 E.03655
G1 X114.303 Y117.722 E.01439
G1 X115.722 Y116.303 E.05689
G1 X115.722 Y115.796 E.01439
G1 X113.796 Y117.722 E.07724
G1 X113.288 Y117.722 E.01439
G1 X115.722 Y115.288 E.09758
G1 X115.722 Y114.781 E.01439
G1 X112.781 Y117.722 E.11792
M73 P31 R1
G1 X112.273 Y117.722 E.01439
G1 X115.722 Y114.273 E.13827
G1 X115.722 Y113.766 E.01439
G1 X111.766 Y117.722 E.15861
G1 X111.258 Y117.722 E.01439
G1 X115.722 Y113.258 E.17896
G1 X115.722 Y112.751 E.01439
G1 X110.751 Y117.722 E.1993
G1 X110.243 Y117.722 E.01439
G1 X115.722 Y112.243 E.21964
G1 X115.722 Y111.736 E.01439
M73 P32 R1
G1 X109.736 Y117.722 E.23999
G1 X109.228 Y117.722 E.01439
G1 X115.722 Y111.228 E.26033
G1 X115.722 Y110.721 E.01439
G1 X108.721 Y117.722 E.28067
G1 X108.213 Y117.722 E.01439
G1 X115.722 Y110.213 E.30102
G1 X115.722 Y109.706 E.01439
G1 X107.706 Y117.722 E.32136
M73 P33 R1
G1 X107.198 Y117.722 E.01439
G1 X115.722 Y109.198 E.34171
G1 X115.722 Y108.691 E.01439
G1 X106.691 Y117.722 E.36205
G1 X106.183 Y117.722 E.01439
G1 X115.722 Y108.183 E.38239
M73 P34 R1
G1 X115.722 Y107.676 E.01439
G1 X105.676 Y117.722 E.40274
G1 X105.168 Y117.722 E.01439
G1 X115.722 Y107.168 E.42308
G1 X115.722 Y106.661 E.01439
G1 X104.661 Y117.722 E.44343
M73 P35 R1
G1 X104.278 Y117.722 E.01087
G1 X104.278 Y117.598 E.00352
G1 X115.722 Y106.154 E.45879
G1 X115.722 Y105.646 E.01439
G1 X104.278 Y117.091 E.45879
G1 X104.278 Y116.583 E.01439
G1 X115.722 Y105.139 E.45879
M73 P36 R1
G1 X115.722 Y104.631 E.01439
G1 X104.278 Y116.076 E.45879
G1 X104.278 Y115.568 E.01439
G1 X115.722 Y104.124 E.45879
G1 X115.722 Y103.616 E.01439
G1 X104.278 Y115.061 E.45879
M73 P37 R1
G1 X104.278 Y114.553 E.01439
G1 X115.722 Y103.109 E.45879
G1 X115.722 Y102.601 E.01439
G1 X104.278 Y114.046 E.45879
M73 P38 R1
G1 X104.278 Y113.538 E.01439
G1 X115.538 Y102.278 E.45142
G1 X115.031 Y102.278 E.01439
G1 X104.278 Y113.031 E.43108
G1 X104.278 Y112.523 E.01439
G1 X114.523 Y102.278 E.41073
M73 P39 R1
G1 X114.016 Y102.278 E.01439
G1 X104.278 Y112.016 E.39039
G1 X104.278 Y111.508 E.01439
G1 X113.508 Y102.278 E.37004
G1 X113.001 Y102.278 E.01439
G1 X104.278 Y111.001 E.3497
G1 X104.278 Y110.494 E.01439
G1 X112.494 Y102.278 E.32936
M73 P40 R1
G1 X111.986 Y102.278 E.01439
G1 X104.278 Y109.986 E.30901
G1 X104.278 Y109.479 E.01439
G1 X111.479 Y102.278 E.28867
G1 X110.971 Y102.278 E.01439
G1 X104.278 Y108.971 E.26832
G1 X104.278 Y108.464 E.01439
M73 P41 R1
G1 X110.464 Y102.278 E.24798
G1 X109.956 Y102.278 E.01439
G1 X104.278 Y107.956 E.22764
G1 X104.278 Y107.449 E.01439
G1 X109.449 Y102.278 E.20729
G1 X108.941 Y102.278 E.01439
G1 X104.278 Y106.941 E.18695
G1 X104.278 Y106.434 E.01439
G1 X108.434 Y102.278 E.16661
G1 X107.926 Y102.278 E.01439
M73 P42 R1
G1 X104.278 Y105.926 E.14626
G1 X104.278 Y105.419 E.01439
G1 X107.419 Y102.278 E.12592
G1 X106.911 Y102.278 E.01439
G1 X104.278 Y104.911 E.10557
G1 X104.278 Y104.404 E.01439
G1 X106.404 Y102.278 E.08523
G1 X105.896 Y102.278 E.01439
G1 X104.278 Y103.896 E.06489
G1 X104.278 Y103.389 E.01439
G1 X105.389 Y102.278 E.04454
G1 X104.881 Y102.278 E.01439
G1 X104.117 Y103.042 E.03064
G1 X115.744 Y102.416 F9000
;TYPE:Gap infill
;WIDTH:0.114511
G1 F1800
G1 X115.778 Y102.308 E.00064
G1 X115.755 Y102.193 E.00067
M73 P43 R1
G1 X104.381 Y102.323 F9000
;TYPE:Internal solid infill
;WIDTH:0.38292
G1 F2400
G1 X104.317 Y102.36 E.00198
G1 X104.382 Y102.394 E.00198
; stop printing object square-BodyPad.stl id:0 copy 0
;LAYER_CHANGE
;Z:0.6
;HEIGHT:0.2
;BEFORE_LAYER_CHANGE
;0.6
G92 E0

G1 E-4.7791 F3600
;WIPE_START
G1 F2400
G1 X104.317 Y102.36 E-.11048
G1 X104.381 Y102.323 E-.11042
;WIPE_END
EXCLUDE_OBJECT_END NAME=square-BodyPad.stl_id_0_copy_0
;_SET_FAN_SPEED_CHANGING_LAYER
; printing object square-BodyPad.stl id:0 copy 0
EXCLUDE_OBJECT_START NAME=square-BodyPad.stl_id_0_copy_0
G1 Z.8 F9000
G1 X116.011 Y118.011 Z.8
G1 Z.6
G1 E5 F2400
;TYPE:Inner wall
;WIDTH:0.449999
G1 X103.989 Y118.011 E.38657
M73 P44 R1
G1 X103.989 Y101.989 E.5152
G1 X116.011 Y101.989 E.38657
G1 X116.011 Y117.971 E.51391
M73 P45 R1
G1 X116.418 Y118.418 F9000
G1 F2400
G1 X103.582 Y118.418 E.41275
G1 X103.582 Y101.582 E.54138
G1 X116.418 Y101.582 E.41275
G1 X116.418 Y118.378 E.54009
M73 P46 R1
G1 X116.8 Y118.8 F9000
;TYPE:Outer wall
;WIDTH:0.399999
G1 F1500
G1 X103.2 Y118.8 E.38361
G1 X103.2 Y101.2 E.49644
M73 P47 R1
G1 X116.8 Y101.2 E.38361
G1 X116.8 Y118.76 E.49531
M73 P48 R1
G1 E-3.5 F3600
;WIPE_START
G1 F1500
G1 X115.8 Y118.763 E-1.5
;WIPE_END
G1 Z1 F9000
G1 X104.381 Y117.603 Z1
G1 Z.6
G1 E5 F2400
;TYPE:Internal solid infill
;WIDTH:0.38292
G1 X104.317 Y117.64 E.00198
G1 X104.382 Y117.675 E.00198
G1 X115.883 Y102.843 F9000
;WIDTH:0.401766
M73 P49 R1
G1 F2400
G1 X115.318 Y102.278 E.02265
G1 X114.811 Y102.278 E.01439
G1 X115.722 Y103.189 E.03655
G1 X115.722 Y103.697 E.01439
G1 X114.303 Y102.278 E.05689
G1 X113.796 Y102.278 E.01439
G1 X115.722 Y104.204 E.07724
G1 X115.722 Y104.712 E.01439
G1 X113.288 Y102.278 E.09758
G1 X112.781 Y102.278 E.01439
G1 X115.722 Y105.219 E.11792
G1 X115.722 Y105.727 E.01439
G1 X112.273 Y102.278 E.13827
G1 X111.766 Y102.278 E.01439
G1 X115.722 Y106.234 E.15861
G1 X115.722 Y106.742 E.01439
G1 X111.258 Y102.278 E.17896
M73 P50 R1
G1 X110.751 Y102.278 E.01439
G1 X115.722 Y107.249 E.1993
G1 X115.722 Y107.757 E.01439
G1 X110.243 Y102.278 E.21964
G1 X109.736 Y102.278 E.01439
G1 X115.722 Y108.264 E.23999
G1 X115.722 Y108.772 E.01439
G1 X109.228 Y102.278 E.26033
G1 X108.721 Y102.278 E.01439
M73 P51 R1
G1 X115.722 Y109.279 E.28067
G1 X115.722 Y109.787 E.01439
G1 X108.213 Y102.278 E.30102
G1 X107.706 Y102.278 E.01439
G1 X115.722 Y110.294 E.32136
G1 X115.722 Y110.802 E.01439
G1 X107.198 Y102.278 E.34171
M73 P52 R1
G1 X106.691 Y102.278 E.01439
G1 X115.722 Y111.309 E.36205
G1 X115.722 Y111.817 E.01439
G1 X106.183 Y102.278 E.38239
G1 X105.676 Y102.278 E.01439
G1 X115.722 Y112.324 E.40274
G1 X115.722 Y112.832 E.01439
M73 P53 R1
G1 X105.168 Y102.278 E.42308
G1 X104.661 Y102.278 E.01439
G1 X115.722 Y113.339 E.44343
G1 X115.722 Y113.846 E.01439
G1 X104.278 Y102.402 E.45879
M73 P54 R1
G1 X104.278 Y102.909 E.01439
G1 X115.722 Y114.354 E.45879
G1 X115.722 Y114.861 E.01439
G1 X104.278 Y103.417 E.45879
G1 X104.278 Y103.924 E.01439
G1 X115.722 Y115.369 E.45879
M73 P55 R1
G1 X115.722 Y115.876 E.01439
G1 X104.278 Y104.432 E.45879
G1 X104.278 Y104.939 E.01439
G1 X115.722 Y116.384 E.45879
M73 P55 R0
G1 X115.722 Y116.891 E.01439
G1 X104.278 Y105.447 E.45879
M73 P56 R0
G1 X104.278 Y105.954 E.01439
G1 X115.722 Y117.399 E.45879
G1 X115.722 Y117.722 E.00917
G1 X115.538 Y117.722 E.00522
G1 X104.278 Y106.462 E.45142
G1 X104.278 Y106.969 E.01439
G1 X115.031 Y117.722 E.43108
M73 P57 R0
G1 X114.523 Y117.722 E.01439
G1 X104.278 Y107.477 E.41073
G1 X104.278 Y107.984 E.01439
G1 X114.016 Y117.722 E.39039
G1 X113.508 Y117.722 E.01439
G1 X104.278 Y108.492 E.37004
M73 P58 R0
G1 X104.278 Y108.999 E.01439
G1 X113.001 Y117.722 E.3497
G1 X112.494 Y117.722 E.01439
G1 X104.278 Y109.506 E.32936
G1 X104.278 Y110.014 E.01439
G1 X111.986 Y117.722 E.30901
M73 P59 R0
G1 X111.479 Y117.722 E.01439
G1 X104.278 Y110.521 E.28867
G1 X104.278 Y111.029 E.01439
G1 X110.971 Y117.722 E.26832
G1 X110.464 Y117.722 E.01439
G1 X104.278 Y111.536 E.24798
G1 X104.278 Y112.044 E.01439
G1 X109.956 Y117.722 E.22764
G1 X109.449 Y117.722 E.01439
M73 P60 R0
G1 X104.278 Y112.551 E.20729
G1 X104.278 Y113.059 E.01439
G1 X108.941 Y117.722 E.18695
G1 X108.434 Y117.722 E.01439
G1 X104.278 Y113.566 E.16661
G1 X104.278 Y114.074 E.01439
G1 X107.926 Y117.722 E.14626
G1 X107.419 Y117.722 E.01439
G1 X104.278 Y114.581 E.12592
G1 X104.278 Y115.089 E.01439
G1 X106.911 Y117.722 E.10557
G1 X106.404 Y117.722 E.01439
G1 X104.278 Y115.596 E.08523
M73 P61 R0
G1 X104.278 Y116.104 E.01439
G1 X105.896 Y117.722 E.06489
G1 X105.389 Y117.722 E.01439
G1 X104.278 Y116.611 E.04454
G1 X104.278 Y117.119 E.01439
G1 X105.042 Y117.883 E.03064
; stop printing object square-BodyPad.stl id:0 copy 0
M106 S163
;LAYER_CHANGE
;Z:0.8
;HEIGHT:0.2
;BEFORE_LAYER_CHANGE
;0.8
G92 E0

G1 E-3.5 F3600
;WIPE_START
G1 F2400
G1 X104.335 Y117.176 E-1.5
;WIPE_END
EXCLUDE_OBJECT_END NAME=square-BodyPad.stl_id_0_copy_0
;_SET_FAN_SPEED_CHANGING_LAYER
; printing object square-BodyPad.stl id:0 copy 0
EXCLUDE_OBJECT_START NAME=square-BodyPad.stl_id_0_copy_0
G1 Z1 F9000
G1 X116.011 Y118.011 Z1
G1 Z.8
G1 E5 F2400
;TYPE:Inner wall
;WIDTH:0.449999
G1 X103.989 Y118.011 E.38657
M73 P62 R0
G1 X103.989 Y101.989 E.5152
G1 X116.011 Y101.989 E.38657
G1 X116.011 Y117.971 E.51391
M73 P63 R0
G1 X116.418 Y118.418 F9000
G1 F2400
G1 X103.582 Y118.418 E.41275
G1 X103.582 Y101.582 E.54138
G1 X116.418 Y101.582 E.41275
M73 P64 R0
G1 X116.418 Y118.378 E.54009
G1 X116.8 Y118.8 F9000
;TYPE:Outer wall
;WIDTH:0.399999
G1 F1500
G1 X103.2 Y118.8 E.38361
G1 X103.2 Y101.2 E.49644
M73 P65 R0
G1 X116.8 Y101.2 E.38361
G1 X116.8 Y118.76 E.49531
M73 P66 R0
G1 X115.157 Y117.883 F9000
;TYPE:Internal solid infill
;WIDTH:0.401766
G1 F2400
G1 X115.722 Y117.318 E.02265
G1 X115.722 Y116.811 E.01439
G1 X114.811 Y117.722 E.03655
G1 X114.303 Y117.722 E.01439
G1 X115.722 Y116.303 E.05689
G1 X115.722 Y115.796 E.01439
G1 X113.796 Y117.722 E.07724
G1 X113.288 Y117.722 E.01439
G1 X115.722 Y115.288 E.09758
G1 X115.722 Y114.781 E.01439
G1 X112.781 Y117.722 E.11792
G1 X112.273 Y117.722 E.01439
M73 P67 R0
G1 X115.722 Y114.273 E.13827
G1 X115.722 Y113.766 E.01439
G1 X111.766 Y117.722 E.15861
G1 X111.258 Y117.722 E.01439
G1 X115.722 Y113.258 E.17896
G1 X115.722 Y112.751 E.01439
G1 X110.751 Y117.722 E.1993
G1 X110.243 Y117.722 E.01439
G1 X115.722 Y112.243 E.21964
G1 X115.722 Y111.736 E.01439
G1 X109.736 Y117.722 E.23999
M73 P68 R0
G1 X109.228 Y117.722 E.01439
G1 X115.722 Y111.228 E.26033
G1 X115.722 Y110.721 E.01439
G1 X108.721 Y117.722 E.28067
G1 X108.213 Y117.722 E.01439
G1 X115.722 Y110.213 E.30102
G1 X115.722 Y109.706 E.01439
G1 X107.706 Y117.722 E.32136
M73 P69 R0
G1 X107.198 Y117.722 E.01439
G1 X115.722 Y109.198 E.34171
G1 X115.722 Y108.691 E.01439
G1 X106.691 Y117.722 E.36205
G1 X106.183 Y117.722 E.01439
G1 X115.722 Y108.183 E.38239
G1 X115.722 Y107.676 E.01439
M73 P70 R0
G1 X105.676 Y117.722 E.40274
G1 X105.168 Y117.722 E.01439
G1 X115.722 Y107.168 E.42308
G1 X115.722 Y106.661 E.01439
G1 X104.661 Y117.722 E.44343
M73 P71 R0
G1 X104.278 Y117.722 E.01087
G1 X104.278 Y117.598 E.00352
G1 X115.722 Y106.154 E.45879
G1 X115.722 Y105.646 E.01439
G1 X104.278 Y117.091 E.45879
G1 X104.278 Y116.583 E.01439
G1 X115.722 Y105.139 E.45879
M73 P72 R0
G1 X115.722 Y104.631 E.01439
G1 X104.278 Y116.076 E.45879
G1 X104.278 Y115.568 E.01439
G1 X115.722 Y104.124 E.45879
G1 X115.722 Y103.616 E.01439
G1 X104.278 Y115.061 E.45879
