; HEADER_BLOCK_START
; generated by OrcaSlicer 2.0.0 on 2024-06-07 at 10:10:11
; total layer number: 12
; filament_density: 1.27
; filament_diameter: 1.75
; max_z_height: 1.52
; HEADER_BLOCK_END

; THUMBNAIL_BLOCK_START

;
; THUMBNAIL_BLOCK_END

; external perimeters extrusion width = 0.40mm
; perimeters extrusion width = 0.45mm
; infill extrusion width = 0.45mm
; solid infill extrusion width = 0.40mm
; top infill extrusion width = 0.40mm
; first layer extrusion width = 0.50mm

; EXECUTABLE_BLOCK_START
EXCLUDE_OBJECT_DEFINE NAME=boucle-spiralou-demi.stl_id_0_copy_0 CENTER=110,110 POLYGON=[[95,107.421],[95.1321,105.531],[95.5168,103.717],[96.1368,101.998],[96.975,100.388],[98.0141,98.9064],[99.2367,97.5679],[100.626,96.3897],[102.164,95.3885],[103.834,94.5808],[105.618,93.9833],[107.5,93.6126],[109.462,93.5452],[111.57,93.7373],[113.592,94.1355],[115.509,94.7775],[117.303,95.6452],[118.956,96.7209],[120.448,97.9867],[121.762,99.4248],[122.878,101.017],[123.779,102.746],[124.445,104.593],[124.858,106.542],[125,108.573],[124.858,110.604],[124.445,112.552],[123.779,114.4],[122.878,116.129],[121.762,117.721],[120.448,119.159],[118.956,120.425],[110.737,126.041],[110.52,126.187],[110.285,126.303],[110.037,126.387],[109.781,126.438],[109.52,126.455],[109.259,126.438],[109.002,126.387],[108.754,126.303],[108.52,126.187],[108.302,126.041],[108.105,125.869],[99.2367,117.274],[98.0141,115.936],[96.975,114.454],[96.1368,112.845],[95.5168,111.125],[95.1321,109.312],[95,107.421]]
M73 P0 R10
;TYPE:Custom
M117 ; clear display for KAMP meshing
START_PRINT BED_TEMP=80 EXTRUDER_TEMP=255
G90
G21
M83 ; use relative distances for extrusion
; filament start gcode
M106 S0
;LAYER_CHANGE
;Z:0.2
;HEIGHT:0.2
;BEFORE_LAYER_CHANGE
;0.2
G92 E0

G1 E-5 F3600
;_SET_FAN_SPEED_CHANGING_LAYER
SET_VELOCITY_LIMIT ACCEL=500 ACCEL_TO_DECEL=250
G1 Z.4 F9000
G1 X97.647 Y95.694
G1 Z.4
G1 Z.2
G1 E5 F2400
;TYPE:Skirt
;WIDTH:0.5
G1 F3000
G1 X99.285 Y94.331 E.07695
G1 X100.823 Y93.329 E.06626
G1 X103.054 Y92.251 E.08945
G1 X105.143 Y91.573 E.07933
G1 X107.025 Y91.202 E.06925
G1 X109.685 Y91.098 E.09611
G1 X111.793 Y91.29 E.07642
G1 X114.067 Y91.725 E.08358
G1 X116.579 Y92.566 E.09565
G1 X118.373 Y93.433 E.07196
G1 X120.296 Y94.662 E.08239
G1 X122.262 Y96.33 E.09309
G1 X123.576 Y97.768 E.07032
G1 X124.89 Y99.607 E.08161
G1 X126.09 Y101.913 E.09385
G1 X126.848 Y104.084 E.08303
G1 X127.262 Y106.032 E.07191
G1 X127.451 Y108.744 E.09817
G1 X127.262 Y111.114 E.08584
G1 X126.848 Y113.062 E.07191
G1 X126.09 Y115.233 E.08303
G1 X125.057 Y117.264 E.08225
G1 X123.576 Y119.378 E.09322
G1 X122.038 Y121.033 E.08157
G1 X120.302 Y122.48 E.08158
G1 X111.508 Y128.221 E.37919
G1 X110.466 Y128.607 E.04014
G1 X109.359 Y128.71 E.04014
G1 X108.573 Y128.607 E.02861
G1 X108.04 Y128.448 E.02011
G1 X107.253 Y128.06 E.03168
G1 X106.801 Y127.733 E.02011
G1 X97.555 Y119.066 E.45759
G1 X96.002 Y117.346 E.08365
G1 X94.796 Y115.589 E.07697
G1 X93.958 Y113.98 E.06551
G1 X93.205 Y111.959 E.07787
G1 X92.681 Y109.483 E.09137
G1 X92.549 Y107.25 E.08077
G1 X92.681 Y105.359 E.06843
G1 X93.113 Y103.207 E.07925
G1 X93.958 Y100.863 E.08998
G1 X94.796 Y99.253 E.06551
G1 X96.002 Y97.496 E.07697
G1 X97.62 Y95.724 E.08665
; printing object boucle-spiralou-demi.stl id:0 copy 0
G1 E-3.8 F3600
;WIPE_START
G1 F3000
G1 X98.387 Y95.082 E-1.2
;WIPE_END
EXCLUDE_OBJECT_START NAME=boucle-spiralou-demi.stl_id_0_copy_0
G1 Z.6 F9000
G1 X110.793 Y123.506 Z.6
G1 Z.2
G1 E5 F2400
;TYPE:Outer wall
;WIDTH:0.434412
G1 F900
G1 X111.007 Y123.876 E.01321
;WIDTH:0.404872
G1 X111.11 Y124.42 E.01584
;WIDTH:0.42964
G1 X111.093 Y124.662 E.0074
G1 X110.98 Y125.098 E.01378
;WIDTH:0.404664
G1 X110.669 Y125.555 E.01579
;WIDTH:0.429648
G1 X110.486 Y125.714 E.0074
G1 X110.098 Y125.942 E.01374
;WIDTH:0.40484
G1 X109.554 Y126.046 E.01584
;WIDTH:0.429642
G1 X109.312 Y126.028 E.0074
G1 X108.876 Y125.915 E.01378
;WIDTH:0.404668
G1 X108.419 Y125.604 E.01579
;WIDTH:0.429648
G1 X108.26 Y125.421 E.0074
G1 X108.033 Y125.033 E.01374
;WIDTH:0.40484
G1 X107.929 Y124.489 E.01584
;WIDTH:0.429612
G1 X107.946 Y124.248 E.0074
G1 X108.056 Y123.814 E.01366
;WIDTH:0.434326
G1 X108.175 Y123.602 E.00754
G1 E-3.5 F3600
;WIPE_START
G1 F900
G1 X108.056 Y123.814 E-.36566
G1 X107.946 Y124.248 E-.67057
G1 X107.929 Y124.489 E-.36338
G1 X107.941 Y124.555 E-.1004
;WIPE_END
G1 Z.6 F9000
G1 X109.549 Y110.096 Z.6
G1 Z.2
G1 E5 F2400
;WIDTH:0.562214
M73 P1 R10
G1 F900
G1 X109.11 Y110.077 E.01802
G1 X108.668 Y109.98 E.01855
;WIDTH:0.557088
G1 X108.041 Y109.705 E.02781
;WIDTH:0.562124
G1 X107.509 Y109.287 E.02777
;WIDTH:0.569552
G1 X107.102 Y108.761 E.02764
;WIDTH:0.571506
G1 X106.893 Y108.292 E.02147
;WIDTH:0.581817
G1 X106.794 Y107.87 E.01843
G1 X106.768 Y107.41 E.01963
;WIDTH:0.573534
G1 X106.842 Y106.886 E.0222
;WIDTH:0.577975
G1 X106.985 Y106.483 E.01806
G1 X107.347 Y105.899 E.02903
;WIDTH:0.571858
G1 X107.836 Y105.435 E.02817
;WIDTH:0.566816
G1 X108.392 Y105.12 E.02645
;WIDTH:0.563886
G1 X108.836 Y104.978 E.01919
;WIDTH:0.551805
G1 X109.342 Y104.898 E.02058
;WIDTH:0.556748
G1 X109.923 Y104.908 E.02361
;WIDTH:0.557548
G1 X110.417 Y104.998 E.0204
;WIDTH:0.558918
G1 X110.887 Y105.146 E.02012
;WIDTH:0.574531
G1 X111.386 Y105.385 E.02323
G1 X111.812 Y105.655 E.02116
;WIDTH:0.579188
G1 X112.188 Y105.985 E.02118
G1 X112.529 Y106.362 E.02153
;WIDTH:0.573372
G1 X112.944 Y107.038 E.03323
;WIDTH:0.574776
G1 X113.136 Y107.525 E.02203
;WIDTH:0.576141
G1 X113.249 Y108.01 E.02097
;WIDTH:0.576777
G1 X113.293 Y108.517 E.02145
G1 X113.265 Y109.025 E.02146
G1 X113.168 Y109.516 E.02109
;WIDTH:0.576142
G1 X113.006 Y109.981 E.02075
;WIDTH:0.574776
G1 X112.785 Y110.414 E.0204
;WIDTH:0.58189
G1 X112.487 Y110.831 E.02184
G1 X112.087 Y111.258 E.02492
;WIDTH:0.565818
G1 X111.418 Y111.749 E.03426
;WIDTH:0.572791
G1 X110.959 Y111.968 E.02131
G1 X110.47 Y112.137 E.02163
;WIDTH:0.558986
G1 X109.938 Y112.237 E.02207
;WIDTH:0.577723
G1 X109.409 Y112.265 E.02237
;WIDTH:0.578555
G1 X108.748 Y112.217 E.02808
;WIDTH:0.579978
G1 X108.111 Y112.086 E.02758
;WIDTH:0.581857
G1 X107.506 Y111.88 E.02721
;WIDTH:0.584096
G1 X106.938 Y111.602 E.02704
;WIDTH:0.586602
G1 X106.411 Y111.255 E.02707
;WIDTH:0.589266
G1 X105.937 Y110.848 E.02698
;WIDTH:0.591933
G1 X105.52 Y110.387 E.02696
;WIDTH:0.594406
G1 X105.168 Y109.877 E.027
;WIDTH:0.596458
G1 X104.882 Y109.319 E.02741
;WIDTH:0.597878
G1 X104.672 Y108.719 E.02784
;WIDTH:0.59854
G1 X104.545 Y108.088 E.02829
G1 X104.507 Y107.432 E.02881
G1 X104.562 Y106.778 E.0288
;WIDTH:0.597878
G1 X104.705 Y106.152 E.02815
;WIDTH:0.596459
G1 X104.929 Y105.561 E.02764
;WIDTH:0.594408
G1 X105.228 Y105.012 E.02724
;WIDTH:0.591933
G1 X105.593 Y104.509 E.02695
;WIDTH:0.589267
G1 X106.019 Y104.058 E.02678
;WIDTH:0.586604
G1 X106.5 Y103.664 E.0267
;WIDTH:0.584096
G1 X107.03 Y103.331 E.02673
;WIDTH:0.581857
G1 X107.602 Y103.064 E.02688
;WIDTH:0.579978
G1 X108.211 Y102.87 E.02714
;WIDTH:0.578555
G1 X108.857 Y102.753 E.02777
;WIDTH:0.576999
G1 X109.514 Y102.725 E.02773
;WIDTH:0.573605
G1 X110.327 Y102.783 E.0342
;WIDTH:0.575016
G1 X111.109 Y102.941 E.03354
;WIDTH:0.576878
G1 X111.852 Y103.194 E.03308
;WIDTH:0.579096
G1 X112.549 Y103.534 E.03284
;WIDTH:0.581581
G1 X113.193 Y103.958 E.03283
;WIDTH:0.584221
G1 X113.775 Y104.456 E.03273
;WIDTH:0.586864
G1 X114.286 Y105.02 E.03271
;WIDTH:0.589316
G1 X114.719 Y105.644 E.03277
;WIDTH:0.59135
G1 X115.069 Y106.326 E.03321
;WIDTH:0.592755
G1 X115.327 Y107.058 E.0337
;WIDTH:0.593412
G1 X115.483 Y107.829 E.03423
G1 X115.531 Y108.63 E.03489
G1 X115.466 Y109.43 E.03488
;WIDTH:0.592755
G1 X115.294 Y110.196 E.03409
;WIDTH:0.591349
G1 X115.022 Y110.919 E.03348
;WIDTH:0.589315
G1 X114.659 Y111.593 E.03302
;WIDTH:0.586864
G1 X114.214 Y112.21 E.0327
;WIDTH:0.584221
G1 X113.693 Y112.764 E.0325
;WIDTH:0.581581
G1 X113.106 Y113.249 E.03243
;WIDTH:0.579095
G1 X112.458 Y113.659 E.03248
;WIDTH:0.576878
G1 X111.757 Y113.988 E.03266
;WIDTH:0.575017
G1 X111.01 Y114.229 E.03298
;WIDTH:0.573605
G1 X110.214 Y114.373 E.03392
;WIDTH:0.570894
G1 X109.412 Y114.395 E.03344
;WIDTH:0.556685
G1 X108.456 Y114.328 E.03891
;WIDTH:0.558052
G1 X107.537 Y114.143 E.03814
;WIDTH:0.559857
G1 X106.665 Y113.847 E.03761
;WIDTH:0.562008
G1 X105.847 Y113.448 E.03732
;WIDTH:0.564417
G1 X105.091 Y112.951 E.03727
;WIDTH:0.566976
G1 X104.409 Y112.368 E.03715
;WIDTH:0.569538
G1 X103.809 Y111.707 E.03713
;WIDTH:0.571915
G1 X103.301 Y110.976 E.03722
;WIDTH:0.573886
G1 X102.89 Y110.177 E.03767
;WIDTH:0.575249
G1 X102.587 Y109.321 E.03819
;WIDTH:0.575885
G1 X102.402 Y108.418 E.03879
G1 X102.344 Y107.481 E.03956
G1 X102.418 Y106.544 E.03955
;WIDTH:0.575249
G1 X102.618 Y105.647 E.03865
;WIDTH:0.573886
G1 X102.935 Y104.799 E.03797
;WIDTH:0.571915
G1 X103.358 Y104.009 E.03746
;WIDTH:0.569538
G1 X103.879 Y103.284 E.03711
;WIDTH:0.566976
G1 X104.488 Y102.633 E.03691
;WIDTH:0.564417
G1 X105.176 Y102.062 E.03684
;WIDTH:0.562007
G1 X105.935 Y101.579 E.0369
;WIDTH:0.559858
G1 X106.757 Y101.191 E.03711
;WIDTH:0.558052
G1 X107.634 Y100.907 E.03749
;WIDTH:0.556685
G1 X108.55 Y100.733 E.03786
;WIDTH:0.555901
G1 X109.511 Y100.675 E.03902
;WIDTH:0.551863
G1 X110.576 Y100.744 E.04288
;WIDTH:0.554013
G1 X111.673 Y100.965 E.0452
;WIDTH:0.555803
G1 X112.678 Y101.305 E.04299
;WIDTH:0.557938
G1 X113.621 Y101.765 E.04265
;WIDTH:0.560328
G1 X114.492 Y102.336 E.04256
;WIDTH:0.562869
G1 X115.278 Y103.006 E.04243
;WIDTH:0.565411
G1 X115.968 Y103.768 E.04242
;WIDTH:0.56777
G1 X116.554 Y104.609 E.04252
;WIDTH:0.569727
G1 X117.028 Y105.528 E.043
;WIDTH:0.57108
G1 X117.377 Y106.512 E.04357
;WIDTH:0.571711
G1 X117.59 Y107.55 E.04425
G1 X117.658 Y108.628 E.04514
G1 X117.574 Y109.705 E.04513
;WIDTH:0.57108
G1 X117.345 Y110.738 E.04411
;WIDTH:0.569726
M73 P1 R9
G1 X116.983 Y111.714 E.04334
;WIDTH:0.56777
M73 P2 R9
G1 X116.497 Y112.624 E.04277
;WIDTH:0.565411
G1 X115.899 Y113.459 E.04239
;WIDTH:0.562869
G1 X115.199 Y114.21 E.04217
;WIDTH:0.56033
G1 X114.407 Y114.869 E.0421
;WIDTH:0.557938
G1 X113.533 Y115.427 E.04218
;WIDTH:0.555804
G1 X112.587 Y115.875 E.04242
;WIDTH:0.554013
G1 X111.578 Y116.204 E.04286
;WIDTH:0.552656
G1 X110.487 Y116.407 E.04468
;WIDTH:0.580484
G1 X109.458 Y116.459 E.04376
G1 X108.19 Y116.377 E.05395
;WIDTH:0.580856
G1 X106.969 Y116.136 E.05286
;WIDTH:0.582286
G1 X105.812 Y115.749 E.05201
;WIDTH:0.584172
G1 X104.728 Y115.225 E.05144
;WIDTH:0.586419
G1 X103.731 Y114.576 E.05111
;WIDTH:0.588938
G1 X102.83 Y113.812 E.05095
;WIDTH:0.591612
G1 X102.037 Y112.943 E.05096
;WIDTH:0.594292
G1 X101.363 Y111.982 E.05113
;WIDTH:0.596775
G1 X100.819 Y110.939 E.05148
;WIDTH:0.598835
G1 X100.417 Y109.823 E.05206
;WIDTH:0.60026
G1 X100.168 Y108.647 E.05293
;WIDTH:0.600921
G1 X100.082 Y107.421 E.05418
G1 X100.168 Y106.195 E.05418
G1 X100.417 Y105.019 E.05299
;WIDTH:0.600258
G1 X100.819 Y103.904 E.05219
;WIDTH:0.598835
G1 X101.363 Y102.86 E.05167
;WIDTH:0.596775
G1 X102.037 Y101.899 E.05136
;WIDTH:0.59429
G1 X102.83 Y101.031 E.05121
;WIDTH:0.591612
G1 X103.731 Y100.267 E.0512
;WIDTH:0.588936
G1 X104.728 Y99.617 E.05134
;WIDTH:0.586419
G1 X105.812 Y99.093 E.05165
;WIDTH:0.584173
G1 X106.969 Y98.706 E.05219
;WIDTH:0.582285
G1 X108.193 Y98.465 E.05317
;WIDTH:0.596492
G1 X109.465 Y98.403 E.05565
G1 X110.894 Y98.495 E.06264
;WIDTH:0.596914
G1 X112.268 Y98.766 E.06126
;WIDTH:0.598384
G1 X113.57 Y99.202 E.06027
;WIDTH:0.600324
G1 X114.789 Y99.791 E.05961
;WIDTH:0.602636
G1 X115.911 Y100.522 E.05922
;WIDTH:0.605228
G1 X116.925 Y101.382 E.05905
;WIDTH:0.607978
G1 X117.818 Y102.359 E.05905
;WIDTH:0.610732
G1 X118.576 Y103.441 E.05925
;WIDTH:0.613287
G1 X119.188 Y104.615 E.05966
;WIDTH:0.615405
G1 X119.64 Y105.87 E.06033
;WIDTH:0.61687
G1 X119.921 Y107.193 E.06133
;WIDTH:0.617555
G1 X120.017 Y108.573 E.06278
G1 X119.921 Y109.953 E.06278
G1 X119.64 Y111.276 E.06141
;WIDTH:0.616872
G1 X119.188 Y112.531 E.06048
;WIDTH:0.615407
G1 X118.576 Y113.705 E.05988
;WIDTH:0.613286
G1 X117.818 Y114.787 E.05952
;WIDTH:0.610732
G1 X116.925 Y115.764 E.05934
;WIDTH:0.607977
G1 X115.911 Y116.624 E.05933
;WIDTH:0.605226
G1 X114.789 Y117.354 E.0595
;WIDTH:0.602637
G1 X113.57 Y117.944 E.05986
;WIDTH:0.600325
G1 X112.268 Y118.38 E.06048
;WIDTH:0.598383
G1 X110.893 Y118.651 E.06147
;WIDTH:0.601565
G1 X109.461 Y118.752 E.06335
;WIDTH:0.60186
G1 X107.867 Y118.648 E.07054
;WIDTH:0.602727
G1 X106.337 Y118.347 E.06897
;WIDTH:0.604213
G1 X104.886 Y117.861 E.06785
;WIDTH:0.606173
G1 X103.528 Y117.205 E.06711
;WIDTH:0.608507
G1 X102.277 Y116.39 E.06667
;WIDTH:0.611124
G1 X101.148 Y115.432 E.06647
;WIDTH:0.613906
G1 X100.154 Y114.344 E.06648
;WIDTH:0.616684
G1 X99.309 Y113.139 E.0667
;WIDTH:0.619266
G1 X98.627 Y111.831 E.06716
;WIDTH:0.621407
G1 X98.123 Y110.433 E.06791
;WIDTH:0.622888
G1 X97.81 Y108.958 E.06905
;WIDTH:0.623578
G1 X97.703 Y107.421 E.07068
G1 X97.81 Y105.884 E.07068
G1 X98.123 Y104.41 E.06913
;WIDTH:0.622888
M73 P3 R9
G1 X98.627 Y103.012 E.06809
;WIDTH:0.621409
G1 X99.309 Y101.703 E.06741
;WIDTH:0.619267
G1 X100.154 Y100.498 E.067
;WIDTH:0.616687
G1 X101.148 Y99.41 E.06681
;WIDTH:0.613903
G1 X102.277 Y98.452 E.0668
;WIDTH:0.611123
G1 X103.528 Y97.638 E.06698
;WIDTH:0.608507
G1 X104.886 Y96.981 E.06739
;WIDTH:0.606172
G1 X106.337 Y96.495 E.06808
;WIDTH:0.604213
G1 X107.861 Y96.195 E.06888
;WIDTH:0.602726
G1 X109.453 Y96.11 E.0705
;WIDTH:0.566689
G1 X111.205 Y96.281 E.07282
;WIDTH:0.528557
G1 X112.884 Y96.611 E.06566
;WIDTH:0.529204
G1 X114.472 Y97.143 E.06435
;WIDTH:0.530912
G1 X115.959 Y97.862 E.06365
;WIDTH:0.532946
G1 X117.328 Y98.754 E.06324
;WIDTH:0.535226
G1 X118.565 Y99.802 E.06305
;WIDTH:0.537647
G1 X119.653 Y100.994 E.06306
;WIDTH:0.540072
G1 X120.578 Y102.313 E.06328
;WIDTH:0.542321
G1 X121.324 Y103.745 E.06371
;WIDTH:0.544184
G1 X121.876 Y105.276 E.06443
;WIDTH:0.545473
G1 X122.218 Y106.89 E.0655
;WIDTH:0.546075
G1 X122.336 Y108.573 E.06705
G1 X122.218 Y110.256 E.06705
G1 X121.876 Y111.87 E.06558
;WIDTH:0.545474
G1 X121.324 Y113.4 E.06459
;WIDTH:0.544184
G1 X120.578 Y114.833 E.06395
;WIDTH:0.542318
G1 X119.653 Y116.152 E.06356
;WIDTH:0.54007
G1 X118.565 Y117.344 E.06337
;WIDTH:0.537645
G1 X117.328 Y118.392 E.06336
;WIDTH:0.535225
G1 X115.959 Y119.284 E.06353
;WIDTH:0.532946
G1 X114.472 Y120.003 E.06392
;WIDTH:0.530908
G1 X112.884 Y120.534 E.06458
;WIDTH:0.529202
G1 X111.193 Y120.867 E.0662
;WIDTH:0.567438
G1 X110.61 Y120.922 E.02425
;WIDTH:0.606965
G1 X110.028 Y120.977 E.02608
;WIDTH:0.646492
G1 X109.445 Y121.032 E.0279
;WIDTH:0.647256
G1 X107.546 Y120.908 E.09085
;WIDTH:0.64819
G1 X105.708 Y120.546 E.08957
;WIDTH:0.649791
G1 X103.965 Y119.963 E.08812
;WIDTH:0.651905
G1 X102.333 Y119.174 E.08716
;WIDTH:0.654423
G1 X100.831 Y118.196 E.08659
;WIDTH:0.657245
G1 X99.474 Y117.045 E.08633
;WIDTH:0.660241
G1 X98.28 Y115.738 E.08634
;WIDTH:0.663241
G1 X97.265 Y114.29 E.08663
;WIDTH:0.666023
G1 X96.447 Y112.718 E.08722
;WIDTH:0.668331
G1 X95.841 Y111.039 E.0882
;WIDTH:0.669927
G1 X95.465 Y109.268 E.08967
;WIDTH:0.670672
G1 X95.336 Y107.421 E.09179
G1 X95.465 Y105.575 E.09179
G1 X95.841 Y103.804 E.08978
;WIDTH:0.669929
G1 X96.447 Y102.124 E.08843
;WIDTH:0.668332
G1 X97.265 Y100.552 E.08755
;WIDTH:0.666025
G1 X98.28 Y99.105 E.08702
;WIDTH:0.663242
G1 X99.474 Y97.797 E.08676
;WIDTH:0.660241
G1 X100.831 Y96.647 E.08675
;WIDTH:0.657242
G1 X102.333 Y95.669 E.08699
;WIDTH:0.654423
G1 X103.965 Y94.88 E.08752
;WIDTH:0.651904
M73 P4 R9
G1 X105.708 Y94.296 E.08843
;WIDTH:0.649793
G1 X107.539 Y93.935 E.08947
;WIDTH:0.648188
G1 X109.451 Y93.846 E.09151
;WIDTH:0.602137
G1 X110.488 Y93.926 E.04596
;WIDTH:0.573877
G1 X111.525 Y94.006 E.04364
;WIDTH:0.545617
G1 X113.517 Y94.399 E.0806
;WIDTH:0.546512
G1 X115.399 Y95.029 E.07897
;WIDTH:0.548279
G1 X117.161 Y95.881 E.07811
;WIDTH:0.550382
G1 X118.783 Y96.937 E.0776
;WIDTH:0.55274
G1 X120.248 Y98.18 E.07737
;WIDTH:0.555245
G1 X121.538 Y99.592 E.07739
;WIDTH:0.557751
G1 X122.634 Y101.155 E.07765
;WIDTH:0.560077
G1 X123.518 Y102.852 E.07818
;WIDTH:0.562004
G1 X124.172 Y104.666 E.07906
;WIDTH:0.563339
G1 X124.578 Y106.579 E.08038
;WIDTH:0.563959
G1 X124.717 Y108.573 E.08227
G1 X124.578 Y110.567 E.08227
G1 X124.172 Y112.48 E.08048
;WIDTH:0.563338
G1 X123.518 Y114.294 E.07926
;WIDTH:0.562005
