; HEADER_BLOCK_START
; generated by OrcaSlicer 2.0.0 on 2024-06-06 at 08:34:35
; total layer number: 7
; filament_density: 1.27
; filament_diameter: 1.75
; max_z_height: 1.40
; HEADER_BLOCK_END

; THUMBNAIL_BLOCK_START

;
; THUMBNAIL_BLOCK_END

; external perimeters extrusion width = 0.40mm
; perimeters extrusion width = 0.45mm
; infill extrusion width = 0.45mm
; solid infill extrusion width = 0.40mm
; top infill extrusion width = 0.40mm
; support material extrusion width = 0.40mm
; first layer extrusion width = 0.50mm

; external perimeters extrusion width = 0.40mm
; perimeters extrusion width = 0.45mm
; infill extrusion width = 0.45mm
; solid infill extrusion width = 0.40mm
; top infill extrusion width = 0.40mm
; support material extrusion width = 0.40mm
; first layer extrusion width = 0.50mm

; EXECUTABLE_BLOCK_START
EXCLUDE_OBJECT_DEFINE NAME=boucle-spiralou-demi.stl_id_0_copy_0 CENTER=82.1699,119.775 POLYGON=[[67.1699,117.197],[67.302,115.306],[67.6867,113.493],[68.3068,111.773],[69.1449,110.164],[70.184,108.682],[71.4067,107.343],[72.7957,106.165],[74.3338,105.164],[76.0037,104.356],[77.7883,103.759],[79.6701,103.388],[81.6321,103.321],[83.74,103.513],[85.7618,103.911],[87.6791,104.553],[89.4732,105.421],[91.1257,106.496],[92.6181,107.762],[93.9317,109.2],[95.048,110.793],[95.9485,112.521],[96.6147,114.369],[97.028,116.317],[97.1699,118.348],[97.028,120.38],[96.6147,122.328],[95.9485,124.175],[95.048,125.904],[93.9317,127.497],[92.6181,128.935],[91.1257,130.2],[82.9071,135.817],[82.6896,135.962],[82.4549,136.078],[82.2072,136.162],[81.9506,136.213],[81.6896,136.23],[81.4285,136.213],[81.1719,136.162],[80.9242,136.078],[80.6896,135.962],[80.472,135.817],[80.2754,135.644],[71.4067,127.05],[70.184,125.711],[69.1449,124.229],[68.3068,122.62],[67.6867,120.901],[67.302,119.087],[67.1699,117.197]]
EXCLUDE_OBJECT_DEFINE NAME=boucle-spiralou-demi.stl_id_1_copy_0 CENTER=136.588,115.153 POLYGON=[[121.588,112.574],[121.72,110.684],[122.104,108.87],[122.725,107.151],[123.563,105.541],[124.602,104.059],[125.824,102.721],[127.213,101.543],[128.752,100.542],[130.421,99.7338],[132.206,99.1363],[134.088,98.7656],[136.05,98.6982],[138.158,98.8903],[140.18,99.2885],[142.097,99.9305],[143.891,100.798],[145.544,101.874],[147.036,103.14],[148.349,104.578],[149.466,106.17],[150.366,107.899],[151.033,109.746],[151.446,111.695],[151.588,113.726],[151.446,115.757],[151.033,117.705],[150.366,119.553],[149.466,121.282],[148.349,122.874],[147.036,124.312],[145.544,125.578],[137.325,131.194],[137.107,131.34],[136.873,131.456],[136.625,131.54],[136.368,131.591],[136.107,131.608],[135.846,131.591],[135.59,131.54],[135.342,131.456],[135.107,131.34],[134.89,131.194],[134.693,131.022],[125.824,122.427],[124.602,121.089],[123.563,119.607],[122.725,117.998],[122.104,116.278],[121.72,114.465],[121.588,112.574]]
M73 P0 R15
;TYPE:Custom
M117 ; clear display for KAMP meshing
START_PRINT BED_TEMP=80 EXTRUDER_TEMP=255
G90
G21
M83 ; use relative distances for extrusion
; filament start gcode
M106 S0
;LAYER_CHANGE
;Z:0.2
;HEIGHT:0.2
;BEFORE_LAYER_CHANGE
;0.2
G92 E0

G1 E-5 F3600
;_SET_FAN_SPEED_CHANGING_LAYER
SET_VELOCITY_LIMIT ACCEL=500 ACCEL_TO_DECEL=250
; printing object boucle-spiralou-demi.stl id:0 copy 0
EXCLUDE_OBJECT_START NAME=boucle-spiralou-demi.stl_id_0_copy_0
G1 Z.4 F9000
G1 X82.963 Y133.281
G1 Z.4
G1 Z.2
G1 E5 F2400
;TYPE:Outer wall
;WIDTH:0.434412
G1 F900
G1 X83.177 Y133.652 E.01321
;WIDTH:0.404872
G1 X83.28 Y134.196 E.01584
;WIDTH:0.42964
G1 X83.263 Y134.437 E.0074
G1 X83.149 Y134.874 E.01378
;WIDTH:0.404664
G1 X82.839 Y135.331 E.01579
;WIDTH:0.429648
G1 X82.656 Y135.49 E.0074
G1 X82.268 Y135.717 E.01374
;WIDTH:0.40484
G1 X81.724 Y135.821 E.01584
;WIDTH:0.429642
G1 X81.482 Y135.804 E.0074
G1 X81.046 Y135.69 E.01378
;WIDTH:0.404668
G1 X80.589 Y135.379 E.01579
;WIDTH:0.429648
G1 X80.43 Y135.197 E.0074
G1 X80.203 Y134.809 E.01374
;WIDTH:0.40484
G1 X80.099 Y134.265 E.01584
;WIDTH:0.429612
G1 X80.116 Y134.023 E.0074
G1 X80.226 Y133.59 E.01366
;WIDTH:0.434326
G1 X80.345 Y133.377 E.00754
G1 E-3.5 F3600
;WIPE_START
G1 F900
G1 X80.226 Y133.59 E-.36566
G1 X80.116 Y134.023 E-.67057
G1 X80.099 Y134.265 E-.36338
G1 X80.111 Y134.33 E-.1004
;WIPE_END
G1 Z.6 F9000
G1 X81.719 Y119.871 Z.6
G1 Z.2
G1 E5 F2400
;WIDTH:0.562214
G1 F900
G1 X81.28 Y119.852 E.01802
G1 X80.838 Y119.756 E.01855
;WIDTH:0.557088
G1 X80.211 Y119.481 E.02781
;WIDTH:0.562124
G1 X79.679 Y119.063 E.02777
;WIDTH:0.569552
G1 X79.272 Y118.537 E.02764
;WIDTH:0.571506
G1 X79.063 Y118.067 E.02147
;WIDTH:0.581817
G1 X78.964 Y117.646 E.01843
G1 X78.938 Y117.185 E.01963
;WIDTH:0.573534
G1 X79.012 Y116.661 E.0222
;WIDTH:0.577975
G1 X79.155 Y116.258 E.01806
G1 X79.517 Y115.674 E.02903
;WIDTH:0.571858
G1 X80.006 Y115.211 E.02817
;WIDTH:0.566816
G1 X80.562 Y114.896 E.02645
;WIDTH:0.563886
G1 X81.006 Y114.753 E.01919
;WIDTH:0.551805
M73 P0 R14
G1 X81.512 Y114.673 E.02058
;WIDTH:0.556748
G1 X82.093 Y114.684 E.02361
;WIDTH:0.557548
G1 X82.587 Y114.773 E.0204
;WIDTH:0.558918
G1 X83.057 Y114.922 E.02012
;WIDTH:0.574531
G1 X83.556 Y115.161 E.02323
G1 X83.982 Y115.43 E.02116
;WIDTH:0.579188
G1 X84.358 Y115.761 E.02118
G1 X84.699 Y116.137 E.02153
;WIDTH:0.573372
G1 X85.114 Y116.813 E.03323
;WIDTH:0.574776
G1 X85.306 Y117.301 E.02203
;WIDTH:0.576141
G1 X85.418 Y117.786 E.02097
;WIDTH:0.576777
G1 X85.463 Y118.293 E.02145
G1 X85.435 Y118.801 E.02146
G1 X85.338 Y119.291 E.02109
;WIDTH:0.576142
G1 X85.176 Y119.756 E.02075
;WIDTH:0.574776
G1 X84.955 Y120.189 E.0204
;WIDTH:0.58189
G1 X84.657 Y120.607 E.02184
G1 X84.257 Y121.034 E.02492
;WIDTH:0.565818
G1 X83.588 Y121.525 E.03426
;WIDTH:0.572791
G1 X83.129 Y121.744 E.02131
G1 X82.64 Y121.912 E.02163
;WIDTH:0.558986
G1 X82.108 Y122.013 E.02207
;WIDTH:0.577723
G1 X81.579 Y122.04 E.02237
;WIDTH:0.578555
G1 X80.918 Y121.992 E.02808
;WIDTH:0.579978
G1 X80.281 Y121.862 E.02758
;WIDTH:0.581857
G1 X79.676 Y121.655 E.02721
;WIDTH:0.584096
G1 X79.108 Y121.377 E.02704
;WIDTH:0.586602
G1 X78.581 Y121.03 E.02707
;WIDTH:0.589266
G1 X78.107 Y120.623 E.02698
;WIDTH:0.591933
G1 X77.69 Y120.162 E.02696
;WIDTH:0.594406
G1 X77.337 Y119.652 E.027
;WIDTH:0.596458
G1 X77.052 Y119.094 E.02741
;WIDTH:0.597878
G1 X76.842 Y118.495 E.02784
;WIDTH:0.59854
G1 X76.715 Y117.863 E.02829
G1 X76.677 Y117.208 E.02881
G1 X76.732 Y116.554 E.0288
;WIDTH:0.597878
G1 X76.875 Y115.928 E.02815
;WIDTH:0.596459
G1 X77.099 Y115.337 E.02764
;WIDTH:0.594408
G1 X77.398 Y114.787 E.02724
;WIDTH:0.591933
G1 X77.763 Y114.284 E.02695
;WIDTH:0.589267
G1 X78.189 Y113.834 E.02678
;WIDTH:0.586604
G1 X78.67 Y113.439 E.0267
;WIDTH:0.584096
G1 X79.199 Y113.106 E.02673
;WIDTH:0.581857
G1 X79.772 Y112.84 E.02688
;WIDTH:0.579978
G1 X80.381 Y112.645 E.02714
;WIDTH:0.578555
G1 X81.027 Y112.528 E.02777
;WIDTH:0.576999
G1 X81.684 Y112.5 E.02773
;WIDTH:0.573605
G1 X82.497 Y112.558 E.0342
;WIDTH:0.575016
G1 X83.279 Y112.717 E.03354
;WIDTH:0.576878
G1 X84.022 Y112.969 E.03308
;WIDTH:0.579096
G1 X84.719 Y113.31 E.03284
;WIDTH:0.581581
G1 X85.363 Y113.734 E.03283
;WIDTH:0.584221
G1 X85.945 Y114.232 E.03273
;WIDTH:0.586864
G1 X86.456 Y114.796 E.03271
;WIDTH:0.589316
G1 X86.889 Y115.42 E.03277
;WIDTH:0.59135
G1 X87.239 Y116.102 E.03321
;WIDTH:0.592755
G1 X87.497 Y116.833 E.0337
;WIDTH:0.593412
G1 X87.653 Y117.605 E.03423
G1 X87.701 Y118.406 E.03489
G1 X87.636 Y119.205 E.03488
;WIDTH:0.592755
G1 X87.464 Y119.971 E.03409
;WIDTH:0.591349
G1 X87.192 Y120.695 E.03348
;WIDTH:0.589315
G1 X86.829 Y121.368 E.03302
;WIDTH:0.586864
G1 X86.383 Y121.985 E.0327
;WIDTH:0.584221
G1 X85.863 Y122.539 E.0325
;WIDTH:0.581581
G1 X85.275 Y123.024 E.03243
;WIDTH:0.579095
G1 X84.628 Y123.434 E.03248
;WIDTH:0.576878
G1 X83.927 Y123.763 E.03266
;WIDTH:0.575017
G1 X83.18 Y124.004 E.03298
;WIDTH:0.573605
G1 X82.384 Y124.148 E.03392
;WIDTH:0.570894
G1 X81.582 Y124.171 E.03344
;WIDTH:0.556685
G1 X80.626 Y124.103 E.03891
;WIDTH:0.558052
G1 X79.707 Y123.918 E.03814
;WIDTH:0.559857
G1 X78.835 Y123.622 E.03761
;WIDTH:0.562008
G1 X78.017 Y123.223 E.03732
;WIDTH:0.564417
G1 X77.261 Y122.727 E.03727
;WIDTH:0.566976
G1 X76.578 Y122.144 E.03715
;WIDTH:0.569538
G1 X75.979 Y121.482 E.03713
;WIDTH:0.571915
G1 X75.471 Y120.751 E.03722
;WIDTH:0.573886
G1 X75.059 Y119.953 E.03767
;WIDTH:0.575249
G1 X74.757 Y119.097 E.03819
;WIDTH:0.575885
G1 X74.572 Y118.194 E.03879
G1 X74.514 Y117.256 E.03956
G1 X74.588 Y116.32 E.03955
;WIDTH:0.575249
G1 X74.788 Y115.423 E.03865
;WIDTH:0.573886
G1 X75.105 Y114.574 E.03797
;WIDTH:0.571915
G1 X75.528 Y113.784 E.03746
;WIDTH:0.569538
G1 X76.049 Y113.06 E.03711
;WIDTH:0.566976
G1 X76.658 Y112.408 E.03691
;WIDTH:0.564417
G1 X77.346 Y111.837 E.03684
;WIDTH:0.562007
G1 X78.105 Y111.354 E.0369
;WIDTH:0.559858
G1 X78.927 Y110.967 E.03711
;WIDTH:0.558052
G1 X79.804 Y110.682 E.03749
;WIDTH:0.556685
G1 X80.72 Y110.509 E.03786
;WIDTH:0.555901
G1 X81.681 Y110.451 E.03902
;WIDTH:0.551863
G1 X82.746 Y110.52 E.04288
;WIDTH:0.554013
G1 X83.843 Y110.741 E.0452
;WIDTH:0.555803
G1 X84.848 Y111.081 E.04299
;WIDTH:0.557938
G1 X85.791 Y111.54 E.04265
;WIDTH:0.560328
G1 X86.662 Y112.111 E.04256
;WIDTH:0.562869
G1 X87.448 Y112.782 E.04243
;WIDTH:0.565411
G1 X88.138 Y113.543 E.04242
;WIDTH:0.56777
G1 X88.724 Y114.385 E.04252
;WIDTH:0.569727
G1 X89.198 Y115.303 E.043
;WIDTH:0.57108
G1 X89.547 Y116.287 E.04357
;WIDTH:0.571711
G1 X89.76 Y117.325 E.04425
G1 X89.828 Y118.404 E.04514
G1 X89.744 Y119.481 E.04513
;WIDTH:0.57108
G1 X89.515 Y120.513 E.04411
;WIDTH:0.569726
M73 P1 R14
G1 X89.153 Y121.489 E.04334
;WIDTH:0.56777
G1 X88.667 Y122.4 E.04277
;WIDTH:0.565411
G1 X88.069 Y123.235 E.04239
;WIDTH:0.562869
G1 X87.369 Y123.986 E.04217
;WIDTH:0.56033
G1 X86.577 Y124.645 E.0421
;WIDTH:0.557938
G1 X85.703 Y125.202 E.04218
;WIDTH:0.555804
G1 X84.757 Y125.65 E.04242
;WIDTH:0.554013
G1 X83.748 Y125.979 E.04286
;WIDTH:0.552656
G1 X82.657 Y126.182 E.04468
;WIDTH:0.580484
G1 X81.627 Y126.235 E.04376
G1 X80.36 Y126.152 E.05395
;WIDTH:0.580856
G1 X79.139 Y125.912 E.05286
;WIDTH:0.582286
G1 X77.981 Y125.524 E.05201
;WIDTH:0.584172
G1 X76.898 Y125.001 E.05144
;WIDTH:0.586419
G1 X75.901 Y124.351 E.05111
;WIDTH:0.588938
G1 X75 Y123.587 E.05095
;WIDTH:0.591612
G1 X74.207 Y122.719 E.05096
;WIDTH:0.594292
G1 X73.533 Y121.758 E.05113
;WIDTH:0.596775
G1 X72.989 Y120.714 E.05148
;WIDTH:0.598835
G1 X72.587 Y119.599 E.05206
;WIDTH:0.60026
G1 X72.338 Y118.423 E.05293
;WIDTH:0.600921
G1 X72.252 Y117.197 E.05418
G1 X72.338 Y115.971 E.05418
G1 X72.587 Y114.795 E.05299
;WIDTH:0.600258
G1 X72.989 Y113.679 E.05219
;WIDTH:0.598835
G1 X73.533 Y112.636 E.05167
;WIDTH:0.596775
G1 X74.207 Y111.674 E.05136
;WIDTH:0.59429
G1 X75 Y110.806 E.05121
;WIDTH:0.591612
G1 X75.901 Y110.042 E.0512
;WIDTH:0.588936
G1 X76.898 Y109.393 E.05134
;WIDTH:0.586419
G1 X77.981 Y108.869 E.05165
;WIDTH:0.584173
G1 X79.139 Y108.481 E.05219
;WIDTH:0.582285
G1 X80.363 Y108.24 E.05317
;WIDTH:0.596492
G1 X81.635 Y108.178 E.05565
G1 X83.064 Y108.271 E.06264
;WIDTH:0.596914
G1 X84.438 Y108.541 E.06126
;WIDTH:0.598384
G1 X85.74 Y108.977 E.06027
;WIDTH:0.600324
G1 X86.959 Y109.567 E.05961
;WIDTH:0.602636
G1 X88.081 Y110.298 E.05922
;WIDTH:0.605228
G1 X89.095 Y111.158 E.05905
;WIDTH:0.607978
G1 X89.987 Y112.134 E.05905
;WIDTH:0.610732
G1 X90.746 Y113.216 E.05925
;WIDTH:0.613287
G1 X91.357 Y114.39 E.05966
;WIDTH:0.615405
G1 X91.81 Y115.645 E.06033
;WIDTH:0.61687
G1 X92.091 Y116.969 E.06133
;WIDTH:0.617555
G1 X92.187 Y118.348 E.06278
G1 X92.091 Y119.728 E.06278
G1 X91.81 Y121.051 E.06141
;WIDTH:0.616872
G1 X91.357 Y122.306 E.06048
;WIDTH:0.615407
G1 X90.746 Y123.481 E.05988
;WIDTH:0.613286
G1 X89.987 Y124.562 E.05952
;WIDTH:0.610732
G1 X89.095 Y125.539 E.05934
;WIDTH:0.607977
G1 X88.081 Y126.399 E.05933
;WIDTH:0.605226
G1 X86.959 Y127.13 E.0595
;WIDTH:0.602637
G1 X85.74 Y127.719 E.05986
;WIDTH:0.600325
G1 X84.438 Y128.155 E.06048
;WIDTH:0.598383
G1 X83.063 Y128.426 E.06147
;WIDTH:0.601565
G1 X81.631 Y128.527 E.06335
;WIDTH:0.60186
G1 X80.037 Y128.424 E.07054
;WIDTH:0.602727
G1 X78.507 Y128.123 E.06897
;WIDTH:0.604213
G1 X77.056 Y127.637 E.06785
;WIDTH:0.606173
G1 X75.698 Y126.98 E.06711
;WIDTH:0.608507
G1 X74.447 Y126.166 E.06667
;WIDTH:0.611124
G1 X73.318 Y125.208 E.06647
;WIDTH:0.613906
G1 X72.324 Y124.12 E.06648
;WIDTH:0.616684
G1 X71.479 Y122.915 E.0667
;WIDTH:0.619266
G1 X70.797 Y121.606 E.06716
;WIDTH:0.621407
G1 X70.293 Y120.208 E.06791
;WIDTH:0.622888
G1 X69.98 Y118.734 E.06905
;WIDTH:0.623578
G1 X69.873 Y117.197 E.07068
G1 X69.98 Y115.66 E.07068
G1 X70.293 Y114.185 E.06913
;WIDTH:0.622888
G1 X70.797 Y112.787 E.06809
;WIDTH:0.621409
G1 X71.479 Y111.479 E.06741
;WIDTH:0.619267
G1 X72.324 Y110.274 E.067
;WIDTH:0.616687
G1 X73.318 Y109.185 E.06681
;WIDTH:0.613903
G1 X74.447 Y108.227 E.0668
;WIDTH:0.611123
G1 X75.698 Y107.413 E.06698
;WIDTH:0.608507
G1 X77.056 Y106.757 E.06739
;WIDTH:0.606172
G1 X78.507 Y106.271 E.06808
;WIDTH:0.604213
G1 X80.031 Y105.971 E.06888
;WIDTH:0.602726
G1 X81.623 Y105.886 E.0705
;WIDTH:0.566689
G1 X83.374 Y106.056 E.07282
;WIDTH:0.528557
G1 X85.054 Y106.387 E.06566
;WIDTH:0.529204
G1 X86.642 Y106.919 E.06435
;WIDTH:0.530912
G1 X88.129 Y107.638 E.06365
;WIDTH:0.532946
G1 X89.498 Y108.529 E.06324
;WIDTH:0.535226
G1 X90.735 Y109.578 E.06305
;WIDTH:0.537647
G1 X91.823 Y110.769 E.06306
;WIDTH:0.540072
G1 X92.748 Y112.089 E.06328
;WIDTH:0.542321
G1 X93.494 Y113.521 E.06371
;WIDTH:0.544184
G1 X94.046 Y115.051 E.06443
;WIDTH:0.545473
G1 X94.388 Y116.666 E.0655
;WIDTH:0.546075
G1 X94.506 Y118.348 E.06705
G1 X94.388 Y120.031 E.06705
G1 X94.046 Y121.645 E.06558
;WIDTH:0.545474
G1 X93.494 Y123.176 E.06459
;WIDTH:0.544184
G1 X92.748 Y124.608 E.06395
;WIDTH:0.542318
G1 X91.823 Y125.928 E.06356
;WIDTH:0.54007
M73 P2 R14
G1 X90.735 Y127.119 E.06337
;WIDTH:0.537645
G1 X89.498 Y128.168 E.06336
;WIDTH:0.535225
G1 X88.129 Y129.059 E.06353
;WIDTH:0.532946
G1 X86.642 Y129.778 E.06392
;WIDTH:0.530908
G1 X85.054 Y130.31 E.06458
;WIDTH:0.529202
G1 X83.363 Y130.643 E.0662
;WIDTH:0.567438
G1 X82.78 Y130.698 E.02425
;WIDTH:0.606965
G1 X82.198 Y130.752 E.02608
;WIDTH:0.646492
G1 X81.615 Y130.807 E.0279
;WIDTH:0.647256
G1 X79.716 Y130.684 E.09085
;WIDTH:0.64819
G1 X77.878 Y130.322 E.08957
;WIDTH:0.649791
G1 X76.134 Y129.738 E.08812
;WIDTH:0.651905
G1 X74.503 Y128.949 E.08716
;WIDTH:0.654423
G1 X73.001 Y127.971 E.08659
;WIDTH:0.657245
G1 X71.644 Y126.82 E.08633
;WIDTH:0.660241
G1 X70.45 Y125.513 E.08634
;WIDTH:0.663241
G1 X69.435 Y124.066 E.08663
;WIDTH:0.666023
G1 X68.616 Y122.494 E.08722
;WIDTH:0.668331
G1 X68.011 Y120.814 E.0882
;WIDTH:0.669927
G1 X67.635 Y119.043 E.08967
;WIDTH:0.670672
G1 X67.506 Y117.197 E.09179
G1 X67.635 Y115.35 E.09179
G1 X68.011 Y113.579 E.08978
;WIDTH:0.669929
G1 X68.616 Y111.9 E.08843
;WIDTH:0.668332
G1 X69.435 Y110.328 E.08755
;WIDTH:0.666025
G1 X70.45 Y108.88 E.08702
;WIDTH:0.663242
G1 X71.644 Y107.573 E.08676
;WIDTH:0.660241
G1 X73.001 Y106.422 E.08675
;WIDTH:0.657242
G1 X74.503 Y105.444 E.08699
;WIDTH:0.654423
G1 X76.134 Y104.655 E.08752
;WIDTH:0.651904
G1 X77.878 Y104.072 E.08843
;WIDTH:0.649793
G1 X79.709 Y103.711 E.08947
;WIDTH:0.648188
G1 X81.62 Y103.622 E.09151
;WIDTH:0.602137
G1 X82.658 Y103.702 E.04596
;WIDTH:0.573877
G1 X83.695 Y103.782 E.04364
;WIDTH:0.545617
G1 X85.687 Y104.174 E.0806
;WIDTH:0.546512
G1 X87.569 Y104.804 E.07897
;WIDTH:0.548279
G1 X89.331 Y105.656 E.07811
;WIDTH:0.550382
G1 X90.953 Y106.712 E.0776
;WIDTH:0.55274
G1 X92.418 Y107.955 E.07737
;WIDTH:0.555245
G1 X93.708 Y109.367 E.07739
;WIDTH:0.557751
G1 X94.804 Y110.93 E.07765
;WIDTH:0.560077
G1 X95.688 Y112.628 E.07818
;WIDTH:0.562004
G1 X96.342 Y114.442 E.07906
;WIDTH:0.563339
G1 X96.748 Y116.354 E.08038
;WIDTH:0.563959
G1 X96.887 Y118.348 E.08227
G1 X96.748 Y120.343 E.08227
G1 X96.342 Y122.255 E.08048
;WIDTH:0.563338
G1 X95.688 Y124.069 E.07926
;WIDTH:0.562005
G1 X94.804 Y125.766 E.07847
;WIDTH:0.560076
G1 X93.708 Y127.33 E.078
;WIDTH:0.55775
G1 X92.418 Y128.742 E.07777
;WIDTH:0.555243
G1 X90.953 Y129.984 E.07775
;WIDTH:0.552738
G1 X89.331 Y131.04 E.07796
;WIDTH:0.550382
G1 X87.569 Y131.892 E.07844
;WIDTH:0.548276
G1 X85.687 Y132.523 E.07924
;WIDTH:0.546512
G1 X83.714 Y132.911 E.07997
;WIDTH:0.571092
