; HEADER_BLOCK_START
; generated by OrcaSlicer 2.0.0 on 2024-06-04 at 21:33:20
; total layer number: 7
; filament_density: 1.27
; filament_diameter: 1.75
; max_z_height: 1.40
; HEADER_BLOCK_END

; THUMBNAIL_BLOCK_START

;
; THUMBNAIL_BLOCK_END

; external perimeters extrusion width = 0.40mm
; perimeters extrusion width = 0.45mm
; infill extrusion width = 0.45mm
; solid infill extrusion width = 0.40mm
; top infill extrusion width = 0.40mm
; support material extrusion width = 0.40mm
; first layer extrusion width = 0.50mm

; external perimeters extrusion width = 0.40mm
; perimeters extrusion width = 0.45mm
; infill extrusion width = 0.45mm
; solid infill extrusion width = 0.40mm
; top infill extrusion width = 0.40mm
; support material extrusion width = 0.40mm
; first layer extrusion width = 0.50mm

; EXECUTABLE_BLOCK_START
EXCLUDE_OBJECT_DEFINE NAME=earrings-v2.stl_id_0_copy_0 CENTER=93.9111,109.361 POLYGON=[[79.244,104.096],[79.2516,103.226],[79.2939,102.357],[79.3708,101.491],[79.4824,100.627],[79.6286,99.7678],[79.8094,98.9136],[80.0247,98.0656],[80.3833,96.9575],[80.8059,95.908],[81.2934,94.919],[81.847,93.9921],[82.4679,93.129],[83.157,92.3316],[83.9154,91.6015],[84.7444,90.9404],[85.6449,90.3501],[86.618,89.8323],[87.6649,89.3887],[88.7866,89.0211],[89.6313,88.7954],[90.4835,88.6107],[91.3415,88.467],[92.204,88.3644],[93.0694,88.3029],[93.9362,88.2823],[94.8031,88.3029],[95.6685,88.3644],[96.531,88.467],[97.389,88.6107],[98.2411,88.7954],[99.0859,89.0211],[99.523,89.1484],[99.9542,89.2918],[100.379,89.4511],[100.797,89.6261],[101.208,89.8165],[101.612,90.0222],[102.007,90.2429],[102.394,90.4784],[102.772,90.7284],[103.141,90.9928],[103.5,91.2712],[103.849,91.5635],[104.187,91.8688],[104.512,92.186],[104.825,92.5148],[105.124,92.8547],[105.411,93.2055],[105.684,93.5666],[105.943,93.9377],[106.189,94.3185],[106.42,94.7084],[106.636,95.1072],[106.838,95.5145],[107.024,95.9298],[107.292,96.5539],[107.531,97.1853],[107.743,97.8256],[107.929,98.4766],[108.089,99.1397],[108.225,99.8167],[108.337,100.509],[108.426,101.219],[108.494,101.947],[108.542,102.696],[108.569,103.467],[108.578,104.261],[108.578,104.741],[108.557,105.239],[108.519,105.752],[108.464,106.279],[108.395,106.819],[108.312,107.369],[108.217,107.929],[108.112,108.496],[107.998,109.069],[107.877,109.647],[107.75,110.227],[107.618,110.809],[107.376,111.8],[107.114,112.782],[106.832,113.755],[106.528,114.718],[106.2,115.67],[105.846,116.612],[105.466,117.542],[105.058,118.461],[104.62,119.367],[104.151,120.261],[103.649,121.142],[103.112,122.01],[102.744,122.567],[102.362,123.11],[101.966,123.639],[101.553,124.151],[101.122,124.645],[100.672,125.119],[100.2,125.571],[95.9202,129.656],[95.6988,129.842],[95.4598,130.005],[95.2033,130.144],[94.9293,130.259],[94.6379,130.348],[94.3291,130.409],[94.0183,130.441],[93.7208,130.44],[93.4363,130.408],[93.1646,130.347],[92.9055,130.257],[92.6589,130.142],[92.4245,130.001],[92.2021,129.837],[91.9914,129.65],[86.8693,124.66],[86.3682,124.126],[85.8948,123.575],[85.4467,123.006],[85.0217,122.42],[84.6176,121.815],[84.232,121.193],[83.8626,120.553],[83.5071,119.894],[83.1633,119.216],[82.767,118.355],[82.3903,117.486],[82.0333,116.609],[81.6962,115.725],[81.3791,114.833],[81.082,113.935],[80.8052,113.03],[80.5486,112.119],[80.3124,111.203],[80.0967,110.281],[79.9017,109.354],[79.5611,107.563],[79.4296,106.7],[79.333,105.834],[79.2711,104.965],[79.244,104.096]]
EXCLUDE_OBJECT_DEFINE NAME=earrings-v2.stl_id_1_copy_0 CENTER=136.504,107.896 POLYGON=[[121.837,102.63],[121.845,101.76],[121.887,100.891],[121.964,100.025],[122.076,99.1613],[122.222,98.3019],[122.403,97.4477],[122.618,96.5997],[122.977,95.4916],[123.399,94.4421],[123.887,93.453],[124.44,92.5262],[125.061,91.6631],[125.75,90.8657],[126.509,90.1356],[127.338,89.4745],[128.238,88.8842],[129.211,88.3664],[130.258,87.9228],[131.38,87.5552],[132.225,87.3295],[133.077,87.1448],[133.935,87.0011],[134.797,86.8985],[135.663,86.8369],[136.53,86.8164],[137.396,86.8369],[138.262,86.8985],[139.124,87.0011],[139.982,87.1448],[140.834,87.3295],[141.679,87.5552],[142.116,87.6825],[142.547,87.8259],[142.972,87.9852],[143.39,88.1602],[143.801,88.3506],[144.205,88.5563],[144.6,88.777],[144.987,89.0125],[145.365,89.2625],[145.734,89.5269],[146.093,89.8053],[146.442,90.0976],[146.78,90.4029],[147.105,90.7201],[147.418,91.0489],[147.718,91.3888],[148.004,91.7396],[148.277,92.1007],[148.537,92.4718],[148.782,92.8526],[149.013,93.2425],[149.229,93.6413],[149.431,94.0486],[149.617,94.4639],[149.885,95.088],[150.125,95.7194],[150.337,96.3597],[150.522,97.0107],[150.682,97.6738],[150.818,98.3508],[150.93,99.0432],[151.02,99.7528],[151.088,100.481],[151.135,101.23],[151.163,102.001],[151.172,102.795],[151.171,103.275],[151.151,103.773],[151.112,104.286],[151.058,104.813],[150.988,105.353],[150.905,105.903],[150.81,106.463],[150.705,107.03],[150.591,107.603],[150.47,108.181],[150.343,108.761],[150.212,109.343],[149.969,110.334],[149.707,111.316],[149.425,112.289],[149.121,113.252],[148.793,114.204],[148.44,115.146],[148.06,116.076],[147.651,116.995],[147.213,117.901],[146.744,118.795],[146.242,119.677],[145.705,120.544],[145.337,121.101],[144.956,121.644],[144.559,122.173],[144.146,122.685],[143.715,123.179],[143.265,123.653],[142.794,124.105],[138.513,128.19],[138.292,128.376],[138.053,128.539],[137.797,128.679],[137.523,128.793],[137.231,128.882],[136.922,128.943],[136.612,128.975],[136.314,128.974],[136.03,128.942],[135.758,128.881],[135.499,128.792],[135.252,128.676],[135.018,128.535],[134.795,128.371],[134.585,128.184],[129.463,123.194],[128.961,122.66],[128.488,122.109],[128.04,121.54],[127.615,120.954],[127.211,120.349],[126.825,119.727],[126.456,119.087],[126.1,118.428],[125.757,117.75],[125.36,116.889],[124.984,116.02],[124.627,115.143],[124.289,114.259],[123.972,113.367],[123.675,112.469],[123.398,111.564],[123.142,110.653],[122.906,109.737],[122.69,108.815],[122.495,107.888],[122.154,106.097],[122.023,105.234],[121.926,104.368],[121.864,103.499],[121.837,102.63]]
M73 P0 R29
;TYPE:Custom
M117 ; clear display for KAMP meshing
START_PRINT BED_TEMP=80 EXTRUDER_TEMP=255
G90
G21
M83 ; use relative distances for extrusion
; filament start gcode
M106 S0
;LAYER_CHANGE
;Z:0.2
;HEIGHT:0.2
;BEFORE_LAYER_CHANGE
;0.2
G92 E0

G1 E-5 F3600
;_SET_FAN_SPEED_CHANGING_LAYER
SET_VELOCITY_LIMIT ACCEL=500 ACCEL_TO_DECEL=250
; printing object earrings-v2.stl id:0 copy 0
EXCLUDE_OBJECT_START NAME=earrings-v2.stl_id_0_copy_0
G1 Z.4 F9000
G1 X96.104 Y118.989
G1 Z.4
G1 Z.2
G1 E5 F2400
;TYPE:Inner wall
;WIDTH:0.389
G1 F900
G1 X96.021 Y118.951 E.0025
G1 X95.782 Y118.985 E.0066
;WIDTH:0.368252
G1 X95.478 Y119.137 E.00875
G1 X95.595 Y118.817 E.00875
;WIDTH:0.39011
G1 X95.558 Y118.504 E.00866
;WIDTH:0.401952
G1 X95.513 Y118.411 E.00292
G1 X95.589 Y118.481 E.00295
;WIDTH:0.39011
G1 X96.076 Y118.961 E.01875
G1 E-3.5 F3600
;WIPE_START
G1 F900
G1 X96.021 Y118.951 E-.08301
G1 X95.782 Y118.985 E-.36239
G1 X95.478 Y119.137 E-.51088
G1 X95.595 Y118.817 E-.51088
G1 X95.592 Y118.795 E-.03284
;WIPE_END
G1 Z.6 F9000
G1 X94.104 Y116.747 Z.6
G1 Z.2
G1 E5 F2400
;WIDTH:0.399668
G1 F900
G1 X93.647 Y116.539 E.01417
;WIDTH:0.373189
G1 X93.483 Y116.552 E.00428
;WIDTH:0.378454
G1 X93.291 Y116.628 E.00549
G1 X93.43 Y116.474 E.00549
;WIDTH:0.373189
G1 X93.499 Y116.325 E.00428
;WIDTH:0.40695
G1 X93.497 Y115.88 E.01282
G1 X93.786 Y116.281 E.01421
;WIDTH:0.399668
G1 X94.082 Y116.714 E.01479
G1 E-3.5 F3600
;WIPE_START
G1 F900
G1 X93.647 Y116.539 E-.70345
G1 X93.483 Y116.552 E-.24582
G1 X93.291 Y116.628 E-.31087
G1 X93.398 Y116.509 E-.23985
;WIPE_END
G1 Z.6 F9000
G1 X92.496 Y114.135 Z.6
G1 Z.2
G1 E5 F2400
;WIDTH:0.385736
G1 F900
G1 X92.079 Y113.855 E.0136
;WIDTH:0.369232
G1 X91.733 Y113.887 E.00895
;WIDTH:0.367665
G1 X91.88 Y113.756 E.00503
;WIDTH:0.390632
G1 X92.024 Y113.456 E.00914
;WIDTH:0.431734
G1 X92.033 Y113.21 E.00756
G1 X92.145 Y113.417 E.00722
;WIDTH:0.400483
G1 X92.257 Y113.623 E.00664
;WIDTH:0.385736
G1 X92.479 Y114.098 E.0142
G1 E-3.5 F3600
;WIPE_START
G1 F900
G1 X92.079 Y113.855 E-.70244
G1 X91.733 Y113.887 E-.52112
G1 X91.871 Y113.764 E-.27645
;WIPE_END
G1 Z.6 F9000
G1 X91.22 Y111.046 Z.6
G1 Z.2
G1 E5 F2400
;WIDTH:0.393702
G1 F900
G1 X91.266 Y111.202 E.0045
;WIDTH:0.406376
G1 X91.522 Y111.939 E.02241
G1 X91.721 Y112.404 E.01451
G1 X91.46 Y112.005 E.0137
;WIDTH:0.444732
G1 X91.032 Y111.732 E.0161
G1 X90.934 Y111.714 E.00316
G1 X91.022 Y111.667 E.00316
G1 X91.124 Y111.437 E.008
;WIDTH:0.419217
G1 X91.226 Y111.206 E.00749
;WIDTH:0.393702
G1 X91.222 Y111.086 E.00334
G1 E-3.5 F3600
;WIPE_START
G1 F900
G1 X91.266 Y111.202 E-.18592
G1 X91.522 Y111.939 E-1.17107
G1 X91.56 Y112.027 E-.143
;WIPE_END
G1 Z.6 F9000
G1 X90.321 Y107.758 Z.6
G1 Z.2
G1 E5 F2400
;WIDTH:0.414616
G1 F900
G1 X90.325 Y107.724 E.00098
G1 X90.45 Y108.207 E.01463
;WIDTH:0.400972
G1 X90.563 Y108.776 E.01641
G1 X90.218 Y108.393 E.01458
;WIDTH:0.374244
G1 X89.815 Y108.343 E.01063
;WIDTH:0.368647
G1 X89.921 Y108.31 E.00285
;WIDTH:0.374244
G1 X90.161 Y108.137 E.00775
;WIDTH:0.400177
G1 X90.306 Y107.862 E.00877
;WIDTH:0.414616
G1 X90.315 Y107.797 E.00192
G1 E-3.5 F3600
;WIPE_START
G1 F900
G1 X90.325 Y107.724 E-.11026
G1 X90.45 Y108.207 E-.74728
G1 X90.534 Y108.627 E-.64247
;WIPE_END
G1 Z.6 F9000
G1 X89.92 Y105.473 Z.6
G1 Z.2
G1 E5 F2400
;WIDTH:0.417422
G1 F900
G1 X89.819 Y105.297 E.00599
;WIDTH:0.396881
G1 X89.598 Y105.064 E.00898
;WIDTH:0.377349
G1 X89.455 Y104.995 E.0042
;WIDTH:0.375638
G1 X89.255 Y104.963 E.00533
G1 X89.446 Y104.896 E.00533
;WIDTH:0.377349
G1 X89.638 Y104.734 E.00664
;WIDTH:0.39644
G1 X89.779 Y104.382 E.01058
G1 X89.856 Y104.9 E.01463
;WIDTH:0.417422
G1 X89.916 Y105.433 E.01587
G1 E-3.5 F3600
;WIPE_START
G1 F900
G1 X89.819 Y105.297 E-.25002
G1 X89.598 Y105.064 E-.48186
G1 X89.455 Y104.995 E-.2385
G1 X89.255 Y104.963 E-.30444
G1 X89.396 Y104.914 E-.22517
;WIPE_END
G1 Z.6 F9000
G1 X89.553 Y101.989 Z.6
G1 Z.2
G1 E5 F2400
;WIDTH:0.372792
G1 F900
G1 X89.454 Y101.713 E.00764
;WIDTH:0.364488
G1 X89.273 Y101.531 E.00652
;WIDTH:0.361939
G1 X89 Y101.433 E.00731
G1 X89.252 Y101.281 E.00743
;WIDTH:0.411262
G1 X89.47 Y100.906 E.01261
G1 X89.52 Y101.39 E.01414
;WIDTH:0.372792
G1 X89.551 Y101.949 E.0146
G1 E-3.5 F3600
;WIPE_START
G1 F900
G1 X89.454 Y101.713 E-.38287
G1 X89.273 Y101.531 E-.38514
G1 X89 Y101.433 E-.43527
G1 X89.169 Y101.331 E-.29671
;WIPE_END
G1 Z.6 F9000
G1 X88.98 Y94.691 Z.6
G1 Z.2
G1 E5 F2400
;WIDTH:0.378897
G1 F900
G1 X89.193 Y94.66 E.00571
;WIDTH:0.383813
G1 X89.337 Y94.592 E.0043
;WIDTH:0.430366
G1 X89.619 Y94.232 E.01398
G1 X89.602 Y94.747 E.01576
;WIDTH:0.418043
G1 X89.568 Y95.009 E.00782
;WIDTH:0.452272
G1 X89.535 Y95.27 E.00854
G1 X89.485 Y95.138 E.00459
;WIDTH:0.426341
G1 X89.435 Y95.005 E.0043
;WIDTH:0.40041
G1 X89.183 Y94.761 E.00989
;WIDTH:0.378897
G1 X89.018 Y94.704 E.00465
G1 E-3.5 F3600
;WIPE_START
G1 F900
G1 X89.193 Y94.66 E-.27095
G1 X89.337 Y94.592 E-.23971
G1 X89.619 Y94.232 E-.68507
G1 X89.612 Y94.435 E-.30426
;WIPE_END
G1 Z.6 F9000
G1 X96.528 Y127.33 Z.6
M73 P0 R28
G1 Z.2
G1 E5 F2400
;WIDTH:0.499999
G1 F900
G1 X96.341 Y127.587 E.0115
G1 X96.117 Y128.135 E.02138
G1 X95.877 Y128.598 E.01882
G1 X95.571 Y128.998 E.01818
G1 X95.636 Y128.54 E.01669
G1 X95.527 Y128.147 E.01472
G1 X95.233 Y127.783 E.01689
G1 X95.037 Y127.675 E.00809
G1 X94.851 Y127.638 E.00683
;WIDTH:0.453785
G1 X94.666 Y127.602 E.00614
;WIDTH:0.40757
G1 X94.08 Y127.606 E.01686
;WIDTH:0.384925
G1 X93.471 Y127.603 E.01647
;WIDTH:0.420504
G1 X93.283 Y127.608 E.00561
;WIDTH:0.456082
G1 X93.095 Y127.614 E.00614
;WIDTH:0.49166
G1 X92.907 Y127.619 E.00667
;WIDTH:0.499999
G1 X92.541 Y127.84 E.01544
G1 X92.346 Y128.079 E.01113
G1 X92.2 Y128.501 E.01611
G1 X92.217 Y128.813 E.01131
G1 X92.005 Y128.558 E.01198
G1 X91.285 Y127.382 E.04978
G1 X90.935 Y126.978 E.01932
;WIDTH:0.493972
G1 X90.784 Y126.891 E.00618
;WIDTH:0.456498
G1 X90.634 Y126.805 E.00566
;WIDTH:0.419023
G1 X90.484 Y126.719 E.00515
;WIDTH:0.381548
G1 X89.835 Y126.32 E.02037
;WIDTH:0.367888
G1 X89.373 Y125.983 E.0147
;WIDTH:0.386472
G1 X89.224 Y125.844 E.00551
;WIDTH:0.42511
G1 X89.076 Y125.706 E.00613
;WIDTH:0.463748
G1 X88.927 Y125.568 E.00675
;WIDTH:0.505046
G1 X88.8 Y125.438 E.00663
;WIDTH:0.546343
G1 X88.672 Y125.309 E.00723
;WIDTH:0.58764
G1 X88.544 Y125.18 E.00782
G1 X88.703 Y125.185 E.00683
;WIDTH:0.546343
G1 X88.862 Y125.191 E.00631
;WIDTH:0.505046
G1 X89.02 Y125.197 E.0058
;WIDTH:0.463748
G1 X89.172 Y125.148 E.00531
;WIDTH:0.46193
G1 X89.254 Y125.076 E.00361
;WIDTH:0.430987
G1 X89.336 Y125.004 E.00334
G1 X89.298 Y125.106 E.00334
;WIDTH:0.46193
G1 X89.259 Y125.208 E.00361
;WIDTH:0.463748
G1 X89.295 Y125.476 E.00899
G1 X89.394 Y125.573 E.0046
;WIDTH:0.425455
G1 X89.494 Y125.669 E.00418
;WIDTH:0.387162
G1 X89.593 Y125.766 E.00377
;WIDTH:0.379365
G1 X90.295 Y126.223 E.02227
;WIDTH:0.400145
G1 X90.821 Y126.517 E.01702
;WIDTH:0.450072
G1 X91.039 Y126.646 E.00814
;WIDTH:0.499999
G1 X91.257 Y126.774 E.00914
G1 X91.79 Y126.977 E.02058
G1 X92.367 Y127.145 E.0217
G1 X92.955 Y127.247 E.02153
;WIDTH:0.471504
G1 X93.251 Y127.255 E.01004
;WIDTH:0.427045
G1 X93.548 Y127.264 E.009
;WIDTH:0.382585
G1 X94.142 Y127.269 E.01594
;WIDTH:0.409288
G1 X94.471 Y127.254 E.00954
;WIDTH:0.439018
G1 X94.801 Y127.239 E.01031
;WIDTH:0.469509
G1 X95.08 Y127.204 E.00948
;WIDTH:0.499999
G1 X95.359 Y127.169 E.01015
G1 X96.088 Y126.958 E.02744
G1 X96.569 Y126.767 E.01867
;WIDTH:0.476349
G1 X96.814 Y126.636 E.00951
;WIDTH:0.44263
G1 X97.059 Y126.505 E.00877
;WIDTH:0.4159
G1 X98.07 Y125.921 E.03439
;WIDTH:0.424926
G1 X99.051 Y125.19 E.03692
;WIDTH:0.421066
G1 X99.493 Y124.801 E.01759
G1 X99.958 Y124.357 E.01918
;WIDTH:0.424461
G1 X100.742 Y123.485 E.03536
;WIDTH:0.422789
G1 X101.308 Y122.778 E.02719
;WIDTH:0.450713
G1 X101.448 Y122.538 E.00895
;WIDTH:0.486803
G1 X101.47 Y122.444 E.00335
;WIDTH:0.522892
G1 X101.492 Y122.351 E.00363
;WIDTH:0.558981
G1 X101.513 Y122.258 E.0039
G1 X101.391 Y121.968 E.01284
G1 X101.706 Y121.966 E.01284
G1 X101.806 Y121.887 E.00517
;WIDTH:0.519794
G1 X101.905 Y121.808 E.00478
;WIDTH:0.480607
G1 X102.005 Y121.729 E.00439
;WIDTH:0.441419
G1 X102.236 Y121.423 E.01207
;WIDTH:0.427391
G1 X102.791 Y120.625 E.02952
;WIDTH:0.391862
G1 X103.29 Y119.791 E.02679
;WIDTH:0.385939
G1 X103.729 Y118.928 E.02624
;WIDTH:0.397381
G1 X103.994 Y118.341 E.01803
;WIDTH:0.437947
G1 X104.068 Y118.092 E.00813
;WIDTH:0.483158
G1 X104.072 Y117.976 E.00404
;WIDTH:0.528369
G1 X104.076 Y117.86 E.00445
G1 X103.973 Y117.692 E.00753
;WIDTH:0.497961
G1 X103.892 Y117.641 E.00343
;WIDTH:0.462181
G1 X103.811 Y117.591 E.00316
;WIDTH:0.426401
G1 X103.73 Y117.54 E.00289
G1 X103.823 Y117.562 E.00289
;WIDTH:0.462181
G1 X103.916 Y117.585 E.00316
;WIDTH:0.497961
G1 X104.009 Y117.607 E.00343
;WIDTH:0.528369
G1 X104.2 Y117.562 E.00753
G1 X104.278 Y117.472 E.00456
;WIDTH:0.493092
G1 X104.356 Y117.382 E.00423
;WIDTH:0.457815
G1 X104.434 Y117.293 E.0039
;WIDTH:0.422537
G1 X104.517 Y117.127 E.00554
;WIDTH:0.414891
G1 X104.947 Y116.2 E.03005
;WIDTH:0.381935
G1 X105.348 Y115.177 E.02941
;WIDTH:0.375184
G1 X105.688 Y114.133 E.02883
;WIDTH:0.404531
G1 X105.961 Y113.093 E.03071
;WIDTH:0.444759
G1 X105.964 Y112.94 E.00485
;WIDTH:0.484987
G1 X105.967 Y112.787 E.00534
;WIDTH:0.525214
G1 X105.97 Y112.635 E.00582
G1 X105.836 Y112.457 E.00847
;WIDTH:0.510339
G1 X105.7 Y112.397 E.00551
;WIDTH:0.461594
G1 X105.563 Y112.337 E.00493
G1 X105.712 Y112.353 E.00493
;WIDTH:0.510339
G1 X105.86 Y112.37 E.00551
;WIDTH:0.534105
G1 X106.052 Y112.297 E.00799
G1 X106.128 Y112.167 E.00584
;WIDTH:0.491727
G1 X106.205 Y112.037 E.00533
;WIDTH:0.449349
G1 X106.281 Y111.908 E.00483
;WIDTH:0.40697
G1 X106.613 Y110.853 E.03178
;WIDTH:0.369276
G1 X106.858 Y109.863 E.02631
;WIDTH:0.368993
G1 X107.054 Y108.851 E.02654
;WIDTH:0.408575
G1 X107.194 Y107.81 E.03033
;WIDTH:0.45239
G1 X107.177 Y107.653 E.00512
;WIDTH:0.496204
G1 X107.159 Y107.496 E.00567
;WIDTH:0.540018
G1 X107.141 Y107.338 E.00622
G1 X107.023 Y107.205 E.00699
G1 X106.89 Y107.127 E.00607
G1 X107.04 Y107.092 E.00607
G1 X107.194 Y107.002 E.00699
G1 X107.259 Y106.852 E.0064
;WIDTH:0.49634
G1 X107.325 Y106.703 E.00584
