; HEADER_BLOCK_START
; generated by OrcaSlicer 2.0.0 on 2024-06-06 at 08:41:33
; total layer number: 10
; filament_density: 1.27
; filament_diameter: 1.75
; max_z_height: 2.00
; HEADER_BLOCK_END

; THUMBNAIL_BLOCK_START

;
; THUMBNAIL_BLOCK_END

; external perimeters extrusion width = 0.40mm
; perimeters extrusion width = 0.45mm
; infill extrusion width = 0.45mm
; solid infill extrusion width = 0.40mm
; top infill extrusion width = 0.40mm
; support material extrusion width = 0.40mm
; first layer extrusion width = 0.50mm

; external perimeters extrusion width = 0.40mm
; perimeters extrusion width = 0.45mm
; infill extrusion width = 0.45mm
; solid infill extrusion width = 0.40mm
; top infill extrusion width = 0.40mm
; support material extrusion width = 0.40mm
; first layer extrusion width = 0.50mm

; EXECUTABLE_BLOCK_START
EXCLUDE_OBJECT_DEFINE NAME=earrings_v2.stl_id_0_copy_0 CENTER=95.6785,110.468 POLYGON=[[83.8212,103.88],[83.9428,103.293],[89.7211,89.6849],[89.9882,89.1424],[90.3761,88.6787],[90.8629,88.3198],[95.6786,85.3984],[100.622,88.3973],[101.074,88.7706],[101.428,89.2376],[101.665,89.7735],[107.414,103.293],[107.536,103.88],[107.517,104.479],[107.358,105.057],[97.3407,134.336],[97.153,134.731],[96.8734,135.067],[96.5192,135.323],[96.1124,135.484],[95.6786,135.538],[95.2448,135.484],[94.838,135.323],[94.4838,135.067],[94.204,134.731],[94.0165,134.336],[83.9991,105.057],[83.8405,104.479],[83.8212,103.88]]
EXCLUDE_OBJECT_DEFINE NAME=earrings_v2.stl_id_1_copy_0 CENTER=133.907,109.719 POLYGON=[[122.05,103.131],[122.171,102.544],[127.95,88.9359],[128.217,88.3934],[128.605,87.9297],[129.091,87.5708],[133.907,84.6494],[138.85,87.6483],[139.302,88.0216],[139.656,88.4887],[139.894,89.0245],[145.643,102.544],[145.764,103.131],[145.745,103.73],[145.586,104.308],[135.569,133.587],[135.381,133.982],[135.102,134.318],[134.748,134.574],[134.341,134.735],[133.907,134.789],[133.473,134.735],[133.067,134.574],[132.712,134.318],[132.433,133.982],[132.245,133.587],[122.228,104.308],[122.069,103.73],[122.05,103.131]]
M73 P0 R16
;TYPE:Custom
M117 ; clear display for KAMP meshing
START_PRINT BED_TEMP=80 EXTRUDER_TEMP=255
G90
G21
M83 ; use relative distances for extrusion
; filament start gcode
M106 S0
;LAYER_CHANGE
;Z:0.2
;HEIGHT:0.2
;BEFORE_LAYER_CHANGE
;0.2
G92 E0

G1 E-5 F3600
;_SET_FAN_SPEED_CHANGING_LAYER
SET_VELOCITY_LIMIT ACCEL=500 ACCEL_TO_DECEL=250
; printing object earrings v2.stl id:0 copy 0
EXCLUDE_OBJECT_START NAME=earrings_v2.stl_id_0_copy_0
G1 Z.4 F9000
G1 X102.435 Y100.952
G1 Z.4
G1 Z.2
G1 E5 F2400
;TYPE:Inner wall
;WIDTH:0.467768
G1 F900
G1 X102.41 Y100.721 E.00782
;WIDTH:0.464463
G1 X102.32 Y100.536 E.00684
;WIDTH:0.508649
G1 X102.234 Y100.437 E.00482
;WIDTH:0.552835
G1 X102.149 Y100.337 E.00527
;WIDTH:0.59702
G1 X102.064 Y100.238 E.00573
G1 X102.163 Y100.251 E.00434
;WIDTH:0.563724
G1 X102.399 Y100.209 E.00986
;WIDTH:0.521764
G1 X102.634 Y100.168 E.00906
;WIDTH:0.479803
G1 X102.763 Y100.498 E.01223
;WIDTH:0.50177
G1 X102.883 Y100.626 E.00637
;WIDTH:0.546206
G1 X103.003 Y100.754 E.00699
;WIDTH:0.590642
G1 X103.123 Y100.883 E.0076
G1 X103.051 Y100.884 E.00312
;WIDTH:0.550291
G1 X102.979 Y100.886 E.00289
;WIDTH:0.509939
G1 X102.907 Y100.888 E.00266
;WIDTH:0.469588
G1 X102.835 Y100.889 E.00243
;WIDTH:0.429236
G1 X102.763 Y100.891 E.0022
;WIDTH:0.426666
G1 X102.707 Y100.878 E.00174
;WIDTH:0.464447
G1 X102.651 Y100.865 E.00191
;WIDTH:0.467768
G1 X102.472 Y100.937 E.00648
G1 E-3.5 F3600
;WIPE_START
G1 F900
G1 X102.41 Y100.721 E-.33822
G1 X102.32 Y100.536 E-.30791
G1 X102.234 Y100.437 E-.19637
G1 X102.149 Y100.337 E-.19637
G1 X102.064 Y100.238 E-.19637
G1 X102.163 Y100.251 E-.14881
G1 X102.239 Y100.237 E-.11594
;WIPE_END
G1 Z.6 F9000
G1 X98.324 Y98.365 Z.6
G1 Z.2
G1 E5 F2400
;WIDTH:0.41323
G1 F900
G1 X98.264 Y98.182 E.00564
;WIDTH:0.451006
G1 X98.176 Y98.074 E.00449
;WIDTH:0.495502
G1 X98.088 Y97.966 E.00497
;WIDTH:0.539998
G1 X97.999 Y97.858 E.00546
;WIDTH:0.584494
G1 X97.911 Y97.751 E.00595
G1 X97.997 Y97.764 E.00371
;WIDTH:0.5376
G1 X98.149 Y97.746 E.00595
;WIDTH:0.496139
G1 X98.3 Y97.729 E.00546
;WIDTH:0.454677
G1 X98.451 Y97.712 E.00496
;WIDTH:0.413215
G1 X98.49 Y97.857 E.00442
;WIDTH:0.457988
G1 X98.584 Y97.975 E.00492
;WIDTH:0.502761
G1 X98.677 Y98.092 E.00545
;WIDTH:0.547534
G1 X98.77 Y98.21 E.00598
;WIDTH:0.592306
G1 X98.863 Y98.327 E.00651
G1 X98.803 Y98.322 E.00265
;WIDTH:0.557025
G1 X98.742 Y98.316 E.00248
;WIDTH:0.521744
G1 X98.681 Y98.31 E.00231
;WIDTH:0.486463
G1 X98.502 Y98.337 E.00633
;WIDTH:0.449847
G1 X98.363 Y98.359 E.00452
G1 E-3.5 F3600
;WIPE_START
G1 F900
G1 X98.264 Y98.182 E-.30502
G1 X98.176 Y98.074 E-.20872
G1 X98.088 Y97.966 E-.20872
G1 X97.999 Y97.858 E-.20872
G1 X97.911 Y97.751 E-.20872
G1 X97.997 Y97.764 E-.13013
G1 X98.149 Y97.746 E-.22857
G1 X98.15 Y97.746 E-.00139
;WIPE_END
G1 Z.6 F9000
G1 X95.679 Y96.638 Z.6
G1 Z.2
G1 E5 F2400
;WIDTH:0.585828
G1 F900
G1 X95.304 Y96.638 E.01608
G1 X95.379 Y96.568 E.0044
;WIDTH:0.542715
G1 X95.454 Y96.497 E.00405
;WIDTH:0.499601
G1 X95.529 Y96.427 E.0037
;WIDTH:0.456487
G1 X95.604 Y96.357 E.00335
;WIDTH:0.413366
G1 X95.679 Y96.287 E.003
G1 X95.754 Y96.357 E.003
;WIDTH:0.456472
G1 X95.829 Y96.427 E.00335
;WIDTH:0.499578
G1 X95.903 Y96.497 E.0037
;WIDTH:0.542684
G1 X95.978 Y96.568 E.00405
;WIDTH:0.58579
G1 X96.053 Y96.638 E.0044
;WIDTH:0.585828
G1 X95.719 Y96.638 E.01435
G1 E-3.5 F3600
;WIPE_START
G1 F900
G1 X95.304 Y96.638 E-.62255
G1 X95.379 Y96.568 E-.15397
G1 X95.454 Y96.497 E-.15396
G1 X95.529 Y96.427 E-.15396
G1 X95.604 Y96.357 E-.15396
G1 X95.679 Y96.287 E-.15397
G1 X95.731 Y96.336 E-.10763
;WIPE_END
G1 Z.6 F9000
G1 X92.873 Y97.789 Z.6
G1 Z.2
G1 E5 F2400
;WIDTH:0.413211
G1 F900
G1 X92.906 Y97.712 E.00246
;WIDTH:0.449856
G1 X93.084 Y97.739 E.00581
;WIDTH:0.4865
G1 X93.263 Y97.767 E.00633
;WIDTH:0.520816
G1 X93.324 Y97.761 E.00231
;WIDTH:0.555131
G1 X93.385 Y97.756 E.00247
;WIDTH:0.589446
G1 X93.446 Y97.75 E.00264
G1 X93.358 Y97.858 E.00601
;WIDTH:0.543712
G1 X93.27 Y97.966 E.00551
;WIDTH:0.497978
G1 X93.182 Y98.074 E.005
;WIDTH:0.452244
G1 X93.094 Y98.182 E.0045
;WIDTH:0.413232
G1 X93.033 Y98.365 E.00565
G1 X92.886 Y98.331 E.00442
;WIDTH:0.45537
G1 X92.788 Y98.33 E.0032
;WIDTH:0.497508
G1 X92.69 Y98.329 E.00352
;WIDTH:0.539646
G1 X92.592 Y98.328 E.00385
;WIDTH:0.581784
G1 X92.494 Y98.327 E.00418
G1 X92.567 Y98.243 E.00476
;WIDTH:0.537966
G1 X92.64 Y98.158 E.00437
;WIDTH:0.494147
G1 X92.713 Y98.074 E.00398
;WIDTH:0.450328
G1 X92.787 Y97.989 E.0036
;WIDTH:0.413211
G1 X92.857 Y97.826 E.00521
G1 E-3.5 F3600
;WIPE_START
G1 F900
G1 X92.906 Y97.712 E-.18608
G1 X93.084 Y97.739 E-.27118
G1 X93.263 Y97.767 E-.27118
G1 X93.324 Y97.761 E-.09167
G1 X93.385 Y97.756 E-.09167
G1 X93.446 Y97.75 E-.09167
G1 X93.358 Y97.858 E-.20875
G1 X93.27 Y97.966 E-.20875
G1 X93.236 Y98.007 E-.07905
;WIPE_END
G1 Z.6 F9000
G1 X95.679 Y103.66 Z.6
G1 Z.2
G1 E5 F2400
;TYPE:Outer wall
;WIDTH:0.521412
G1 F900
G1 X95.457 Y103.522 E.00988
;WIDTH:0.521525
G1 X93.497 Y98.7 E.19678
;WIDTH:0.533108
G1 X93.435 Y98.564 E.00577
G1 X93.459 Y98.368 E.00765
;WIDTH:0.499999
G1 X93.704 Y98.181 E.01114
G1 X95.561 Y97.066 E.0782
G1 X95.679 Y97.034 E.00441
G1 X95.796 Y97.066 E.00441
G1 X97.867 Y98.322 E.08746
;WIDTH:0.508438
G1 X97.926 Y98.445 E.005
;WIDTH:0.521412
G1 X97.922 Y98.547 E.00387
G1 X95.9 Y103.522 E.20296
G1 X95.713 Y103.639 E.00837
G1 E-3.5 F3600
;WIPE_START
G1 F900
G1 X95.457 Y103.522 E-.42178
G1 X95.186 Y102.856 E-1.07822
;WIPE_END
G1 Z.6 F9000
G1 X92.9 Y97.233 Z.6
G1 Z.2
G1 E5 F2400
;WIDTH:0.521524
G1 F900
G1 X91.733 Y94.361 E.1172
;WIDTH:0.566365
G1 X91.7 Y94.292 E.00318
;WIDTH:0.611206
G1 X91.667 Y94.222 E.00345
;WIDTH:0.656047
G1 X91.634 Y94.153 E.00372
;WIDTH:0.700888
G1 X91.601 Y94.084 E.00399
;WIDTH:0.745728
G1 X91.568 Y94.014 E.00426
;WIDTH:0.751479
G1 X91.604 Y93.937 E.00476
G1 X91.704 Y93.889 E.00622
;WIDTH:0.708131
G1 X91.804 Y93.841 E.00584
;WIDTH:0.664783
G1 X91.904 Y93.792 E.00546
;WIDTH:0.621455
G1 X95.53 Y91.617 E.19323
G1 X95.704 Y91.543 E.00865
G1 X99.453 Y93.792 E.19981
;WIDTH:0.66475
G1 X99.553 Y93.841 E.00546
;WIDTH:0.708065
G1 X99.653 Y93.889 E.00584
;WIDTH:0.75138
G1 X99.754 Y93.937 E.00622
G1 X99.799 Y94.036 E.0061
G1 X99.764 Y94.101 E.00413
;WIDTH:0.705388
G1 X99.729 Y94.166 E.00387
;WIDTH:0.659395
G1 X99.694 Y94.231 E.0036
;WIDTH:0.613402
G1 X99.659 Y94.296 E.00333
;WIDTH:0.567409
G1 X99.624 Y94.361 E.00306
;WIDTH:0.521502
G1 X98.471 Y97.196 E.1157
G1 X98.334 Y97.32 E.007
;WIDTH:0.502278
G1 X98.161 Y97.319 E.00626
;WIDTH:0.499999
G1 X95.679 Y95.83 E.10453
G1 X93.225 Y97.302 E.10332
G1 X93.088 Y97.334 E.00508
;WIDTH:0.521392
G1 X92.936 Y97.252 E.00654
G1 E-3.5 F3600
;WIPE_START
G1 F900
G1 X92.551 Y96.328 E-1.5
;WIPE_END
G1 Z.6 F9000
G1 X96.053 Y96.638 Z.6
G1 Z.2
G1 E5 F2400
;TYPE:Inner wall
;WIDTH:0.58579
G1 F900
G1 X97.911 Y97.751 E.09287
G1 E-3.5 F3600
;WIPE_START
G1 F900
G1 X97.054 Y97.237 E-1.5
;WIPE_END
G1 Z.6 F9000
G1 X100.098 Y94.488 Z.6
G1 Z.2
G1 E5 F2400
;TYPE:Outer wall
;WIDTH:0.613402
G1 F900
G1 X100.126 Y94.439 E.00255
;WIDTH:0.659395
G1 X100.156 Y94.388 E.00288
;WIDTH:0.705388
G1 X100.185 Y94.336 E.00309
;WIDTH:0.75138
G1 X100.214 Y94.285 E.00331
G1 X100.289 Y94.318 E.00455
;WIDTH:0.708065
G1 X100.363 Y94.351 E.00427
;WIDTH:0.664749
G1 X100.438 Y94.383 E.004
;WIDTH:0.621433
G1 X102.651 Y95.711 E.11796
G1 X103.011 Y95.995 E.02093
;WIDTH:0.617332
G1 X103.248 Y96.303 E.01765
G1 X103.407 Y96.658 E.01765
G1 X103.478 Y97.041 E.01766
G1 X103.458 Y97.429 E.01764
;WIDTH:0.621418
M73 P1 R16
G1 X103.35 Y97.805 E.01787
G1 X102.595 Y99.661 E.09157
G1 X102.542 Y99.731 E.00402
;WIDTH:0.60065
G1 X102.485 Y99.746 E.0026
;WIDTH:0.5671
G1 X102.427 Y99.762 E.00245
;WIDTH:0.53355
G1 X102.37 Y99.777 E.00229
;WIDTH:0.499999
G1 X102.21 Y99.748 E.00588
G1 X98.963 Y97.8 E.13672
G1 X98.87 Y97.694 E.00508
;WIDTH:0.521502
G1 X98.859 Y97.514 E.00684
G1 X100.067 Y94.541 E.1213
;WIDTH:0.567409
G1 X100.078 Y94.523 E.0009
G1 E-3.5 F3600
;WIPE_START
G1 F900
G1 X100.126 Y94.439 E-.14484
G1 X100.156 Y94.388 E-.08863
G1 X100.185 Y94.336 E-.08863
G1 X100.214 Y94.285 E-.08863
G1 X100.289 Y94.318 E-.12201
G1 X100.363 Y94.351 E-.12201
G1 X100.438 Y94.383 E-.12201
G1 X100.851 Y94.631 E-.72325
;WIPE_END
G1 Z.6 F9000
G1 X89.293 Y100.238 Z.6
G1 Z.2
G1 E5 F2400
;TYPE:Inner wall
;WIDTH:0.597002
G1 F900
G1 X89.216 Y100.303 E.00443
;WIDTH:0.563693
G1 X89.132 Y100.429 E.0062
;WIDTH:0.52824
G1 X89.049 Y100.554 E.00578
;WIDTH:0.492786
G1 X88.965 Y100.68 E.00535
;WIDTH:0.4678
G1 X88.923 Y100.952 E.00927
G1 X88.706 Y100.865 E.00783
;WIDTH:0.503719
G1 X88.549 Y100.871 E.00574
;WIDTH:0.542986
G1 X88.391 Y100.877 E.00623
;WIDTH:0.582252
G1 X88.234 Y100.882 E.00672
G1 X88.354 Y100.754 E.00749
;WIDTH:0.540612
G1 X88.474 Y100.626 E.00691
;WIDTH:0.498972
G1 X88.595 Y100.498 E.00633
;WIDTH:0.47984
G1 X88.71 Y100.158 E.0124
G1 X88.904 Y100.208 E.00693
;WIDTH:0.508642
G1 X89.034 Y100.218 E.00478
;WIDTH:0.552822
G1 X89.163 Y100.228 E.00523
;WIDTH:0.597002
G1 X89.253 Y100.235 E.00393
G1 E-3.5 F3600
;WIPE_START
G1 F900
G1 X89.216 Y100.303 E-.11704
G1 X89.132 Y100.429 E-.22602
G1 X89.049 Y100.554 E-.22602
G1 X88.965 Y100.68 E-.22602
G1 X88.923 Y100.952 E-.41432
G1 X88.743 Y100.88 E-.29059
;WIPE_END
G1 Z.6 F9000
G1 X92.505 Y97.631 Z.6
G1 Z.2
G1 E5 F2400
;TYPE:Outer wall
;WIDTH:0.502264
G1 F900
G1 X92.435 Y97.776 E.00583
;WIDTH:0.499999
G1 X89.147 Y99.748 E.13844
G1 X88.987 Y99.777 E.00588
;WIDTH:0.540476
G1 X88.918 Y99.753 E.00286
;WIDTH:0.580952
G1 X88.849 Y99.73 E.0031
;WIDTH:0.621428
G1 X88.78 Y99.706 E.00333
;WIDTH:0.621532
G1 X88.007 Y97.805 E.09381
G1 X87.889 Y97.362 E.02094
;WIDTH:0.617297
G1 X87.885 Y96.973 E.01765
G1 X87.971 Y96.594 E.01764
G1 X88.144 Y96.245 E.01766
G1 X88.402 Y95.941 E.0181
;WIDTH:0.621493
G1 X88.786 Y95.663 E.02164
G1 X90.919 Y94.383 E.1137
;WIDTH:0.664783
G1 X90.994 Y94.351 E.004
;WIDTH:0.708131
G1 X91.068 Y94.318 E.00428
;WIDTH:0.751479
G1 X91.143 Y94.285 E.00455
G1 X91.158 Y94.303 E.00134
;WIDTH:0.705488
G1 X91.174 Y94.321 E.00126
;WIDTH:0.659497
G1 X91.19 Y94.339 E.00117
;WIDTH:0.613506
G1 X91.206 Y94.357 E.00108
;WIDTH:0.567515
G1 X91.222 Y94.375 E.001
;WIDTH:0.521524
G1 X92.442 Y97.376 E.12248
;WIDTH:0.521392
G1 X92.495 Y97.592 E.0084
G1 X93.446 Y97.75 F9000
;TYPE:Inner wall
;WIDTH:0.589446
G1 F900
G1 X93.482 Y97.731 E.00178
;WIDTH:0.585864
G1 X95.304 Y96.638 E.09112
G1 E-3.5 F3600
;WIPE_START
G1 F900
G1 X94.446 Y97.152 E-1.5
;WIPE_END
G1 Z.6 F9000
G1 X91.319 Y93.342 Z.6
G1 Z.2
G1 E5 F2400
;TYPE:Outer wall
;WIDTH:0.52152
G1 F900
G1 X90.454 Y91.215 E.08682
;WIDTH:0.521393
G1 X90.338 Y90.791 E.01662
;WIDTH:0.521252
G1 X90.326 Y90.368 E.01598
;WIDTH:0.521999
G1 X90.416 Y89.948 E.01626
;WIDTH:0.52261
G1 X90.603 Y89.562 E.01627
;WIDTH:0.523129
G1 X90.877 Y89.231 E.01628
G1 X91.176 Y88.994 E.01447
;WIDTH:0.521484
G1 X95.554 Y86.338 E.19359
G1 X95.7 Y86.276 E.00598
G1 X100.207 Y89.01 E.19931
G1 X100.551 Y89.297 E.01693
;WIDTH:0.519831
G1 X100.787 Y89.611 E.01478
;WIDTH:0.521122
G1 X100.951 Y89.975 E.01509
;WIDTH:0.521965
G1 X101.031 Y90.385 E.0158
;WIDTH:0.522162
G1 X101.015 Y90.801 E.0158
G1 X100.891 Y91.245 E.01745
;WIDTH:0.52143
G1 X100.121 Y93.138 E.07724
;WIDTH:0.562923
G1 X100.103 Y93.187 E.00214
;WIDTH:0.604436
G1 X100.085 Y93.236 E.00231
;WIDTH:0.645949
G1 X100.067 Y93.285 E.00248
;WIDTH:0.687461
G1 X100.049 Y93.334 E.00265
;WIDTH:0.719421
G1 X100.011 Y93.364 E.00257
;WIDTH:0.75138
G1 X99.974 Y93.395 E.00269
G1 X99.9 Y93.362 E.00455
;WIDTH:0.708065
G1 X99.825 Y93.329 E.00427
;WIDTH:0.66475
G1 X99.751 Y93.296 E.004
;WIDTH:0.621455
G1 X96.125 Y91.121 E.19323
;WIDTH:0.665839
G1 X95.679 Y90.879 E.02499
G1 X95.232 Y91.121 E.02499
;WIDTH:0.621455
G1 X91.607 Y93.296 E.19323
;WIDTH:0.664783
G1 X91.532 Y93.329 E.004
;WIDTH:0.708131
G1 X91.458 Y93.362 E.00428
;WIDTH:0.751479
G1 X91.383 Y93.395 E.00455
G1 X91.37 Y93.384 E.00092
;WIDTH:0.705488
G1 X91.357 Y93.374 E.00086
;WIDTH:0.659496
G1 X91.35 Y93.368 E.00046
G1 E-3.5 F3600
;WIPE_START
G1 F900
G1 X90.966 Y92.444 E-1.5
;WIPE_END
G1 Z.6 F9000
G1 X95.857 Y116.459 Z.6
G1 Z.2
G1 E5 F2400
;TYPE:Inner wall
;WIDTH:0.426368
G1 F900
G1 X96.046 Y116.354 E.00656
G1 X95.679 Y117.258 E.02957
G1 X95.311 Y116.354 E.02957
G1 X95.679 Y116.557 E.01273
G1 X95.822 Y116.478 E.00495
G1 E-3.5 F3600
;WIPE_START
G1 F900
G1 X96.046 Y116.354 E-.38493
G1 X95.766 Y117.043 E-1.11507
;WIPE_END
G1 Z.6 F9000
G1 X95.91 Y130.483 Z.6
G1 Z.2
G1 E5 F2400
;WIDTH:0.644349
G1 F900
G1 X96.301 Y130.252 E.02153
G1 X95.678 Y131.719 E.07572
G1 X95.056 Y130.252 E.07571
G1 X95.679 Y130.62 E.03433
G1 X95.876 Y130.503 E.01091
G1 E-3.5 F3600
;WIPE_START
G1 F900
G1 X96.301 Y130.252 E-.7399
G1 X96.103 Y130.718 E-.7601
;WIPE_END
G1 Z.6 F9000
G1 X95.685 Y132.543 Z.6
G1 Z.2
G1 E5 F2400
;TYPE:Outer wall
;WIDTH:0.499999
G1 F900
G1 X95.693 Y132.541 E.00027
G1 X95.879 Y132.599 E.00705
;WIDTH:0.451563
G1 X96.065 Y132.657 E.0063
;WIDTH:0.403126
G1 X96.384 Y132.828 E.0103
;WIDTH:0.399165
G1 X96.599 Y133.032 E.00832
;WIDTH:0.398985
G1 X96.757 Y133.281 E.00831
;WIDTH:0.398728
G1 X96.85 Y133.562 E.00832
;WIDTH:0.398288
G1 X96.87 Y133.858 E.00831
;WIDTH:0.397842
G1 X96.817 Y134.149 E.00831
;WIDTH:0.397398
G1 X96.694 Y134.419 E.00831
;WIDTH:0.39674
G1 X96.508 Y134.651 E.0083
;WIDTH:0.396052
G1 X96.257 Y134.836 E.0087
;WIDTH:0.395085
G1 X95.966 Y134.949 E.00869
;WIDTH:0.394287
G1 X95.656 Y134.984 E.00866
;WIDTH:0.393521
G1 X95.347 Y134.937 E.00864
;WIDTH:0.392871
G1 X95.061 Y134.812 E.00862
;WIDTH:0.392253
G1 X94.818 Y134.617 E.00862
;WIDTH:0.391741
G1 X94.633 Y134.366 E.00858
;WIDTH:0.39145
G1 X94.519 Y134.075 E.00859
;WIDTH:0.391016
G1 X94.484 Y133.766 E.00857
;WIDTH:0.390865
G1 X94.531 Y133.457 E.00857
;WIDTH:0.390647
G1 X94.656 Y133.172 E.00856
G1 X94.85 Y132.928 E.00856
;WIDTH:0.390797
G1 X95.101 Y132.743 E.00857
;WIDTH:0.416503
G1 X95.245 Y132.673 E.00471
;WIDTH:0.442209
G1 X95.388 Y132.603 E.00503
;WIDTH:0.471104
G1 X95.54 Y132.572 E.00525
;WIDTH:0.499999
G1 X95.646 Y132.551 E.00389
G1 E-3.5 F3600
;WIPE_START
G1 F900
G1 X95.693 Y132.541 E-.07126
G1 X95.879 Y132.599 E-.29279
G1 X96.065 Y132.657 E-.29279
G1 X96.384 Y132.828 E-.54282
G1 X96.53 Y132.966 E-.30033
;WIPE_END
G1 Z.6 F9000
