; HEADER_BLOCK_START
; generated by OrcaSlicer 2.0.0 on 2024-06-07 at 14:42:50
; total layer number: 12
; filament_density: 1.27
; filament_diameter: 1.75
; max_z_height: 1.52
; HEADER_BLOCK_END

; THUMBNAIL_BLOCK_START

;
; THUMBNAIL_BLOCK_END

; external perimeters extrusion width = 0.40mm
; perimeters extrusion width = 0.45mm
; infill extrusion width = 0.45mm
; solid infill extrusion width = 0.40mm
; top infill extrusion width = 0.40mm
; first layer extrusion width = 0.50mm

; EXECUTABLE_BLOCK_START
EXCLUDE_OBJECT_DEFINE NAME=earrings-v2.stl_id_0_copy_0 CENTER=110,110 POLYGON=[[95.3328,104.734],[95.3404,103.865],[95.3827,102.996],[95.4597,102.129],[95.5713,101.266],[95.7175,100.406],[95.8982,99.5522],[96.1136,98.7042],[96.4722,97.596],[96.8947,96.5466],[97.3823,95.5575],[97.9359,94.6306],[98.5567,93.7676],[99.2458,92.9702],[100.004,92.24],[100.833,91.579],[101.734,90.9887],[102.707,90.4709],[103.754,90.0273],[104.875,89.6597],[105.72,89.4339],[106.572,89.2492],[107.43,89.1056],[108.293,89.003],[109.158,88.9414],[110.025,88.9209],[110.892,88.9414],[111.757,89.003],[112.62,89.1056],[113.478,89.2492],[114.33,89.4339],[115.175,89.6597],[115.612,89.7869],[116.043,89.9303],[116.468,90.0896],[116.886,90.2646],[117.297,90.4551],[117.7,90.6608],[118.096,90.8815],[118.483,91.117],[118.861,91.367],[119.23,91.6313],[119.589,91.9098],[119.938,92.2021],[120.275,92.5073],[120.601,92.8246],[120.913,93.1533],[121.213,93.4933],[121.5,93.844],[121.773,94.2052],[122.032,94.5763],[122.278,94.957],[122.509,95.347],[122.725,95.7458],[122.926,96.153],[123.113,96.5683],[123.381,97.1924],[123.62,97.8239],[123.832,98.4642],[124.018,99.1151],[124.178,99.7783],[124.314,100.455],[124.426,101.148],[124.515,101.857],[124.583,102.586],[124.63,103.334],[124.658,104.105],[124.667,104.899],[124.666,105.38],[124.646,105.878],[124.608,106.391],[124.553,106.918],[124.484,107.457],[124.401,108.008],[124.306,108.567],[124.201,109.134],[124.087,109.708],[123.965,110.285],[123.838,110.866],[123.707,111.447],[123.465,112.439],[123.203,113.421],[122.921,114.394],[122.616,115.356],[122.288,116.309],[121.935,117.25],[121.555,118.181],[121.147,119.099],[120.709,120.006],[120.24,120.9],[119.738,121.781],[119.201,122.649],[118.833,123.205],[118.451,123.749],[118.055,124.277],[117.642,124.789],[117.211,125.283],[116.761,125.757],[116.289,126.209],[112.009,130.295],[111.788,130.48],[111.549,130.644],[111.292,130.783],[111.018,130.898],[110.727,130.986],[110.418,131.048],[110.107,131.079],[109.81,131.078],[109.525,131.046],[109.253,130.985],[108.994,130.896],[108.748,130.78],[108.513,130.64],[108.291,130.475],[108.08,130.288],[102.958,125.298],[102.457,124.764],[101.984,124.213],[101.536,123.645],[101.111,123.058],[100.706,122.454],[100.321,121.832],[99.9514,121.191],[99.596,120.532],[99.2522,119.855],[98.8558,118.994],[98.4791,118.125],[98.1222,117.248],[97.7851,116.363],[97.4679,115.472],[97.1709,114.573],[96.894,113.669],[96.6374,112.758],[96.4013,111.841],[96.1856,110.919],[95.9906,109.993],[95.65,108.202],[95.5185,107.339],[95.4218,106.472],[95.36,105.604],[95.3328,104.734]]
M73 P0 R16
;TYPE:Custom
M117 ; clear display for KAMP meshing
START_PRINT BED_TEMP=80 EXTRUDER_TEMP=255
G90
G21
M83 ; use relative distances for extrusion
; filament start gcode
M106 S0
;LAYER_CHANGE
;Z:0.2
;HEIGHT:0.2
;BEFORE_LAYER_CHANGE
;0.2
G92 E0

G1 E-5 F3600
;_SET_FAN_SPEED_CHANGING_LAYER
SET_VELOCITY_LIMIT ACCEL=500 ACCEL_TO_DECEL=250
G1 Z.4 F9000
G1 X97.387 Y91.364
G1 Z.4
G1 Z.2
G1 E5 F2400
;TYPE:Skirt
;WIDTH:0.5
G1 F3000
G1 X98.3 Y90.47 E.04615
G1 X99.486 Y89.524 E.05477
G1 X100.58 Y88.82 E.04696
G1 X102.795 Y87.765 E.0886
G1 X104.11 Y87.325 E.05007
G1 X105.2 Y87.033 E.04073
G1 X107.14 Y86.666 E.0713
G1 X108.984 Y86.491 E.06687
G1 X110.95 Y86.485 E.07099
G1 X112.91 Y86.666 E.07107
G1 X114.85 Y87.033 E.0713
G1 X116.387 Y87.455 E.05755
G1 X117.919 Y88.035 E.05914
G1 X119.373 Y88.783 E.05902
G1 X120.735 Y89.69 E.05909
G1 X121.923 Y90.685 E.05595
G1 X123.056 Y91.868 E.05915
G1 X124.046 Y93.169 E.05902
G1 X124.885 Y94.574 E.05908
G1 X125.638 Y96.223 E.06547
G1 X126.195 Y97.79 E.06005
G1 X126.587 Y99.296 E.05616
G1 X126.953 Y101.55 E.08245
G1 X127.086 Y103.246 E.06144
G1 X127.121 Y105.48 E.08066
G1 X126.99 Y107.232 E.06345
G1 X126.616 Y109.582 E.08592
G1 X126.094 Y112.031 E.09041
G1 X125.281 Y115.078 E.11387
G1 X124.589 Y117.172 E.0796
G1 X123.801 Y119.178 E.07784
G1 X122.885 Y121.148 E.07843
G1 X121.827 Y123.073 E.07931
G1 X120.462 Y125.161 E.09007
G1 X119.062 Y126.899 E.08056
G1 X113.588 Y132.177 E.27457
G1 X112.722 Y132.802 E.03857
G1 X111.733 Y133.248 E.03915
G1 X110.663 Y133.493 E.03963
G1 X109.801 Y133.535 E.03116
G1 X108.986 Y133.443 E.02964
G1 X107.951 Y133.121 E.03912
G1 X107.248 Y132.746 E.02876
G1 X106.45 Y132.127 E.03648
G1 X100.593 Y126.365 E.29663
G1 X99.121 Y124.5 E.0858
G1 X97.823 Y122.419 E.08857
G1 X97.02 Y120.882 E.06259
G1 X95.826 Y118.123 E.10856
G1 X94.838 Y115.345 E.10645
G1 X94.258 Y113.371 E.07428
G1 X93.586 Y110.498 E.10652
G1 X93.089 Y107.709 E.10231
G1 X92.909 Y105.778 E.07
G1 X92.883 Y103.843 E.06988
G1 X93.023 Y101.814 E.07342
G1 X93.314 Y99.898 E.07
G1 X93.776 Y97.948 E.07236
G1 X94.615 Y95.629 E.08904
G1 X95.273 Y94.298 E.05361
G1 X95.941 Y93.196 E.04653
G1 X97.362 Y91.395 E.08282
; printing object earrings-v2.stl id:0 copy 0
G1 E-3.8 F3600
;WIPE_START
G1 F3000
G1 X98.074 Y90.693 E-1.2
;WIPE_END
EXCLUDE_OBJECT_START NAME=earrings-v2.stl_id_0_copy_0
G1 Z.6 F9000
G1 X112.193 Y119.628 Z.6
G1 Z.2
G1 E5 F2400
;TYPE:Inner wall
;WIDTH:0.389
G1 F900
G1 X112.11 Y119.589 E.0025
G1 X111.871 Y119.623 E.0066
;WIDTH:0.368252
G1 X111.566 Y119.775 E.00875
G1 X111.684 Y119.456 E.00875
;WIDTH:0.39011
G1 X111.646 Y119.142 E.00866
;WIDTH:0.401952
G1 X111.602 Y119.049 E.00292
G1 X111.678 Y119.12 E.00295
;WIDTH:0.39011
G1 X112.165 Y119.6 E.01875
G1 E-3.5 F3600
;WIPE_START
G1 F900
G1 X112.11 Y119.589 E-.08301
G1 X111.871 Y119.623 E-.36239
G1 X111.566 Y119.775 E-.51088
G1 X111.684 Y119.456 E-.51088
G1 X111.681 Y119.434 E-.03284
;WIPE_END
G1 Z.6 F9000
G1 X110.193 Y117.386 Z.6
G1 Z.2
G1 E5 F2400
;WIDTH:0.399668
G1 F900
G1 X109.736 Y117.178 E.01417
;WIDTH:0.373189
G1 X109.572 Y117.19 E.00428
;WIDTH:0.378454
G1 X109.379 Y117.266 E.00549
G1 X109.519 Y117.113 E.00549
;WIDTH:0.373189
G1 X109.588 Y116.964 E.00428
;WIDTH:0.40695
G1 X109.586 Y116.518 E.01282
G1 X109.875 Y116.919 E.01421
;WIDTH:0.399668
G1 X110.171 Y117.353 E.01479
G1 E-3.5 F3600
;WIPE_START
G1 F900
G1 X109.736 Y117.178 E-.70345
G1 X109.572 Y117.19 E-.24582
G1 X109.379 Y117.266 E-.31087
G1 X109.487 Y117.148 E-.23985
;WIPE_END
G1 Z.6 F9000
G1 X108.585 Y114.773 Z.6
G1 Z.2
G1 E5 F2400
;WIDTH:0.385736
G1 F900
G1 X108.168 Y114.493 E.0136
;WIDTH:0.369232
G1 X107.822 Y114.525 E.00895
;WIDTH:0.367665
G1 X107.968 Y114.395 E.00503
;WIDTH:0.390632
G1 X108.113 Y114.095 E.00914
;WIDTH:0.431734
G1 X108.121 Y113.849 E.00756
G1 X108.234 Y114.055 E.00722
;WIDTH:0.400483
G1 X108.346 Y114.262 E.00664
;WIDTH:0.385736
G1 X108.568 Y114.737 E.0142
G1 E-3.5 F3600
;WIPE_START
G1 F900
G1 X108.168 Y114.493 E-.70244
G1 X107.822 Y114.525 E-.52112
G1 X107.96 Y114.403 E-.27645
;WIPE_END
G1 Z.6 F9000
G1 X107.309 Y111.685 Z.6
G1 Z.2
G1 E5 F2400
;WIDTH:0.393702
G1 F900
G1 X107.355 Y111.84 E.0045
;WIDTH:0.406376
G1 X107.611 Y112.578 E.02241
G1 X107.81 Y113.042 E.01451
G1 X107.548 Y112.643 E.0137
;WIDTH:0.444732
G1 X107.121 Y112.37 E.0161
G1 X107.023 Y112.353 E.00316
G1 X107.111 Y112.306 E.00316
G1 X107.213 Y112.075 E.008
;WIDTH:0.419217
G1 X107.315 Y111.845 E.00749
;WIDTH:0.393702
G1 X107.311 Y111.725 E.00334
G1 E-3.5 F3600
;WIPE_START
G1 F900
G1 X107.355 Y111.84 E-.18592
G1 X107.611 Y112.578 E-1.17107
G1 X107.649 Y112.666 E-.143
;WIPE_END
G1 Z.6 F9000
G1 X106.41 Y108.396 Z.6
G1 Z.2
G1 E5 F2400
;WIDTH:0.414616
G1 F900
G1 X106.414 Y108.363 E.00098
G1 X106.539 Y108.845 E.01463
;WIDTH:0.400972
G1 X106.652 Y109.414 E.01641
G1 X106.307 Y109.031 E.01458
;WIDTH:0.374244
G1 X105.904 Y108.981 E.01063
;WIDTH:0.368647
G1 X106.01 Y108.949 E.00285
;WIDTH:0.374244
G1 X106.25 Y108.775 E.00775
;WIDTH:0.400177
G1 X106.395 Y108.5 E.00877
;WIDTH:0.414616
G1 X106.404 Y108.436 E.00192
G1 E-3.5 F3600
;WIPE_START
G1 F900
G1 X106.414 Y108.363 E-.11026
G1 X106.539 Y108.845 E-.74728
G1 X106.623 Y109.265 E-.64247
;WIPE_END
G1 Z.6 F9000
G1 X106.009 Y106.111 Z.6
G1 Z.2
G1 E5 F2400
;WIDTH:0.417422
G1 F900
G1 X105.908 Y105.936 E.00599
;WIDTH:0.396881
G1 X105.687 Y105.703 E.00898
;WIDTH:0.377349
G1 X105.544 Y105.634 E.0042
;WIDTH:0.375638
G1 X105.343 Y105.602 E.00533
G1 X105.535 Y105.535 E.00533
;WIDTH:0.377349
G1 X105.727 Y105.372 E.00664
;WIDTH:0.39644
G1 X105.868 Y105.021 E.01058
G1 X105.944 Y105.539 E.01463
;WIDTH:0.417422
G1 X106.005 Y106.072 E.01587
G1 E-3.5 F3600
;WIPE_START
G1 F900
G1 X105.908 Y105.936 E-.25002
G1 X105.687 Y105.703 E-.48186
G1 X105.544 Y105.634 E-.2385
G1 X105.343 Y105.602 E-.30444
G1 X105.485 Y105.552 E-.22517
;WIPE_END
G1 Z.6 F9000
G1 X105.642 Y102.628 Z.6
G1 Z.2
G1 E5 F2400
;WIDTH:0.372792
M73 P1 R16
G1 F900
G1 X105.543 Y102.352 E.00764
;WIDTH:0.364488
G1 X105.362 Y102.17 E.00652
;WIDTH:0.361939
G1 X105.089 Y102.072 E.00731
G1 X105.341 Y101.919 E.00743
;WIDTH:0.411262
G1 X105.559 Y101.545 E.01261
G1 X105.609 Y102.028 E.01414
;WIDTH:0.372792
G1 X105.64 Y102.588 E.0146
G1 E-3.5 F3600
;WIPE_START
G1 F900
G1 X105.543 Y102.352 E-.38287
G1 X105.362 Y102.17 E-.38514
G1 X105.089 Y102.072 E-.43527
G1 X105.258 Y101.97 E-.29671
;WIPE_END
G1 Z.6 F9000
G1 X105.069 Y95.33 Z.6
G1 Z.2
G1 E5 F2400
;WIDTH:0.378897
G1 F900
G1 X105.282 Y95.299 E.00571
;WIDTH:0.383813
G1 X105.426 Y95.23 E.0043
;WIDTH:0.430366
G1 X105.708 Y94.871 E.01398
G1 X105.69 Y95.385 E.01576
;WIDTH:0.418043
G1 X105.657 Y95.647 E.00782
;WIDTH:0.452272
G1 X105.624 Y95.909 E.00854
G1 X105.574 Y95.776 E.00459
;WIDTH:0.426341
G1 X105.524 Y95.643 E.0043
;WIDTH:0.40041
G1 X105.272 Y95.4 E.00989
;WIDTH:0.378897
G1 X105.106 Y95.343 E.00465
G1 E-3.5 F3600
;WIPE_START
G1 F900
G1 X105.282 Y95.299 E-.27095
G1 X105.426 Y95.23 E-.23971
G1 X105.708 Y94.871 E-.68507
G1 X105.701 Y95.073 E-.30426
;WIPE_END
G1 Z.6 F9000
G1 X112.617 Y127.968 Z.6
G1 Z.2
G1 E5 F2400
;WIDTH:0.499999
G1 F900
G1 X112.43 Y128.226 E.0115
G1 X112.206 Y128.774 E.02138
G1 X111.966 Y129.237 E.01882
G1 X111.66 Y129.636 E.01818
G1 X111.725 Y129.178 E.01669
G1 X111.616 Y128.786 E.01472
G1 X111.322 Y128.422 E.01689
G1 X111.126 Y128.313 E.00809
G1 X110.94 Y128.277 E.00683
;WIDTH:0.453785
G1 X110.754 Y128.24 E.00614
;WIDTH:0.40757
G1 X110.169 Y128.245 E.01686
;WIDTH:0.384925
G1 X109.559 Y128.241 E.01647
;WIDTH:0.420504
G1 X109.371 Y128.247 E.00561
;WIDTH:0.456082
G1 X109.183 Y128.252 E.00614
;WIDTH:0.49166
G1 X108.995 Y128.258 E.00667
;WIDTH:0.499999
G1 X108.63 Y128.479 E.01544
G1 X108.435 Y128.718 E.01113
G1 X108.289 Y129.139 E.01611
G1 X108.306 Y129.452 E.01131
G1 X108.094 Y129.197 E.01198
G1 X107.374 Y128.021 E.04978
G1 X107.024 Y127.616 E.01932
;WIDTH:0.493972
G1 X106.873 Y127.53 E.00618
;WIDTH:0.456498
G1 X106.723 Y127.444 E.00566
;WIDTH:0.419023
G1 X106.573 Y127.358 E.00515
;WIDTH:0.381548
G1 X105.924 Y126.959 E.02037
;WIDTH:0.367888
G1 X105.461 Y126.621 E.0147
;WIDTH:0.386472
G1 X105.313 Y126.483 E.00551
;WIDTH:0.42511
G1 X105.165 Y126.345 E.00613
;WIDTH:0.463748
G1 X105.016 Y126.206 E.00675
;WIDTH:0.505046
G1 X104.888 Y126.077 E.00663
;WIDTH:0.546343
G1 X104.761 Y125.947 E.00723
;WIDTH:0.58764
G1 X104.633 Y125.818 E.00782
G1 X104.792 Y125.824 E.00683
;WIDTH:0.546343
G1 X104.951 Y125.83 E.00631
;WIDTH:0.505046
G1 X105.109 Y125.836 E.0058
;WIDTH:0.463748
G1 X105.261 Y125.786 E.00531
;WIDTH:0.46193
G1 X105.343 Y125.715 E.00361
;WIDTH:0.430987
G1 X105.425 Y125.643 E.00334
G1 X105.387 Y125.745 E.00334
;WIDTH:0.46193
G1 X105.348 Y125.847 E.00361
;WIDTH:0.463748
G1 X105.384 Y126.115 E.00899
G1 X105.483 Y126.211 E.0046
;WIDTH:0.425455
G1 X105.583 Y126.308 E.00418
;WIDTH:0.387162
G1 X105.682 Y126.404 E.00377
;WIDTH:0.379365
G1 X106.384 Y126.862 E.02227
;WIDTH:0.400145
G1 X106.91 Y127.156 E.01702
;WIDTH:0.450072
G1 X107.128 Y127.284 E.00814
;WIDTH:0.499999
G1 X107.346 Y127.413 E.00914
G1 X107.879 Y127.616 E.02058
G1 X108.456 Y127.783 E.0217
G1 X109.044 Y127.885 E.02153
;WIDTH:0.471504
G1 X109.34 Y127.894 E.01004
;WIDTH:0.427045
G1 X109.637 Y127.903 E.009
;WIDTH:0.382585
G1 X110.231 Y127.908 E.01594
;WIDTH:0.409288
G1 X110.56 Y127.893 E.00954
;WIDTH:0.439018
G1 X110.889 Y127.877 E.01031
;WIDTH:0.469509
G1 X111.168 Y127.843 E.00948
;WIDTH:0.499999
G1 X111.447 Y127.808 E.01015
G1 X112.177 Y127.596 E.02744
G1 X112.658 Y127.406 E.01867
;WIDTH:0.476349
G1 X112.903 Y127.275 E.00951
;WIDTH:0.44263
G1 X113.148 Y127.144 E.00877
;WIDTH:0.4159
G1 X114.159 Y126.559 E.03439
;WIDTH:0.424926
G1 X115.14 Y125.828 E.03692
;WIDTH:0.421066
G1 X115.582 Y125.439 E.01759
G1 X116.046 Y124.996 E.01918
;WIDTH:0.424461
G1 X116.831 Y124.124 E.03536
;WIDTH:0.422789
G1 X117.397 Y123.416 E.02719
;WIDTH:0.450713
G1 X117.537 Y123.176 E.00895
;WIDTH:0.486803
G1 X117.559 Y123.083 E.00335
;WIDTH:0.522892
G1 X117.58 Y122.99 E.00363
;WIDTH:0.558981
G1 X117.602 Y122.897 E.0039
G1 X117.48 Y122.606 E.01284
G1 X117.795 Y122.604 E.01284
G1 X117.894 Y122.526 E.00517
;WIDTH:0.519794
G1 X117.994 Y122.447 E.00478
;WIDTH:0.480607
G1 X118.094 Y122.368 E.00439
;WIDTH:0.441419
G1 X118.324 Y122.062 E.01207
;WIDTH:0.427391
G1 X118.879 Y121.264 E.02952
;WIDTH:0.391862
G1 X119.379 Y120.43 E.02679
;WIDTH:0.385939
G1 X119.818 Y119.567 E.02624
;WIDTH:0.397381
G1 X120.083 Y118.98 E.01803
;WIDTH:0.437947
G1 X120.157 Y118.73 E.00813
;WIDTH:0.483158
G1 X120.161 Y118.614 E.00404
;WIDTH:0.528369
G1 X120.165 Y118.498 E.00445
G1 X120.062 Y118.33 E.00753
;WIDTH:0.497961
G1 X119.981 Y118.28 E.00343
;WIDTH:0.462181
G1 X119.9 Y118.229 E.00316
;WIDTH:0.426401
G1 X119.819 Y118.179 E.00289
G1 X119.912 Y118.201 E.00289
;WIDTH:0.462181
G1 X120.005 Y118.223 E.00316
;WIDTH:0.497961
G1 X120.098 Y118.246 E.00343
;WIDTH:0.528369
G1 X120.289 Y118.201 E.00753
G1 X120.367 Y118.111 E.00456
;WIDTH:0.493092
G1 X120.445 Y118.021 E.00423
;WIDTH:0.457815
G1 X120.522 Y117.931 E.0039
;WIDTH:0.422537
G1 X120.605 Y117.766 E.00554
;WIDTH:0.414891
G1 X121.036 Y116.838 E.03005
;WIDTH:0.381935
G1 X121.437 Y115.816 E.02941
;WIDTH:0.375184
G1 X121.777 Y114.771 E.02883
;WIDTH:0.404531
G1 X122.05 Y113.732 E.03071
;WIDTH:0.444759
G1 X122.053 Y113.579 E.00485
;WIDTH:0.484987
G1 X122.056 Y113.426 E.00534
;WIDTH:0.525214
G1 X122.059 Y113.273 E.00582
G1 X121.925 Y113.096 E.00847
;WIDTH:0.510339
G1 X121.789 Y113.035 E.00551
;WIDTH:0.461594
G1 X121.652 Y112.975 E.00493
G1 X121.8 Y112.992 E.00493
;WIDTH:0.510339
G1 X121.949 Y113.009 E.00551
;WIDTH:0.534105
G1 X122.141 Y112.936 E.00799
G1 X122.217 Y112.806 E.00584
;WIDTH:0.491727
G1 X122.293 Y112.676 E.00533
;WIDTH:0.449349
G1 X122.369 Y112.546 E.00483
;WIDTH:0.40697
G1 X122.701 Y111.492 E.03178
;WIDTH:0.369276
G1 X122.947 Y110.501 E.02631
;WIDTH:0.368993
G1 X123.143 Y109.49 E.02654
;WIDTH:0.408575
G1 X123.283 Y108.449 E.03033
;WIDTH:0.45239
G1 X123.265 Y108.292 E.00512
;WIDTH:0.496204
G1 X123.248 Y108.134 E.00567
;WIDTH:0.540018
G1 X123.23 Y107.977 E.00622
G1 X123.111 Y107.844 E.00699
G1 X122.978 Y107.765 E.00607
G1 X123.129 Y107.731 E.00607
G1 X123.282 Y107.64 E.00699
G1 X123.348 Y107.491 E.0064
;WIDTH:0.49634
G1 X123.414 Y107.342 E.00584
;WIDTH:0.452662
G1 X123.48 Y107.193 E.00528
;WIDTH:0.408983
G1 X123.614 Y106.301 E.02606
;WIDTH:0.389176
G1 X123.666 Y105.716 E.01608
;WIDTH:0.377323
G1 X123.687 Y104.915 E.02118
;WIDTH:0.381422
G1 X123.666 Y104.278 E.01703
;WIDTH:0.42206
G1 X123.623 Y104.148 E.00409
;WIDTH:0.462698
G1 X123.581 Y104.018 E.00453
;WIDTH:0.503336
G1 X123.538 Y103.889 E.00497
;WIDTH:0.543973
G1 X123.495 Y103.759 E.00541
G1 X123.209 Y103.624 E.01252
;WIDTH:0.524549
G1 X123.098 Y103.614 E.00425
;WIDTH:0.488868
G1 X122.986 Y103.605 E.00394
;WIDTH:0.453186
G1 X122.875 Y103.596 E.00362
G1 X122.985 Y103.594 E.00358
;WIDTH:0.488868
G1 X123.096 Y103.592 E.00389
;WIDTH:0.524549
G1 X123.206 Y103.59 E.0042
;WIDTH:0.543973
G1 X123.464 Y103.406 E.01252
G1 X123.493 Y103.315 E.00381
;WIDTH:0.509492
G1 X123.522 Y103.223 E.00355
;WIDTH:0.47501
G1 X123.552 Y103.131 E.00329
;WIDTH:0.440528
