; HEADER_BLOCK_START
; generated by OrcaSlicer 2.0.0 on 2024-05-08 at 10:29:32
; total layer number: 10
; filament_density: 1.24
; filament_diameter: 1.75
; max_z_height: 2.00
; HEADER_BLOCK_END

; THUMBNAIL_BLOCK_START

;
; THUMBNAIL_BLOCK_END

; external perimeters extrusion width = 0.40mm
; perimeters extrusion width = 0.45mm
; infill extrusion width = 0.45mm
; solid infill extrusion width = 0.40mm
; top infill extrusion width = 0.40mm
; support material extrusion width = 0.40mm
; first layer extrusion width = 0.50mm

; external perimeters extrusion width = 0.40mm
; perimeters extrusion width = 0.45mm
; infill extrusion width = 0.45mm
; solid infill extrusion width = 0.40mm
; top infill extrusion width = 0.40mm
; support material extrusion width = 0.40mm
; first layer extrusion width = 0.50mm

; EXECUTABLE_BLOCK_START
EXCLUDE_OBJECT_DEFINE NAME=BO_LOSANGES.stl_id_0_copy_0 CENTER=110,110 POLYGON=[[98.15,103.925],[99.525,102.15],[106.591,93.24],[110.15,89],[112.136,91.265],[116.141,96.287],[120.075,101.403],[121.85,103.95],[121.85,115.925],[121.394,116.737],[120.3,118.3],[114.7,125.466],[110.225,131],[109.325,130.075],[103.691,123.091],[98.75,116.65],[98.25,115.825],[98.15,103.925]]
EXCLUDE_OBJECT_DEFINE NAME=BO_LOSANGES.stl_id_1_copy_0 CENTER=86.45,107.5 POLYGON=[[74.6,101.425],[75.975,99.65],[83.041,90.74],[86.6,86.5],[88.586,88.765],[92.591,93.787],[96.525,98.903],[98.3,101.45],[98.3,113.425],[97.844,114.237],[96.75,115.8],[91.15,122.966],[86.675,128.5],[85.775,127.575],[80.141,120.591],[75.2,114.15],[74.7,113.325],[74.6,101.425]]
M73 P0 R18
;TYPE:Custom
M117 ; clear display for KAMP meshing
START_PRINT BED_TEMP=60 EXTRUDER_TEMP=220
G90
G21
M83 ; use relative distances for extrusion
; filament start gcode
M106 S0
;LAYER_CHANGE
;Z:0.2
;HEIGHT:0.2
;BEFORE_LAYER_CHANGE
;0.2
G92 E0

G1 E-5 F3600
;_SET_FAN_SPEED_CHANGING_LAYER
SET_VELOCITY_LIMIT ACCEL=500 ACCEL_TO_DECEL=250
; printing object BO LOSANGES.stl id:0 copy 0
EXCLUDE_OBJECT_START NAME=BO_LOSANGES.stl_id_0_copy_0
G1 Z.4 F9000
G1 X110.132 Y117.017
G1 Z.4
G1 Z.2
G1 E5 F2400
;TYPE:Inner wall
;WIDTH:0.660454
G1 F900
G1 X109.895 Y116.736 E.01849
G1 X109.765 Y116.617 E.00885
;WIDTH:0.616758
G1 X109.636 Y116.498 E.00822
;WIDTH:0.573062
G1 X109.507 Y116.378 E.00759
;WIDTH:0.529366
G1 X109.378 Y116.259 E.00697
;WIDTH:0.48567
G1 X109.249 Y116.14 E.00634
;WIDTH:0.441974
G1 X109.12 Y116.021 E.00572
;WIDTH:0.398278
G1 X108.662 Y115.501 E.02005
;WIDTH:0.369298
G1 X108.204 Y114.982 E.01842
;WIDTH:0.373189
G1 X106.097 Y112.456 E.08852
;WIDTH:0.41195
G1 X105.64 Y111.952 E.02046
;WIDTH:0.450711
G1 X105.184 Y111.447 E.0226
;WIDTH:0.499999
G1 X104.759 Y111.144 E.01945
G1 X104.332 Y111.078 E.01611
G1 X104.036 Y111.129 E.01119
G1 X103.618 Y111.365 E.01785
G1 X103.382 Y111.612 E.01273
;WIDTH:0.45289
G1 X103.146 Y111.858 E.01141
;WIDTH:0.405781
G1 X102.909 Y112.105 E.0101
;WIDTH:0.358672
G1 X101.88 Y113.385 E.04227
;WIDTH:0.325035
G1 X101.495 Y113.913 E.01502
;WIDTH:0.357946
G1 X100.812 Y114.851 E.02978
;WIDTH:0.399921
G1 X100.598 Y115.222 E.01247
;WIDTH:0.441896
G1 X100.384 Y115.594 E.01394
;WIDTH:0.485774
G1 X100.305 Y115.774 E.0071
;WIDTH:0.529652
G1 X100.227 Y115.955 E.0078
;WIDTH:0.569966
G1 X100.313 Y116.376 E.01846
;WIDTH:0.61028
G1 X100.399 Y116.797 E.01987
G1 X100.041 Y116.355 E.02628
;WIDTH:0.569966
G1 X99.683 Y115.914 E.02441
;WIDTH:0.529652
G1 X99.89 Y115.617 E.01436
;WIDTH:0.485774
G1 X100.05 Y115.379 E.01036
;WIDTH:0.441896
G1 X100.354 Y114.956 E.01695
;WIDTH:0.394362
G1 X100.659 Y114.532 E.01493
;WIDTH:0.346828
G1 X101.287 Y113.72 E.02543
;WIDTH:0.324547
G1 X101.681 Y113.19 E.01515
;WIDTH:0.358672
G1 X102.661 Y111.91 E.04148
;WIDTH:0.400647
G1 X102.796 Y111.761 E.00586
;WIDTH:0.442622
G1 X102.93 Y111.612 E.00654
;WIDTH:0.471311
G1 X103.108 Y111.349 E.01107
;WIDTH:0.499999
G1 X103.285 Y111.086 E.01182
G1 X103.674 Y110.428 E.02848
G1 X103.763 Y110.083 E.01326
G1 X103.719 Y109.645 E.0164
G1 X103.604 Y109.386 E.01056
G1 X103.277 Y108.842 E.02364
G1 X102.922 Y108.302 E.02407
;WIDTH:0.450021
G1 X102.823 Y108.188 E.00503
;WIDTH:0.420809
G1 X102.723 Y108.073 E.00467
;WIDTH:0.391597
G1 X102.235 Y107.444 E.02261
;WIDTH:0.406933
G1 X102.215 Y107.377 E.0021
;WIDTH:0.454333
G1 X102.194 Y107.309 E.00237
;WIDTH:0.501733
G1 X102.173 Y107.242 E.00264
;WIDTH:0.549134
G1 X102.153 Y107.174 E.00292
;WIDTH:0.596534
G1 X102.132 Y107.106 E.00319
;WIDTH:0.643934
G1 X102.111 Y107.039 E.00346
G1 X102.173 Y107.073 E.00346
;WIDTH:0.596534
G1 X102.235 Y107.108 E.00319
;WIDTH:0.549134
G1 X102.296 Y107.142 E.00292
;WIDTH:0.501733
G1 X102.358 Y107.177 E.00264
;WIDTH:0.454333
G1 X102.42 Y107.211 E.00237
;WIDTH:0.406933
G1 X102.482 Y107.246 E.0021
;WIDTH:0.404777
G1 X102.836 Y107.665 E.01619
;WIDTH:0.450021
G1 X103.19 Y108.084 E.01821
;WIDTH:0.499999
G1 X103.647 Y108.541 E.02407
G1 X104.075 Y108.791 E.01846
G1 X104.354 Y108.843 E.01056
G1 X104.752 Y108.797 E.01496
G1 X105.109 Y108.617 E.01486
G1 X105.337 Y108.405 E.0116
;WIDTH:0.450708
G1 X105.565 Y108.193 E.01035
;WIDTH:0.401417
G1 X106.333 Y107.322 E.03392
;WIDTH:0.353187
G1 X108.707 Y104.43 E.09461
;WIDTH:0.360541
G1 X108.908 Y104.217 E.00758
;WIDTH:0.397887
G1 X109.109 Y104.004 E.00847
;WIDTH:0.435233
G1 X109.31 Y103.79 E.00936
;WIDTH:0.477206
G1 X109.409 Y103.703 E.0047
;WIDTH:0.519178
G1 X109.509 Y103.615 E.00516
;WIDTH:0.56115
G1 X109.609 Y103.527 E.00561
;WIDTH:0.603123
G1 X109.709 Y103.44 E.00607
;WIDTH:0.645095
G1 X109.809 Y103.352 E.00652
;WIDTH:0.687067
G1 X109.909 Y103.264 E.00698
G1 X110.155 Y102.966 E.02031
G1 X110.404 Y103.263 E.02031
G1 X110.521 Y103.366 E.0082
;WIDTH:0.638814
G1 X110.639 Y103.469 E.00759
;WIDTH:0.59056
G1 X110.756 Y103.572 E.00697
;WIDTH:0.542307
G1 X110.874 Y103.674 E.00636
;WIDTH:0.494053
G1 X110.992 Y103.777 E.00574
;WIDTH:0.445799
G1 X111.244 Y104.044 E.01204
;WIDTH:0.401734
G1 X111.495 Y104.311 E.01073
;WIDTH:0.357669
G1 X111.996 Y104.907 E.01997
;WIDTH:0.398356
G1 X112.016 Y104.964 E.00176
;WIDTH:0.442362
G1 X112.035 Y105.022 E.00198
;WIDTH:0.486368
G1 X112.055 Y105.08 E.0022
;WIDTH:0.530374
G1 X112.075 Y105.137 E.00242
;WIDTH:0.57438
G1 X112.094 Y105.195 E.00263
;WIDTH:0.618386
G1 X112.114 Y105.252 E.00285
;WIDTH:0.662392
G1 X112.133 Y105.31 E.00307
G1 X112.08 Y105.281 E.00307
;WIDTH:0.618386
G1 X112.026 Y105.252 E.00285
;WIDTH:0.57438
G1 X111.973 Y105.223 E.00263
;WIDTH:0.530374
G1 X111.919 Y105.194 E.00242
;WIDTH:0.486368
G1 X111.866 Y105.166 E.0022
;WIDTH:0.442362
G1 X111.812 Y105.137 E.00198
;WIDTH:0.398356
G1 X111.759 Y105.108 E.00176
;WIDTH:0.366959
G1 X111.133 Y104.386 E.02523
;WIDTH:0.406379
G1 X110.932 Y104.232 E.00749
;WIDTH:0.445799
G1 X110.731 Y104.078 E.0083
;WIDTH:0.494053
G1 X110.616 Y104.021 E.00474
;WIDTH:0.542307
G1 X110.501 Y103.964 E.00524
;WIDTH:0.59056
G1 X110.385 Y103.906 E.00575
;WIDTH:0.638814
G1 X110.27 Y103.849 E.00626
;WIDTH:0.687067
G1 X110.154 Y103.792 E.00676
G1 X110.056 Y103.84 E.00576
;WIDTH:0.645095
G1 X109.958 Y103.889 E.00539
;WIDTH:0.603123
G1 X109.859 Y103.937 E.00501
;WIDTH:0.56115
G1 X109.761 Y103.986 E.00464
;WIDTH:0.519178
G1 X109.662 Y104.034 E.00426
;WIDTH:0.477206
G1 X109.564 Y104.083 E.00388
;WIDTH:0.435233
G1 X109.369 Y104.226 E.00773
;WIDTH:0.395446
G1 X109.174 Y104.369 E.00695
;WIDTH:0.355659
G1 X108.913 Y104.622 E.00926
;WIDTH:0.353187
G1 X106.274 Y107.889 E.10619
;WIDTH:0.380788
G1 X106.022 Y108.198 E.01097
;WIDTH:0.408389
G1 X105.77 Y108.507 E.01187
;WIDTH:0.454194
G1 X105.583 Y108.709 E.00922
;WIDTH:0.499999
G1 X105.397 Y108.911 E.01024
G1 X104.978 Y109.485 E.02647
G1 X104.86 Y109.892 E.01578
G1 X104.897 Y110.305 E.01544
G1 X105.089 Y110.692 E.01611
G1 X105.494 Y111.183 E.02368
;WIDTH:0.450711
G1 X105.929 Y111.722 E.02303
;WIDTH:0.413312
G1 X106.364 Y112.262 E.02092
;WIDTH:0.375912
G1 X108.427 Y114.789 E.08852
;WIDTH:0.368202
G1 X108.933 Y115.316 E.01936
;WIDTH:0.398278
G1 X109.44 Y115.842 E.02115
;WIDTH:0.441974
G1 X109.556 Y115.906 E.00431
;WIDTH:0.48567
G1 X109.671 Y115.97 E.00478
;WIDTH:0.529366
G1 X109.787 Y116.035 E.00525
;WIDTH:0.573062
G1 X109.903 Y116.099 E.00572
;WIDTH:0.616758
G1 X110.019 Y116.164 E.0062
;WIDTH:0.660454
G1 X110.135 Y116.228 E.00667
G1 X110.265 Y116.152 E.00762
;WIDTH:0.613896
G1 X110.396 Y116.075 E.00704
;WIDTH:0.567337
G1 X110.526 Y115.999 E.00647
;WIDTH:0.520779
G1 X110.657 Y115.922 E.00589
;WIDTH:0.47422
G1 X110.788 Y115.846 E.00532
;WIDTH:0.427662
G1 X110.918 Y115.769 E.00475
;WIDTH:0.381103
G1 X111.664 Y114.986 E.0298
;WIDTH:0.346698
G1 X113.171 Y113.159 E.05863
;WIDTH:0.358729
G1 X113.865 Y112.3 E.02842
;WIDTH:0.387526
G1 X114.316 Y111.76 E.01975
;WIDTH:0.416323
G1 X114.766 Y111.22 E.0214
;WIDTH:0.458161
G1 X115.006 Y110.954 E.01209
;WIDTH:0.499999
G1 X115.245 Y110.689 E.01331
G1 X115.433 Y110.348 E.0145
G1 X115.492 Y109.893 E.01708
G1 X115.415 Y109.554 E.01295
;WIDTH:0.549
G1 X115.247 Y109.263 E.01385
;WIDTH:0.598
G1 X115.08 Y108.972 E.01519
G1 X115.226 Y109.046 E.00742
;WIDTH:0.556004
G1 X115.373 Y109.119 E.00686
;WIDTH:0.514007
G1 X115.69 Y109.212 E.01269
;WIDTH:0.499999
G1 X116.157 Y109.192 E.01739
G1 X116.409 Y109.092 E.01011
;WIDTH:0.494179
G1 X116.516 Y108.979 E.00572
;WIDTH:0.457552
G1 X116.623 Y108.866 E.00526
;WIDTH:0.420924
G1 X116.73 Y108.753 E.0048
;WIDTH:0.384296
G1 X117.992 Y107.101 E.05783
;WIDTH:0.340085
G1 X118.603 Y106.248 E.0254
;WIDTH:0.345343
G1 X119.535 Y104.956 E.03926
;WIDTH:0.375753
G1 X119.696 Y104.672 E.00885
;WIDTH:0.419272
G1 X119.782 Y104.445 E.00746
;WIDTH:0.46279
G1 X119.869 Y104.218 E.00832
;WIDTH:0.506308
G1 X119.955 Y103.991 E.00918
G1 X119.908 Y103.846 E.00574
;WIDTH:0.468372
G1 X119.861 Y103.702 E.00527
;WIDTH:0.430436
G1 X119.814 Y103.557 E.0048
;WIDTH:0.3925
G1 X119.767 Y103.413 E.00433
;WIDTH:0.354564
G1 X119.546 Y103.012 E.01161
;WIDTH:0.322856
G1 X119.325 Y102.612 E.01043
;WIDTH:0.295391
G1 X119.017 Y102.183 E.01087
;WIDTH:0.31966
G1 X114.702 Y96.643 E.15835
;WIDTH:0.364909
G1 X110.915 Y92.014 E.15692
;WIDTH:0.408369
G1 X110.764 Y91.918 E.00532
;WIDTH:0.451828
G1 X110.613 Y91.822 E.00596
;WIDTH:0.495288
G1 X110.463 Y91.726 E.00659
;WIDTH:0.538747
G1 X110.312 Y91.63 E.00722
;WIDTH:0.582206
G1 X110.161 Y91.534 E.00786
G1 X109.211 Y91.964 E.04579
G1 X110.173 Y90.855 E.06451
G1 X110.377 Y91.087 E.01358
G1 X110.539 Y91.237 E.00969
;WIDTH:0.538139
G1 X110.701 Y91.387 E.0089
;WIDTH:0.494071
G1 X110.863 Y91.536 E.00811
;WIDTH:0.450003
G1 X111.025 Y91.686 E.00732
;WIDTH:0.405935
G1 X111.187 Y91.835 E.00652
;WIDTH:0.361867
G1 X114.924 Y96.481 E.15494
;WIDTH:0.31966
G1 X119.218 Y102.03 E.15823
;WIDTH:0.295391
G1 X119.537 Y102.485 E.01143
;WIDTH:0.324541
G1 X119.797 Y102.887 E.01099
;WIDTH:0.357933
G1 X120.057 Y103.289 E.01229
;WIDTH:0.407392
G1 X120.192 Y103.526 E.00809
;WIDTH:0.45685
G1 X120.327 Y103.763 E.00919
;WIDTH:0.506308
G1 X120.462 Y104 E.01029
G1 X120.346 Y104.214 E.00921
;WIDTH:0.477458
G1 X120.231 Y104.429 E.00863
;WIDTH:0.448607
G1 X120.08 Y104.664 E.00922
;WIDTH:0.414186
G1 X119.93 Y104.899 E.00843
;WIDTH:0.379765
G1 X119.78 Y105.133 E.00765
;WIDTH:0.345343
G1 X118.847 Y106.415 E.03907
;WIDTH:0.339528
G1 X118.232 Y107.275 E.02554
;WIDTH:0.384296
G1 X117.003 Y108.957 E.05795
;WIDTH:0.420924
G1 X116.884 Y109.092 E.00555
;WIDTH:0.457552
G1 X116.765 Y109.227 E.00609
;WIDTH:0.494179
G1 X116.646 Y109.363 E.00663
;WIDTH:0.499999
G1 X116.513 Y109.599 E.01011
G1 X116.451 Y109.81 E.00818
G1 X116.433 Y110.094 E.0106
G1 X116.548 Y110.528 E.01673
G1 X116.94 Y111.09 E.02553
G1 X117.15 Y111.344 E.01225
;WIDTH:0.465663
G1 X117.359 Y111.598 E.01133
;WIDTH:0.431327
G1 X117.569 Y111.851 E.01041
;WIDTH:0.396991
G1 X118.167 Y112.628 E.02829
;WIDTH:0.40687
G1 X118.188 Y112.695 E.0021
;WIDTH:0.454468
G1 X118.208 Y112.763 E.00237
;WIDTH:0.502065
G1 X118.229 Y112.831 E.00265
;WIDTH:0.549663
G1 X118.249 Y112.899 E.00292
;WIDTH:0.597261
G1 X118.27 Y112.966 E.0032
;WIDTH:0.644858
G1 X118.291 Y113.034 E.00347
G1 X118.229 Y112.999 E.00347
;WIDTH:0.597261
G1 X118.167 Y112.965 E.0032
;WIDTH:0.549663
G1 X118.106 Y112.93 E.00292
;WIDTH:0.502065
G1 X118.044 Y112.895 E.00265
;WIDTH:0.454468
G1 X117.982 Y112.86 E.00237
;WIDTH:0.40687
G1 X117.921 Y112.826 E.0021
;WIDTH:0.406725
G1 X117.209 Y111.98 E.03276
;WIDTH:0.453362
G1 X116.915 Y111.679 E.01408
;WIDTH:0.499999
G1 X116.621 Y111.378 E.01568
G1 X116.293 Y111.167 E.01454
G1 X115.92 Y111.079 E.01425
G1 X115.533 Y111.122 E.0145
G1 X115.291 Y111.293 E.01107
;WIDTH:0.458161
G1 X115.048 Y111.465 E.01005
;WIDTH:0.416323
G1 X114.578 Y111.983 E.02129
;WIDTH:0.388466
G1 X114.109 Y112.502 E.0197
;WIDTH:0.360608
G1 X113.4 Y113.358 E.02878
;WIDTH:0.346698
G1 X111.885 Y115.176 E.05857
;WIDTH:0.381103
G1 X111.102 Y116.073 E.03281
;WIDTH:0.427662
G1 X110.979 Y116.183 E.00517
;WIDTH:0.47422
G1 X110.857 Y116.293 E.00579
;WIDTH:0.520779
G1 X110.734 Y116.404 E.00642
;WIDTH:0.567337
G1 X110.612 Y116.514 E.00704
;WIDTH:0.613896
G1 X110.49 Y116.625 E.00767
;WIDTH:0.660454
G1 X110.367 Y116.735 E.00829
G1 X110.157 Y116.986 E.01647
G1 E-3.5 F3600
;WIPE_START
G1 F900
G1 X109.895 Y116.736 E-.54392
G1 X109.765 Y116.617 E-.26371
G1 X109.636 Y116.498 E-.26371
G1 X109.507 Y116.378 E-.26371
G1 X109.426 Y116.304 E-.16495
;WIPE_END
G1 Z.6 F9000
G1 X120.237 Y115.576 Z.6
M73 P1 R18
G1 Z.2
G1 E5 F2400
;WIDTH:0.54365
G1 F900
G1 X120.322 Y115.67 E.00517
;WIDTH:0.499161
G1 X120.407 Y115.765 E.00471
;WIDTH:0.454672
G1 X120.491 Y115.859 E.00425
;WIDTH:0.410183
G1 X120.576 Y115.953 E.00379
;WIDTH:0.365693
G1 X120.46 Y116.158 E.00618
;WIDTH:0.408991
G1 X120.265 Y116.4 E.00928
;WIDTH:0.452288
G1 X120.069 Y116.641 E.01038
G1 X120.147 Y116.358 E.00981
;WIDTH:0.408991
G1 X120.225 Y116.075 E.00877
;WIDTH:0.410183
G1 X120.228 Y115.95 E.00373
;WIDTH:0.454672
G1 X120.231 Y115.825 E.00418
;WIDTH:0.499161
G1 X120.234 Y115.701 E.00463
;WIDTH:0.54365
G1 X120.236 Y115.616 E.00345
G1 E-3.5 F3600
;WIPE_START
G1 F900
G1 X120.322 Y115.67 E-.15213
G1 X120.407 Y115.765 E-.19012
G1 X120.491 Y115.859 E-.19012
G1 X120.576 Y115.953 E-.19012
G1 X120.46 Y116.158 E-.35257
G1 X120.282 Y116.378 E-.42493
;WIPE_END
G1 Z.6 F9000
G1 X109.035 Y127.452 Z.6
G1 Z.2
G1 E5 F2400
;WIDTH:0.361078
G1 F900
G1 X108.798 Y127.678 E.0085
G1 X108.585 Y127.417 E.00875
;WIDTH:0.406422
G1 X108.562 Y127.349 E.0021
;WIDTH:0.455434
G1 X108.539 Y127.282 E.00239
;WIDTH:0.504446
G1 X108.516 Y127.215 E.00267
;WIDTH:0.553458
G1 X108.493 Y127.148 E.00295
;WIDTH:0.60247
G1 X108.471 Y127.08 E.00324
;WIDTH:0.651482
G1 X108.448 Y127.013 E.00352
G1 X108.511 Y127.046 E.00352
;WIDTH:0.60247
G1 X108.573 Y127.08 E.00324
;WIDTH:0.553458
G1 X108.636 Y127.113 E.00295
;WIDTH:0.504446
G1 X108.699 Y127.146 E.00267
;WIDTH:0.455434
G1 X108.761 Y127.18 E.00239
;WIDTH:0.406422
G1 X108.824 Y127.213 E.0021
;WIDTH:0.361078
G1 X109.009 Y127.422 E.00723
G1 E-3.5 F3600
;WIPE_START
G1 F900
G1 X108.798 Y127.678 E-.49792
G1 X108.585 Y127.417 E-.50649
G1 X108.562 Y127.349 E-.10651
G1 X108.539 Y127.282 E-.10651
G1 X108.516 Y127.215 E-.10651
G1 X108.493 Y127.148 E-.10651
G1 X108.479 Y127.104 E-.06954
;WIPE_END
G1 Z.6 F9000
G1 X109.825 Y115.558 Z.6
G1 Z.2
G1 E5 F2400
;WIDTH:0.499999
G1 F900
G1 X109.667 Y115.492 E.00639
G1 X108.705 Y114.536 E.0505
G1 X106.668 Y112.011 E.12082
G1 X105.453 Y110.415 E.07473
G1 X105.337 Y110.183 E.00967
G1 X105.315 Y109.935 E.00927
G1 X105.345 Y109.792 E.00543
G1 X105.457 Y109.579 E.00898
G1 X106.87 Y107.762 E.08573
G1 X109.2 Y104.852 E.13886
G1 X109.376 Y104.697 E.00872
G1 X109.786 Y104.444 E.01796
G1 X110.151 Y104.342 E.01409
G1 X110.506 Y104.444 E.01376
G1 X110.961 Y104.764 E.02073
G1 X113.122 Y107.302 E.12416
G1 X114.891 Y109.551 E.10658
G1 X115.029 Y109.867 E.01284
G1 X115 Y110.199 E.0124
G1 X114.888 Y110.403 E.0087
G1 X112.875 Y112.92 E.12004
G1 X111.387 Y114.734 E.08736
G1 X110.636 Y115.489 E.03967
G1 X110.141 Y115.691 E.01991
G1 X109.862 Y115.574 E.01129
G1 X109.989 Y115.167 F9000
;TYPE:Outer wall
G1 F900
G1 X109.045 Y114.23 E.04956
G1 X107.028 Y111.729 E.11965
G1 X105.816 Y110.138 E.07449
G1 X105.77 Y109.978 E.0062
G1 X106.119 Y109.472 E.02288
G1 X107.23 Y108.044 E.0674
G1 X109.56 Y105.135 E.13881
G1 X110.026 Y104.833 E.0207
G1 X110.148 Y104.799 E.0047
G1 X110.559 Y105.014 E.01729
G1 X111.118 Y105.653 E.03163
