; HEADER_BLOCK_START
; generated by OrcaSlicer 2.0.0 on 2024-06-06 at 08:25:07
; total layer number: 17
; filament_density: 1.24
; filament_diameter: 1.75
; max_z_height: 3.40
; HEADER_BLOCK_END

; THUMBNAIL_BLOCK_START

;
; THUMBNAIL_BLOCK_END

; external perimeters extrusion width = 0.40mm
; perimeters extrusion width = 0.45mm
; infill extrusion width = 0.45mm
; solid infill extrusion width = 0.40mm
; top infill extrusion width = 0.40mm
; support material extrusion width = 0.40mm
; first layer extrusion width = 0.50mm

; EXECUTABLE_BLOCK_START
EXCLUDE_OBJECT_DEFINE NAME=Skull.stl_id_0_copy_0 CENTER=110,110 POLYGON=[[92.3438,122.489],[92.3451,122.479],[92.3512,122.432],[92.3654,122.325],[92.3755,122.249],[92.3831,122.192],[92.4017,122.054],[92.4054,122.027],[92.4222,121.903],[92.4447,121.741],[92.4946,121.393],[92.5494,121.038],[94.8497,106.689],[94.8713,106.561],[94.8968,106.423],[94.9265,106.277],[94.9605,106.12],[94.9989,105.953],[95.0419,105.776],[95.0897,105.589],[95.1423,105.39],[95.2,105.179],[95.2628,104.957],[95.331,104.723],[95.4047,104.476],[95.4201,104.425],[95.4407,104.357],[95.4597,104.295],[95.4679,104.269],[95.4825,104.221],[95.4832,104.219],[95.4839,104.217],[95.7417,103.619],[96.0099,103.024],[96.2884,102.429],[96.5773,101.836],[96.8764,101.244],[97.1856,100.654],[97.5049,100.064],[97.8342,99.4765],[98.1733,98.8899],[98.5221,98.3046],[98.8806,97.7205],[99.2485,97.1377],[99.6258,96.5561],[100.012,95.9757],[100.408,95.3965],[100.813,94.8185],[102.213,92.9164],[102.596,92.4214],[102.903,92.0271],[103.613,91.1405],[105.013,89.4666],[105.354,89.0751],[105.705,88.6713],[106.413,87.878],[107.813,86.3621],[108.348,85.7997],[108.891,85.2382],[109.442,84.6778],[110,84.1184],[110.558,84.6778],[111.109,85.2382],[111.652,85.7997],[112.187,86.3621],[113.587,87.878],[114.147,88.5033],[114.696,89.1299],[115.236,89.7577],[115.766,90.3868],[116.287,91.0172],[116.797,91.6489],[117.297,92.282],[117.787,92.9164],[119.187,94.8185],[119.592,95.3965],[119.988,95.9757],[120.374,96.5561],[120.752,97.1377],[121.119,97.7205],[121.478,98.3046],[121.827,98.8899],[122.166,99.4765],[122.495,100.064],[122.814,100.654],[123.124,101.244],[123.423,101.836],[123.712,102.429],[123.99,103.024],[124.258,103.619],[124.516,104.217],[124.516,104.217],[124.517,104.22],[124.528,104.255],[124.535,104.278],[124.551,104.329],[124.568,104.387],[124.609,104.52],[124.65,104.661],[124.693,104.806],[124.741,104.972],[124.787,105.133],[124.845,105.345],[124.934,105.681],[124.941,105.709],[125.025,106.057],[125.062,106.225],[125.096,106.386],[125.111,106.467],[125.125,106.541],[125.146,106.667],[125.15,106.691],[127.473,121.169],[127.53,121.549],[127.556,121.736],[127.581,121.915],[127.603,122.083],[127.624,122.237],[127.641,122.374],[127.656,122.487],[127.656,122.489],[127.656,122.489],[127.6,123.51],[127.523,124.533],[126.323,125.444],[126.322,125.445],[126.291,125.468],[126.257,125.493],[126.212,125.526],[126.155,125.568],[126.086,125.618],[126.006,125.676],[125.915,125.741],[125.814,125.814],[125.703,125.893],[125.606,125.962],[125.457,126.067],[112.272,135.298],[112.149,135.377],[112.149,135.377],[112.015,135.439],[111.805,135.514],[111.588,135.586],[111.361,135.654],[111.122,135.716],[110.87,135.771],[110.6,135.817],[110.312,135.854],[110.002,135.882],[109.998,135.882],[109.688,135.854],[109.4,135.817],[109.13,135.771],[108.878,135.716],[108.639,135.654],[108.412,135.586],[108.195,135.514],[107.985,135.439],[107.851,135.377],[107.851,135.377],[107.728,135.298],[94.7481,126.219],[94.5821,126.103],[94.4487,126.009],[94.2845,125.892],[94.149,125.794],[94.0511,125.724],[94.0054,125.69],[93.9654,125.661],[93.9292,125.635],[93.8967,125.611],[93.87,125.592],[93.856,125.581],[92.4774,124.533],[92.3998,123.51],[92.3438,122.489]]
M73 P0 R24
;TYPE:Custom
M117 ; clear display for KAMP meshing
START_PRINT BED_TEMP=60 EXTRUDER_TEMP=220
G90
G21
M83 ; use relative distances for extrusion
; filament start gcode
M106 S0
;LAYER_CHANGE
;Z:0.2
;HEIGHT:0.2
;BEFORE_LAYER_CHANGE
;0.2
G92 E0

G1 E-5 F3600
;_SET_FAN_SPEED_CHANGING_LAYER
SET_VELOCITY_LIMIT ACCEL=500 ACCEL_TO_DECEL=250
; printing object Skull.stl id:0 copy 0
EXCLUDE_OBJECT_START NAME=Skull.stl_id_0_copy_0
G1 Z.4 F9000
G1 X105.21 Y128.323
G1 Z.4
G1 Z.2
G1 E5 F2400
;TYPE:Inner wall
;WIDTH:0.499999
G1 F900
G1 X105.374 Y128.341 E.00617
G1 X105.962 Y128.153 E.02297
G1 X106.287 Y127.897 E.01542
G1 X106.511 Y127.514 E.01653
G1 X106.573 Y127.126 E.01463
G1 X106.5 Y126.74 E.01463
G1 X104.84 Y122.321 E.17579
G1 X105.143 Y122.126 E.01343
G1 X105.799 Y121.62 E.03086
G1 X106.393 Y121.051 E.03064
G1 X106.807 Y120.565 E.02377
G1 X107.353 Y119.78 E.03563
G1 X107.684 Y119.202 E.02481
G1 X108.064 Y118.316 E.03591
G1 X108.32 Y117.481 E.03252
G1 X108.486 Y116.59 E.03375
G1 X108.547 Y115.936 E.02447
G1 X108.517 Y114.961 E.03634
G1 X108.459 Y114.531 E.01615
G1 X108.359 Y114.016 E.01954
G1 X108.167 Y113.388 E.02445
G1 X107.754 Y112.485 E.03699
G1 X107.282 Y111.757 E.03231
G1 X106.499 Y110.858 E.04439
G1 X105.889 Y110.309 E.03057
G1 X105.204 Y109.788 E.03205
G1 X104.459 Y109.306 E.03309
G1 X103.262 Y108.669 E.05049
G1 X102.05 Y108.168 E.04883
G1 X100.939 Y107.812 E.04346
G1 X100.413 Y107.681 E.0202
G1 X99.532 Y105.152 E.09976
G1 X99.324 Y104.789 E.01559
G1 X99.125 Y104.604 E.01011
G1 X98.709 Y104.414 E.01704
G1 X98.385 Y104.387 E.0121
G1 X98.078 Y104.423 E.01152
G1 X97.656 Y104.623 E.01739
;WIDTH:0.547266
G1 X97.552 Y104.713 E.00565
;WIDTH:0.594533
G1 X97.448 Y104.802 E.00618
;WIDTH:0.6418
G1 X97.344 Y104.892 E.00671
;WIDTH:0.689067
G1 X97.239 Y104.982 E.00724
G1 X97.144 Y105.269 E.01592
;WIDTH:0.705624
G1 X96.913 Y106.252 E.05458
;WIDTH:0.706509
G1 X96.751 Y106.985 E.04058
G1 X96.117 Y106.915 E.03447
G1 X96.155 Y106.604 E.01692
G1 X96.27 Y106.091 E.02843
;WIDTH:0.705624
G1 X96.53 Y105.115 E.05458
;WIDTH:0.689067
G1 X96.707 Y104.529 E.03221
;WIDTH:0.6418
G1 X96.76 Y104.352 E.00903
;WIDTH:0.594533
G1 X96.813 Y104.174 E.00832
;WIDTH:0.547266
G1 X96.865 Y103.997 E.00761
;WIDTH:0.499999
G1 X97.168 Y103.314 E.02783
G1 X97.686 Y102.239 E.04444
G1 X98.436 Y100.805 E.06027
G1 X99.672 Y98.681 E.09154
G1 X99.79 Y99.061 E.01482
G1 X100.081 Y99.555 E.02136
G1 X100.346 Y99.819 E.01391
G1 X100.684 Y100.052 E.01529
G1 X100.923 Y100.131 E.00941
G1 X101.489 Y100.248 E.0215
G1 X102.123 Y100.146 E.02393
G1 X102.681 Y99.837 E.02378
G1 X103.013 Y99.48 E.01816
G1 X103.186 Y99.2 E.01226
G1 X103.338 Y98.68 E.02015
G1 X103.377 Y98.385 E.01109
G1 X103.377 Y95.547 E.1057
G1 X103.717 Y95.703 E.01392
G1 X104.196 Y95.807 E.01826
G1 X104.441 Y95.807 E.00915
G1 X104.923 Y95.699 E.01839
G1 X105.489 Y95.4 E.02384
G1 X105.659 Y95.226 E.00906
G1 X105.825 Y95.404 E.00906
G1 X106.244 Y95.714 E.01941
G1 X106.597 Y95.849 E.01406
G1 X106.95 Y95.918 E.01338
G1 X107.517 Y95.874 E.0212
G1 X107.932 Y95.732 E.01633
G1 X108.36 Y95.45 E.0191
G1 X108.738 Y94.979 E.02249
G1 X108.938 Y94.361 E.02419
G1 X108.977 Y94.066 E.0111
G1 X108.977 Y86.846 E.2689
G1 X109.996 Y85.791 E.05464
G1 X111.023 Y86.849 E.05493
G1 X111.023 Y94.066 E.2688
G1 X111.062 Y94.361 E.0111
G1 X111.262 Y94.979 E.02419
G1 X111.387 Y95.16 E.00819
G1 X111.72 Y95.499 E.01771
G1 X112.001 Y95.704 E.01294
G1 X112.46 Y95.878 E.01829
G1 X112.863 Y95.914 E.01507
G1 X113.404 Y95.853 E.02029
G1 X113.923 Y95.607 E.02137
G1 X114.227 Y95.352 E.01478
G1 X114.388 Y95.16 E.00933
G1 X114.586 Y94.817 E.01477
G1 X114.672 Y94.581 E.00934
G1 X114.741 Y94.192 E.01472
G1 X114.746 Y90.997 E.11898
G1 X115.967 Y92.487 E.07173
G1 X116.623 Y93.33 E.03979
G1 X116.623 Y98.385 E.18828
G1 X116.662 Y98.68 E.01109
G1 X116.867 Y99.308 E.02458
G1 X117.207 Y99.737 E.0204
G1 X117.669 Y100.052 E.02081
G1 X117.986 Y100.177 E.01268
G1 X118.515 Y100.233 E.01984
G1 X118.881 Y100.206 E.01364
G1 X119.436 Y99.972 E.02246
G1 X119.889 Y99.591 E.02204
G1 X120.231 Y99.044 E.02401
G1 X120.319 Y98.668 E.01441
G1 X120.54 Y99.018 E.01541
G1 X121.563 Y100.803 E.07663
G1 X122.491 Y102.597 E.07525
G1 X122.999 Y103.677 E.04444
G1 X123.396 Y104.586 E.03694
G1 X123.537 Y105.013 E.01676
G1 X123.724 Y105.662 E.02515
G1 X123.893 Y106.332 E.02575
G1 X123.999 Y107.005 E.02536
G1 X121.934 Y107.241 E.07742
G1 X120.723 Y107.429 E.04565
G1 X119.375 Y107.727 E.05141
G1 X118.646 Y107.935 E.02823
G1 X118.01 Y108.145 E.02496
G1 X117.297 Y108.421 E.02848
G1 X116.555 Y108.758 E.03035
G1 X115.595 Y109.273 E.04059
G1 X114.895 Y109.722 E.03095
G1 X114.444 Y110.045 E.02066
G1 X113.939 Y110.454 E.02421
G1 X113.462 Y110.898 E.02428
G1 X113.065 Y111.321 E.02162
G1 X112.674 Y111.813 E.02338
G1 X112.315 Y112.365 E.02455
G1 X112.011 Y112.955 E.02472
G1 X111.641 Y114.019 E.04195
G1 X111.477 Y114.975 E.03612
G1 X111.446 Y115.737 E.0284
G1 X111.471 Y116.138 E.01496
G1 X111.573 Y116.972 E.03129
G1 X111.762 Y117.783 E.03102
G1 X111.997 Y118.486 E.02762
G1 X112.318 Y119.161 E.02781
G1 X112.653 Y119.789 E.02653
G1 X113.082 Y120.423 E.02851
G1 X113.62 Y121.063 E.03114
G1 X114.163 Y121.587 E.0281
G1 X114.525 Y121.872 E.01714
G1 X115.117 Y122.29 E.02703
G1 X115.737 Y122.65 E.02669
G1 X116.543 Y123.004 E.03276
G1 X117.398 Y123.269 E.03337
G1 X118.779 Y123.496 E.05211
G1 X119.956 Y123.535 E.04388
G1 X121.22 Y123.423 E.04725
G1 X122.396 Y123.197 E.04459
G1 X123.514 Y122.874 E.04337
G1 X124.238 Y122.609 E.02871
G1 X124.849 Y122.354 E.02465
G1 X125.639 Y121.973 E.03267
G1 X126.355 Y121.582 E.03036
G1 X126.473 Y122.518 E.03511
G1 X126.382 Y123.931 E.05276
G1 X125.079 Y124.907 E.06061
G1 X123.526 Y125.968 E.07009
G1 X122.009 Y126.908 E.06645
G1 X120.478 Y127.76 E.06526
G1 X119.75 Y128.13 E.03042
G1 X118.653 Y128.642 E.0451
G1 X117.858 Y128.98 E.03217
G1 X116.406 Y129.519 E.05767
G1 X115.029 Y129.937 E.05358
G1 X113.779 Y130.255 E.04806
G1 X113.265 Y130.521 E.02154
G1 X112.514 Y131.055 E.03432
G1 X112.233 Y131.341 E.01495
G1 X111.845 Y131.966 E.02741
G1 X111.704 Y132.561 E.02276
G1 X111.53 Y134.373 E.0678
G1 X111.056 Y134.529 E.01859
G1 X110.49 Y134.65 E.02156
G1 X109.999 Y134.711 E.01843
G1 X109.585 Y134.666 E.0155
G1 X108.944 Y134.529 E.0244
G1 X108.47 Y134.367 E.01867
G1 X108.296 Y132.561 E.06757
G1 X108.221 Y132.242 E.01222
G1 X108.049 Y131.739 E.01978
G1 X107.71 Y131.266 E.0217
G1 X107.482 Y131.051 E.01166
G1 X106.6 Y130.443 E.03989
G1 X106.078 Y130.218 E.02119
G1 X105.204 Y130.01 E.03347
G1 X104.426 Y129.796 E.03002
G1 X103.628 Y129.546 E.03118
G1 X102.845 Y129.27 E.03093
G1 X102.045 Y128.958 E.03196
G1 X101.296 Y128.638 E.03034
G1 X99.821 Y127.933 E.06088
G1 X98.331 Y127.124 E.06315
G1 X97.623 Y126.705 E.03064
G1 X96.398 Y125.931 E.05398
G1 X94.761 Y124.8 E.07411
G1 X93.619 Y123.935 E.05336
G1 X93.523 Y122.459 E.05508
G1 X93.647 Y121.584 E.0329
M73 P1 R24
G1 X93.902 Y121.733 E.011
G1 X95.117 Y122.334 E.05051
G1 X96.044 Y122.718 E.03737
G1 X96.65 Y122.927 E.02387
G1 X97.313 Y123.121 E.02571
G1 X97.974 Y123.28 E.02533
G1 X98.753 Y123.416 E.02946
G1 X99.691 Y123.52 E.03515
G1 X100.39 Y123.541 E.02605
G1 X101.338 Y123.482 E.03539
G1 X104.174 Y127.553 E.18478
G1 X104.535 Y128.03 E.02228
G1 X105.018 Y128.301 E.02062
G1 X105.17 Y128.318 E.0057
G1 X105.284 Y127.876 F9000
G1 F900
G1 X105.631 Y127.81 E.01318
G1 X105.903 Y127.638 E.012
G1 X106.063 Y127.405 E.01052
G1 X106.116 Y127.132 E.01034
G1 X106.072 Y126.9 E.00878
G1 X104.277 Y122.122 E.19012
G1 X104.866 Y121.762 E.02574
G1 X105.484 Y121.288 E.02901
G1 X106.049 Y120.749 E.02909
G1 X106.439 Y120.295 E.02226
G1 X106.959 Y119.55 E.03385
G1 X107.268 Y119.013 E.02307
G1 X107.631 Y118.17 E.03417
G1 X107.874 Y117.381 E.03075
G1 X108.032 Y116.54 E.0319
G1 X108.084 Y115.737 E.02995
G1 X108.048 Y114.827 E.03394
G1 X107.922 Y114.15 E.02564
G1 X107.698 Y113.438 E.02781
G1 X107.367 Y112.728 E.02916
G1 X106.935 Y112.055 E.02979
G1 X106.192 Y111.197 E.04229
G1 X105.611 Y110.672 E.02915
G1 X104.954 Y110.171 E.03077
G1 X104.242 Y109.708 E.03163
G1 X103.091 Y109.093 E.04862
G1 X102.442 Y108.822 E.02619
G1 X101.599 Y108.503 E.03357
G1 X100.752 Y108.234 E.03309
G1 X100.063 Y108.067 E.02642
G1 X99.073 Y105.222 E.11218
G1 X98.856 Y104.973 E.01228
G1 X98.607 Y104.859 E.01023
G1 X98.306 Y104.849 E.0112
G1 X97.932 Y104.987 E.01483
G1 X97.733 Y105.228 E.01164
G1 X97.677 Y105.386 E.00626
G1 X97.189 Y107.598 E.08435
G1 X95.92 Y107.457 E.04755
G1 X95.516 Y107.361 E.01546
G1 X95.508 Y107.295 E.00248
G1 X95.598 Y106.524 E.0289
G1 X95.725 Y105.963 E.02145
G1 X96.125 Y104.54 E.05503
G1 X96.753 Y103.122 E.05777
G1 X97.278 Y102.034 E.04499
G1 X98.035 Y100.585 E.06088
G1 X99.068 Y98.782 E.07741
G1 X100.106 Y97.133 E.07257
G1 X100.106 Y98.386 E.04668
G1 X100.226 Y98.924 E.02055
G1 X100.404 Y99.231 E.01322
G1 X100.668 Y99.495 E.01391
G1 X100.976 Y99.672 E.01322
G1 X101.499 Y99.791 E.01996
G1 X101.927 Y99.728 E.01612
G1 X102.4 Y99.477 E.01993
G1 X102.663 Y99.186 E.01462
G1 X102.8 Y98.922 E.01106
G1 X102.92 Y98.385 E.0205
G1 X102.92 Y95.018 E.12541
;WIDTH:0.539476
G1 X102.94 Y94.322 E.02818
G1 X103.07 Y94.596 E.01229
;WIDTH:0.507201
G1 X103.289 Y94.901 E.01421
;WIDTH:0.499999
G1 X103.564 Y95.13 E.01334
G1 X103.907 Y95.288 E.01406
G1 X104.195 Y95.35 E.01096
G1 X104.67 Y95.309 E.01777
G1 X105.113 Y95.103 E.01822
G1 X105.34 Y94.898 E.01138
G1 X105.617 Y94.479 E.01871
;WIDTH:0.506283
G1 X105.713 Y94.075 E.0157
G1 X105.727 Y94.318 E.0092
;WIDTH:0.502348
G1 X105.988 Y94.906 E.02409
;WIDTH:0.499999
G1 X106.351 Y95.246 E.01854
G1 X106.753 Y95.42 E.01631
G1 X107.048 Y95.458 E.01108
G1 X107.588 Y95.389 E.02029
G1 X107.943 Y95.197 E.01502
G1 X108.263 Y94.866 E.01715
G1 X108.4 Y94.603 E.01106
G1 X108.52 Y94.066 E.0205
G1 X108.52 Y86.662 E.27576
G1 X110 Y85.138 E.07911
G1 X111.48 Y86.663 E.07917
G1 X111.48 Y94.167 E.27949
G1 X111.662 Y94.758 E.02301
G1 X112.043 Y95.175 E.02106
G1 X112.293 Y95.334 E.01102
G1 X112.743 Y95.461 E.01742
G1 X113.256 Y95.417 E.0192
G1 X113.694 Y95.211 E.01802
G1 X114.038 Y94.866 E.01813
G1 X114.242 Y94.424 E.01814
G1 X114.284 Y94.191 E.00883
G1 X114.291 Y89.758 E.1651
G1 X115.242 Y90.875 E.05462
G1 X116.324 Y92.202 E.0638
G1 X117.08 Y93.173 E.04583
G1 X117.08 Y97.416 E.15803
G1 X117.103 Y98.562 E.0427
G1 X117.265 Y99.083 E.0203
G1 X117.56 Y99.443 E.01734
G1 X118.021 Y99.712 E.0199
G1 X118.555 Y99.778 E.02001
G1 X118.774 Y99.761 E.00818
G1 X119.242 Y99.558 E.01903
G1 X119.514 Y99.329 E.01322
G1 X119.805 Y98.878 E.01997
G1 X119.894 Y98.386 E.01864
G1 X119.894 Y97.133 E.04667
G1 X120.932 Y98.782 E.07257
G1 X121.965 Y100.584 E.07735
G1 X122.901 Y102.395 E.07594
G1 X123.415 Y103.488 E.04499
G1 X123.876 Y104.543 E.04287
G1 X124.16 Y105.521 E.03795
G1 X124.33 Y106.193 E.02582
G1 X124.432 Y106.707 E.0195
G1 X124.487 Y107.344 E.02384
G1 X124.145 Y107.448 E.01332
G1 X122.004 Y107.692 E.08027
G1 X120.821 Y107.876 E.04459
G1 X119.498 Y108.167 E.05043
G1 X118.789 Y108.369 E.02747
G1 X118.174 Y108.572 E.02412
G1 X117.483 Y108.838 E.02757
G1 X116.77 Y109.161 E.02917
G1 X115.838 Y109.66 E.03939
G1 X115.16 Y110.095 E.02998
G1 X114.731 Y110.401 E.01965
G1 X114.248 Y110.791 E.02313
G1 X113.793 Y111.213 E.02309
G1 X113.42 Y111.608 E.02024
G1 X113.054 Y112.067 E.02185
G1 X112.717 Y112.581 E.0229
G1 X112.441 Y113.112 E.0223
G1 X112.091 Y114.101 E.0391
G1 X111.934 Y114.994 E.03374
G1 X111.903 Y115.756 E.0284
G1 X111.926 Y116.1 E.01285
G1 X112.021 Y116.881 E.02931
G1 X112.197 Y117.644 E.02917
G1 X112.41 Y118.29 E.02534
G1 X112.731 Y118.965 E.02781
G1 X113.036 Y119.539 E.02422
G1 X113.435 Y120.132 E.02662
G1 X113.938 Y120.734 E.02921
G1 X114.481 Y121.258 E.0281
G1 X115.351 Y121.897 E.04023
G1 X115.924 Y122.233 E.02475
G1 X116.683 Y122.568 E.03089
G1 X117.481 Y122.819 E.03116
G1 X118.797 Y123.039 E.04971
G1 X119.919 Y123.079 E.04179
G1 X121.134 Y122.974 E.04543
G1 X122.289 Y122.752 E.04381
G1 X123.372 Y122.439 E.042
G1 X124.063 Y122.187 E.02737
G1 X124.656 Y121.94 E.02395
G1 X125.884 Y121.33 E.05108
G1 X126.694 Y120.851 E.03504
G1 X126.856 Y121.866 E.03827
G1 X126.93 Y122.547 E.02553
G1 X126.824 Y124.171 E.0606
G1 X125.346 Y125.279 E.06882
G1 X123.775 Y126.352 E.07084
G1 X122.241 Y127.303 E.06723
G1 X120.693 Y128.164 E.06598
G1 X119.95 Y128.541 E.03103
G1 X118.839 Y129.06 E.04568
G1 X118.03 Y129.403 E.03273
G1 X116.552 Y129.952 E.05871
G1 X115.147 Y130.378 E.05471
