; HEADER_BLOCK_START
; generated by OrcaSlicer 2.3.0-beta2 on 2025-03-11 at 12:54:45
; total layer number: 16
;_GP_TOTAL_LAYER_NUMBER_PLACEHOLDER
; filament_density: 1.24
; filament_diameter: 1.75
; max_z_height: 3.20
; HEADER_BLOCK_END

; THUMBNAIL_BLOCK_START

;
; THUMBNAIL_BLOCK_END

; THUMBNAIL_BLOCK_START

;
; THUMBNAIL_BLOCK_END

; external perimeters extrusion width = 0.40mm
; perimeters extrusion width = 0.45mm
; infill extrusion width = 0.45mm
; solid infill extrusion width = 0.40mm
; top infill extrusion width = 0.40mm
; support material extrusion width = 0.40mm
; first layer extrusion width = 0.50mm

; EXECUTABLE_BLOCK_START
EXCLUDE_OBJECT_DEFINE NAME=spilled-coffe-stand.stl_id_0_copy_0 CENTER=110,110 POLYGON=[[28.7832,105.844],[28.8514,104.629],[33.0226,90.1549],[34.6901,85.4084],[35.6636,82.7442],[36.2203,81.587],[44.4241,66.6501],[48.8307,59.8587],[49.8459,58.3132],[50.2519,57.7852],[50.6809,57.2715],[52.6267,55.0715],[53.5541,54.4434],[54.5737,53.9132],[55.8245,53.3159],[103.794,35.387],[106.715,34.4608],[109.217,33.9977],[112.063,33.8987],[117.076,33.8327],[119.924,33.8811],[122.087,34.1781],[126.319,34.8084],[131.612,35.6345],[132.716,35.8501],[134.588,36.4903],[136.33,37.3549],[180.038,60.3361],[181.519,61.2084],[182.313,61.8827],[184.532,63.855],[185.969,65.1442],[186.839,66.1661],[187.636,67.2287],[188.168,68.1384],[188.61,69.0811],[189.692,71.7167],[190.557,74.4084],[191.217,76.9351],[189.503,119.687],[189.166,124.198],[188.193,127.902],[187.636,129.755],[186.664,132.187],[184.596,136.612],[183.465,139.018],[182.631,140.524],[181.529,142.241],[181.102,142.724],[134.384,178.85],[132.576,180.008],[125.902,183.366],[122.983,184.292],[121.881,184.562],[119.657,185.026],[118.533,185.218],[109.217,186.029],[106.02,186.144],[103.581,186.167],[103.239,186.144],[98.6497,184.292],[56.5207,167.155],[54.6651,166.114],[52.9051,164.955],[51.5245,164.02],[50.4025,162.871],[49.5281,161.166],[47.4821,156.503],[29.1285,108.913],[28.8514,107.061],[28.7832,105.844]]
M73 P0 R150
;TYPE:Custom
M117 ; clear display for KAMP meshing
START_PRINT BED_TEMP=60 EXTRUDER_TEMP=220
G90
G21
M83 ; use relative distances for extrusion
; filament start gcode
M106 S0
;LAYER_CHANGE
;Z:0.2
;HEIGHT:0.2
;BEFORE_LAYER_CHANGE
;0.2
G92 E0

G1 E-5 F3600
;_SET_FAN_SPEED_CHANGING_LAYER
SET_VELOCITY_LIMIT ACCEL=500 ACCEL_TO_DECEL=250
; printing object spilled-coffe-stand.stl id:0 copy 0
EXCLUDE_OBJECT_START NAME=spilled-coffe-stand.stl_id_0_copy_0
G1 Z.6 F9000
G1 X137.246 Y47.176
G1 Z.6
M73 P0 R149
G1 Z.2
G1 E5 F2400
;TYPE:Inner wall
;WIDTH:0.499999
G1 F900
G1 X137.366 Y47.404 E.00958
G1 X137.746 Y47.785 E.02004
G1 X138.493 Y48.473 E.03783
G1 X139.435 Y49.271 E.04597
G1 X140.853 Y50.896 E.08033
G1 X141.26 Y51.206 E.01906
G1 X141.97 Y51.689 E.032
G1 X143.853 Y52.591 E.07775
G1 X147.7 Y54.875 E.16664
G1 X149.187 Y55.628 E.06207
G1 X150.777 Y56.385 E.0656
G1 X151.637 Y56.701 E.03415
G1 X154.738 Y58.098 E.12668
G1 X155.808 Y58.436 E.04177
G1 X159.158 Y59.76 E.13419
G1 X160.06 Y60.037 E.03514
G1 X161.131 Y60.587 E.04483
G1 X162.232 Y60.992 E.0437
G1 X163.782 Y61.682 E.06318
G1 X165.306 Y62.389 E.06259
G1 X167.139 Y63.433 E.07857
G1 X168.045 Y63.872 E.0375
G1 X168.631 Y64.239 E.02575
G1 X170.3 Y64.958 E.06769
G1 X171.306 Y65.45 E.04169
G1 X172.441 Y66.434 E.05596
G1 X173.056 Y66.861 E.02786
G1 X173.851 Y67.688 E.04273
G1 X175.441 Y68.957 E.07577
G1 X175.877 Y69.366 E.02229
G1 X176.244 Y69.813 E.02153
G1 X176.931 Y71.256 E.05952
G1 X177.59 Y72.787 E.06208
G1 X177.878 Y73.674 E.03475
G1 X178.124 Y74.567 E.03452
G1 X178.346 Y75.951 E.05221
G1 X178.414 Y76.817 E.03233
G1 X178.424 Y77.41 E.02212
G1 X178.405 Y78.347 E.03489
G1 X178.315 Y78.996 E.0244
G1 X175.836 Y84.459 E.22347
G1 X175.744 Y84.778 E.01237
G1 X175.658 Y85.412 E.0238
G1 X175.413 Y86.002 E.0238
G1 X175.195 Y86.601 E.02376
G1 X174.898 Y88.375 E.067
G1 X174.659 Y90.337 E.07359
G1 X174.611 Y91.572 E.04604
G1 X174.665 Y92.943 E.05111
G1 X174.772 Y93.384 E.01691
G1 X175.159 Y94.494 E.04377
G1 X175.6 Y95.617 E.04495
G1 X175.823 Y96.75 E.043
G1 X176.326 Y98.057 E.05218
G1 X176.912 Y99.452 E.05635
G1 X177.444 Y100.455 E.04228
G1 X177.854 Y101.471 E.04079
G1 X178.592 Y103.941 E.09604
G1 X179.429 Y106.868 E.11335
G1 X179.625 Y107.392 E.02086
G1 X179.662 Y108.193 E.02988
G1 X179.745 Y108.772 E.02175
G1 X179.916 Y109.387 E.02379
G1 X179.947 Y110.313 E.03452
G1 X179.896 Y110.998 E.02557
G1 X179.943 Y112.243 E.04644
G1 X179.791 Y113.105 E.0326
G1 X179.678 Y114.694 E.05931
G1 X178.891 Y118.056 E.12861
G1 X178.692 Y119.033 E.03715
G1 X178.692 Y120.701 E.06213
G1 X178.44 Y122.658 E.07348
G1 X178.145 Y124.626 E.07414
G1 X177.984 Y125.219 E.02289
G1 X177.769 Y125.778 E.02229
G1 X177.067 Y127.346 E.064
G1 X176.061 Y130.323 E.11704
G1 X174.784 Y133.274 E.11976
G1 X174.131 Y135.119 E.07288
G1 X173.685 Y136.029 E.03779
G1 X173.219 Y136.887 E.03635
G1 X172.712 Y137.506 E.02979
G1 X172.414 Y137.911 E.01873
G1 X172.205 Y138.37 E.01879
G1 X171.874 Y138.982 E.02593
G1 X171.546 Y139.457 E.02151
G1 X170.708 Y140.334 E.04515
G1 X169.519 Y141.864 E.07219
G1 X168.509 Y142.602 E.0466
G1 X167.281 Y143.614 E.05925
G1 X166.01 Y144.688 E.06201
G1 X165.301 Y145.38 E.03686
G1 X164.397 Y146.04 E.04171
G1 X163.564 Y146.8 E.04202
G1 X162.783 Y147.479 E.03854
G1 X161.354 Y148.369 E.06271
G1 X159.83 Y149.262 E.06576
G1 X157.778 Y150.368 E.08685
G1 X156.928 Y150.97 E.03879
G1 X155.94 Y151.573 E.04312
G1 X155.625 Y152.014 E.02018
G1 X154.334 Y152.593 E.0527
G1 X153.766 Y153.009 E.02623
G1 X153.226 Y153.37 E.02419
G1 X149.3 Y155.354 E.16383
G1 X145.231 Y157.363 E.16904
G1 X143.127 Y158.294 E.08568
G1 X142.171 Y158.864 E.04147
G1 X138.317 Y160.896 E.16227
G1 X137.321 Y161.63 E.04605
G1 X136.386 Y162.198 E.04077
G1 X136.181 Y162.356 E.00963
G1 X135.538 Y162.983 E.03345
G1 X134.597 Y163.674 E.04348
G1 X134.368 Y163.898 E.01196
G1 X133.359 Y165.225 E.06206
G1 X132.466 Y166.022 E.04458
G1 X130.246 Y168.547 E.12522
G1 X128.677 Y170.059 E.08118
G1 X127.085 Y171.532 E.08078
G1 X125.973 Y172.345 E.05129
G1 X125.216 Y173.09 E.03958
G1 X124.264 Y173.901 E.04657
G1 X123.306 Y174.681 E.04603
G1 X122.834 Y174.991 E.02101
G1 X122.371 Y175.259 E.01993
G1 X121.19 Y175.715 E.04714
G1 X119.385 Y176.689 E.07639
G1 X118.819 Y176.943 E.02314
G1 X118.237 Y177.182 E.02343
G1 X117.686 Y177.369 E.02168
G1 X117.176 Y177.512 E.0197
G1 X114.8 Y177.793 E.08914
G1 X113.746 Y178.013 E.04008
G1 X112.465 Y178.156 E.04803
G1 X111.675 Y178.32 E.03004
G1 X111.021 Y178.427 E.02468
G1 X110.374 Y178.484 E.02418
G1 X108.119 Y178.52 E.08401
G1 X105.92 Y178.495 E.08191
G1 X104.757 Y178.306 E.04389
G1 X103.637 Y178.053 E.04275
G1 X102.335 Y177.487 E.0529
G1 X101.428 Y177.218 E.03522
G1 X99.179 Y176.281 E.09076
G1 X96.165 Y175.254 E.11859
G1 X95.658 Y174.985 E.02137
G1 X95.122 Y174.657 E.02343
G1 X93.707 Y173.678 E.06406
G1 X92.456 Y172.785 E.05725
G1 X91.99 Y172.428 E.02187
G1 X91.522 Y172.026 E.02295
G1 X90.315 Y170.64 E.06847
G1 X89.721 Y170.014 E.03215
G1 X89.289 Y169.606 E.02215
G1 X88.45 Y168.901 E.04079
G1 X87.604 Y168.407 E.03649
G1 X86.814 Y167.84 E.03623
G1 X86.469 Y167.629 E.01506
G1 X84.431 Y166.781 E.08222
G1 X82.396 Y165.827 E.0837
G1 X81.361 Y165.485 E.04061
G1 X80.251 Y165.159 E.04307
G1 X79.1 Y164.95 E.04359
G1 X76.605 Y164.228 E.09674
G1 X74.5 Y163.79 E.08008
G1 X73.347 Y163.436 E.04492
G1 X72.089 Y162.928 E.05055
G1 X68.904 Y161.932 E.12427
G1 X67.859 Y161.493 E.04223
G1 X66.834 Y161.024 E.04196
G1 X65.735 Y160.388 E.04731
G1 X63.617 Y159.414 E.08684
G1 X62.664 Y158.999 E.03871
G1 X61.668 Y158.694 E.03877
G1 X60.581 Y158.253 E.04371
G1 X59.615 Y157.798 E.03976
G1 X59.042 Y157.337 E.02739
G1 X58.262 Y156.623 E.03938
G1 X57.786 Y156.291 E.02162
G1 X57.396 Y155.95 E.0193
G1 X56.999 Y155.54 E.02128
G1 X56.783 Y154.939 E.02378
G1 X56.68 Y154.421 E.01966
G1 X56.235 Y152.956 E.05702
G1 X55.911 Y151.762 E.04608
G1 X55.877 Y150.857 E.03371
G1 X55.829 Y150.573 E.01075
G1 X55.637 Y149.931 E.02496
G1 X55.589 Y147.871 E.07674
G1 X55.481 Y147.114 E.02847
G1 X55.47 Y140.301 E.25376
G1 X55.455 Y139.41 E.0332
G1 X55.333 Y138.635 E.02923
G1 X55.296 Y137.744 E.03319
G1 X55.318 Y136.958 E.0293
G1 X55.584 Y136.136 E.03218
G1 X55.867 Y135.458 E.02737
G1 X56.189 Y134.781 E.02789
G1 X56.316 Y134.415 E.01445
G1 X56.531 Y133.586 E.03189
G1 X56.963 Y132.878 E.03089
G1 X57.392 Y132.294 E.027
G1 X57.783 Y131.825 E.02275
G1 X58.46 Y130.681 E.04948
G1 X59.448 Y129.457 E.05861
G1 X60.508 Y128.266 E.05938
G1 X61.306 Y127.592 E.0389
G1 X61.486 Y127.4 E.0098
G1 X62.055 Y126.633 E.03561
G1 X62.733 Y125.958 E.03561
G1 X63.159 Y125.477 E.02393
G1 X63.811 Y124.562 E.04186
G1 X64.51 Y123.503 E.04726
G1 X64.645 Y123.221 E.01165
G1 X64.871 Y122.476 E.02899
G1 X64.865 Y122.065 E.01532
G1 X64.708 Y121.58 E.01896
G1 X64.461 Y121.251 E.01535
G1 X64.113 Y121.03 E.01535
G1 X63.501 Y120.803 E.02431
G1 X61.338 Y120.355 E.08228
G1 X60.291 Y120.249 E.03918
G1 X59.286 Y120.249 E.03743
G1 X58.123 Y120.139 E.0435
G1 X56.94 Y120.139 E.04407
G1 X55.764 Y120.018 E.04403
G1 X52.48 Y120.018 E.12234
G1 X51.355 Y119.92 E.04204
G1 X50.231 Y119.79 E.04217
G1 X49.053 Y119.557 E.0447
G1 X47.776 Y119.173 E.04966
G1 X46.799 Y118.979 E.03712
G1 X45.629 Y118.863 E.04377
G1 X44.328 Y118.628 E.04925
G1 X43.211 Y118.292 E.04343
G1 X42.152 Y117.801 E.0435
G1 X41.653 Y117.524 E.02125
G1 X41.17 Y117.23 E.02105
G1 X38.851 Y115.572 E.10617
G1 X36.645 Y113.92 E.10267
G1 X36.254 Y113.478 E.02197
G1 X35.874 Y112.963 E.02386
G1 X35.581 Y112.461 E.02165
G1 X35.309 Y111.934 E.02209
G1 X34.875 Y110.9 E.04176
G1 X34.467 Y109.852 E.04189
G1 X34.003 Y108.303 E.06021
G1 X33.868 Y107.713 E.02257
G1 X33.779 Y107.048 E.025
G1 X33.758 Y105.673 E.05122
G1 X33.778 Y104.311 E.05072
G1 X34.057 Y102.253 E.07734
G1 X34.057 Y101.597 E.02445
G1 X34.152 Y101.162 E.01659
G1 X34.294 Y100.678 E.01877
G1 X35.105 Y98.796 E.07634
G1 X35.949 Y96.969 E.07493
G1 X36.685 Y95.957 E.04662
G1 X36.855 Y95.613 E.01429
G1 X37.081 Y94.857 E.0294
G1 X37.722 Y93.328 E.06176
G1 X38.552 Y91.435 E.07696
G1 X38.633 Y91.023 E.01566
G1 X38.64 Y90.124 E.03349
G1 X38.932 Y90.062 E.01112
G1 X39.336 Y89.934 E.01579
G1 X39.791 Y89.717 E.01879
G1 X40.032 Y89.524 E.01147
G1 X40.226 Y89.248 E.01258
G1 X40.936 Y87.833 E.05895
G1 X41.3 Y87.043 E.03242
G1 X41.534 Y86.059 E.03768
G1 X41.945 Y85.024 E.04145
G1 X42.551 Y82.969 E.07981
G1 X42.661 Y82.199 E.02896
G1 X43.053 Y80.717 E.05708
G1 X43.483 Y79.219 E.05807
G1 X43.718 Y78.59 E.02502
G1 X43.79 Y78.194 E.01496
G1 X43.791 Y77.63 E.02101
G1 X43.867 Y77.339 E.01123
G1 X44.042 Y76.792 E.02137
G1 X44.587 Y75.374 E.0566
G1 X45.14 Y74.015 E.05466
G1 X45.736 Y73 E.0438
G1 X46.08 Y72.242 E.03102
G1 X47.124 Y70.876 E.06401
G1 X47.268 Y70.636 E.01046
G1 X48.26 Y68.399 E.09113
G1 X49.004 Y66.791 E.06599
G1 X49.518 Y65.962 E.03635
G1 X50.089 Y65.17 E.03636
G1 X50.89 Y64.336 E.04308
G1 X51.757 Y63.518 E.04438
G1 X52.703 Y62.796 E.04432
G1 X53.688 Y62.123 E.04446
G1 X55.615 Y61.118 E.08093
G1 X57.612 Y60.131 E.08298
G1 X58.331 Y59.812 E.0293
G1 X59.05 Y59.522 E.02887
G1 X60.392 Y59.082 E.0526
G1 X61.654 Y58.715 E.04895
G1 X62.798 Y58.665 E.04264
G1 X64.671 Y58.447 E.07026
G1 X66.627 Y58.177 E.07353
G1 X67.7 Y57.879 E.0415
G1 X69.016 Y57.624 E.04992
G1 X70.108 Y57.305 E.04236
G1 X71.202 Y56.95 E.04283
G1 X72.37 Y56.409 E.04798
G1 X75.945 Y55.204 E.14051
G1 X78.028 Y54.41 E.08302
G1 X80.379 Y53.478 E.09422
G1 X80.763 Y53.197 E.01772
G1 X81.288 Y52.909 E.02227
G1 X81.569 Y52.598 E.01563
G1 X81.763 Y52.126 E.01902
G1 X81.875 Y52.086 E.00443
G1 X82.477 Y52.159 E.0226
G1 X82.896 Y52.132 E.01563
G1 X83.252 Y51.973 E.01452
G1 X84.039 Y51.445 E.0353
G1 X84.607 Y51.093 E.02489
G1 X90.424 Y48.359 E.23941
G1 X90.885 Y48.103 E.01966
G1 X91.295 Y47.811 E.01873
G1 X91.562 Y47.544 E.01406
G1 X93.208 Y45.229 E.10579
G1 X93.971 Y44.487 E.03966
G1 X94.825 Y43.745 E.04215
G1 X95.952 Y42.939 E.0516
G1 X97.075 Y42.197 E.05012
G1 X98.261 Y41.688 E.04808
G1 X99.462 Y41.025 E.05109
G1 X101.897 Y40.058 E.09758
G1 X102.821 Y39.621 E.03808
G1 X104.088 Y39.194 E.04978
G1 X105.397 Y38.78 E.05116
G1 X106.161 Y38.587 E.02932
G1 X106.931 Y38.419 E.02936
G1 X108.627 Y38.155 E.06393
G1 X110.302 Y37.943 E.06288
G1 X112.049 Y37.913 E.06509
G1 X113.811 Y37.932 E.06563
G1 X114.993 Y38.054 E.04426
G1 X117.575 Y38.054 E.09616
G1 X118.697 Y38.175 E.04204
G1 X119.816 Y38.175 E.04169
G1 X120.92 Y38.281 E.04128
G1 X121.601 Y38.434 E.02602
G1 X122.203 Y38.611 E.02337
G1 X124.503 Y39.842 E.09717
G1 X125.502 Y40.258 E.0403
G1 X126.578 Y40.869 E.04608
G1 X127.686 Y41.33 E.04469
G1 X130.959 Y42.475 E.12916
G1 X131.987 Y42.912 E.04163
G1 X132.975 Y43.366 E.04047
G1 X134.338 Y44.177 E.0591
G1 X135.088 Y44.534 E.03094
G1 X136.598 Y45.584 E.06849
G1 X137.297 Y46.115 E.03271
G1 X137.147 Y46.694 E.02226
G1 X137.212 Y47.11 E.0157
G1 X137.228 Y47.141 E.00128
G1 X137.662 Y46.969 F9000
G1 F900
G1 X137.715 Y47.106 E.00547
G1 X138.056 Y47.449 E.01801
G1 X138.789 Y48.124 E.03711
G1 X139.757 Y48.944 E.04726
G1 X141.15 Y50.544 E.07901
G1 X141.524 Y50.833 E.01759
G1 X142.163 Y51.274 E.02894
G1 X144.069 Y52.188 E.07871
G1 X147.909 Y54.469 E.16637
G1 X149.387 Y55.217 E.06168
G1 X150.934 Y55.956 E.06388
G1 X151.81 Y56.278 E.03476
G1 X154.902 Y57.67 E.12629
G1 X155.961 Y58.005 E.04138
G1 X159.266 Y59.315 E.1324
G1 X160.235 Y59.612 E.03775
G1 X161.289 Y60.158 E.0442
G1 X162.405 Y60.568 E.04427
G1 X163.971 Y61.266 E.06387
G1 X165.516 Y61.982 E.06344
G1 X167.34 Y63.023 E.07819
G1 X168.274 Y63.475 E.03867
G1 X168.803 Y63.815 E.02344
G1 X170.493 Y64.543 E.06854
G1 X171.556 Y65.064 E.04408
G1 X172.702 Y66.059 E.05651
G1 X173.356 Y66.512 E.02964
G1 X174.136 Y67.33 E.0421
G1 X175.931 Y68.763 E.08556
G1 X176.319 Y69.167 E.02085
G1 X176.635 Y69.571 E.0191
G1 X177.347 Y71.067 E.06172
G1 X178.018 Y72.625 E.06319
G1 X178.316 Y73.542 E.03592
G1 X178.57 Y74.467 E.03571
G1 X178.8 Y75.891 E.05374
G1 X178.871 Y76.806 E.03415
G1 X178.881 Y77.416 E.02272
G1 X178.842 Y78.601 E.04417
G1 X178.754 Y79.135 E.02016
G1 X176.252 Y84.648 E.22551
G1 X176.197 Y84.84 E.00742
G1 X176.103 Y85.532 E.02603
G1 X175.646 Y86.677 E.04592
G1 X175.351 Y88.434 E.06636
G1 X175.116 Y90.354 E.07204
G1 X175.069 Y91.571 E.04537
G1 X175.12 Y92.905 E.0497
G1 X175.203 Y93.233 E.01263
G1 X175.588 Y94.335 E.04346
G1 X176.042 Y95.493 E.04631
G1 X176.25 Y96.586 E.04144
G1 X176.751 Y97.887 E.05192
G1 X177.316 Y99.238 E.05456
G1 X177.857 Y100.258 E.04299
G1 X178.287 Y101.324 E.04282
G1 X179.031 Y103.813 E.09678
G1 X179.857 Y106.707 E.11209
G1 X180.079 Y107.3 E.02357
G1 X180.116 Y108.139 E.03128
G1 X180.185 Y108.649 E.01917
G1 X180.369 Y109.311 E.02558
G1 X180.404 Y110.331 E.03803
G1 X180.353 Y110.98 E.02424
G1 X180.402 Y112.277 E.04834
G1 X180.247 Y113.141 E.0327
G1 X180.132 Y114.762 E.06055
G1 X179.336 Y118.16 E.12996
G1 X179.149 Y119.035 E.03335
G1 X179.149 Y120.73 E.06313
G1 X178.893 Y122.721 E.07475
G1 X178.593 Y124.717 E.07517
G1 X178.419 Y125.359 E.02479
G1 X178.186 Y125.964 E.02416
G1 X177.493 Y127.513 E.06319
G1 X176.487 Y130.487 E.11694
G1 X175.215 Y133.426 E.11926
G1 X174.553 Y135.296 E.0739
G1 X174.091 Y136.239 E.03913
G1 X173.6 Y137.143 E.03832
G1 X172.806 Y138.149 E.04771
G1 X172.469 Y138.897 E.03057
G1 X172.194 Y139.331 E.01912
G1 X171.899 Y139.75 E.01908
G1 X171.069 Y140.614 E.04463
G1 X169.844 Y142.192 E.07441
G1 X168.8 Y142.955 E.04817
G1 X167.574 Y143.965 E.05915
G1 X166.329 Y145.015 E.06066
G1 X165.596 Y145.731 E.03815
G1 X164.735 Y146.351 E.03954
G1 X163.868 Y147.142 E.0437
G1 X163.056 Y147.848 E.0401
G1 X161.59 Y148.76 E.0643
G1 X160.054 Y149.66 E.06632
G1 X158.041 Y150.741 E.0851
G1 X157.176 Y151.355 E.0395
G1 X156.244 Y151.914 E.04046
G1 X155.97 Y152.338 E.01883
G1 X155.678 Y152.491 E.01229
G1 X154.565 Y152.99 E.04542
G1 X153.895 Y153.481 E.03093
G1 X153.455 Y153.767 E.01955
G1 X149.505 Y155.763 E.16484
G1 X145.424 Y157.777 E.16948
G1 X143.338 Y158.701 E.085
G1 X142.394 Y159.263 E.04092
G1 X138.587 Y161.265 E.1602
G1 X137.576 Y162.01 E.04676
G1 X136.556 Y162.629 E.04444
G1 X135.835 Y163.333 E.03755
G1 X134.731 Y164.176 E.05172
G1 X133.696 Y165.537 E.06367
G1 X132.791 Y166.345 E.04519
G1 X130.577 Y168.863 E.1249
