; HEADER_BLOCK_START
; generated by OrcaSlicer 1.9.1 on 2024-02-23 at 23:53:57
; total layer number: 15
; filament_density: 1.27
; filament_diameter: 1.75
; max_z_height: 3.00
; HEADER_BLOCK_END

; THUMBNAIL_BLOCK_START

;
; THUMBNAIL_BLOCK_END

; external perimeters extrusion width = 0.40mm
; perimeters extrusion width = 0.45mm
; infill extrusion width = 0.45mm
; solid infill extrusion width = 0.40mm
; top infill extrusion width = 0.40mm
; support material extrusion width = 0.40mm
; first layer extrusion width = 0.50mm

; EXECUTABLE_BLOCK_START
EXCLUDE_OBJECT_DEFINE NAME=Seatbelt_Muter_id_0_copy_0 CENTER=111.848,116.329 POLYGON=[[81.8483,109.329],[81.8622,108.729],[81.9038,108.13],[81.973,107.533],[82.0697,106.94],[82.1936,106.353],[82.3446,105.771],[82.5222,105.198],[82.7262,104.633],[82.956,104.078],[83.2112,103.534],[83.4913,103.003],[83.7955,102.485],[84.1234,101.982],[84.4741,101.495],[84.847,101.024],[85.2412,100.571],[85.656,100.137],[86.0903,99.7219],[86.5433,99.3277],[87.0141,98.9548],[87.5016,98.6041],[88.0047,98.2762],[88.5225,97.972],[89.0537,97.6919],[89.5974,97.4367],[90.1522,97.2069],[90.7171,97.003],[91.2907,96.8253],[91.872,96.6744],[92.4596,96.5504],[93.0523,96.4537],[93.6488,96.3845],[94.248,96.3429],[94.8483,96.3291],[102.956,96.3291],[103.364,96.3429],[103.769,96.3844],[104.171,96.4534],[104.567,96.5495],[137.467,105.552],[137.858,105.675],[138.239,105.826],[138.609,106.002],[138.966,106.203],[139.308,106.427],[139.635,106.675],[139.944,106.944],[140.233,107.234],[140.503,107.543],[140.75,107.869],[140.975,108.212],[141.176,108.569],[141.352,108.939],[141.502,109.32],[141.626,109.71],[141.723,110.108],[141.792,110.512],[141.834,110.92],[141.848,111.329],[141.848,121.329],[141.834,121.739],[141.792,122.146],[141.723,122.55],[141.626,122.948],[141.502,123.338],[141.352,123.719],[141.176,124.089],[140.975,124.447],[140.75,124.789],[140.503,125.116],[140.233,125.424],[139.944,125.714],[139.635,125.983],[139.308,126.231],[138.966,126.456],[138.609,126.656],[138.239,126.832],[137.858,126.983],[137.467,127.107],[104.567,136.109],[104.171,136.205],[103.769,136.274],[103.364,136.315],[102.956,136.329],[94.8483,136.329],[94.248,136.315],[93.6488,136.274],[93.0523,136.204],[92.4596,136.108],[91.872,135.984],[91.2907,135.833],[90.7171,135.655],[90.1522,135.451],[89.5974,135.221],[89.0537,134.966],[88.5225,134.686],[88.0047,134.382],[87.5016,134.054],[87.0141,133.703],[86.5433,133.33],[86.0903,132.936],[85.656,132.521],[85.2412,132.087],[84.847,131.634],[84.4741,131.163],[84.1234,130.676],[83.7955,130.173],[83.4913,129.655],[83.2112,129.124],[82.956,128.58],[82.7262,128.025],[82.5222,127.46],[82.3446,126.887],[82.1936,126.305],[82.0697,125.718],[81.973,125.125],[81.9038,124.529],[81.8622,123.929],[81.8483,123.329],[81.8483,109.329]]
M73 P0 R18
;TYPE:Custom
M117 ; clear display for KAMP meshing
START_PRINT BED_TEMP=80 EXTRUDER_TEMP=255
G90
G21
M83 ; use relative distances for extrusion
; filament start gcode
M106 S0
;LAYER_CHANGE
;Z:0.2
;HEIGHT:0.2
;BEFORE_LAYER_CHANGE
;0.2
G92 E0

G1 E-5 F3600
;_SET_FAN_SPEED_CHANGING_LAYER
SET_VELOCITY_LIMIT ACCEL=500 ACCEL_TO_DECEL=250
G1 Z.4 F9000
G1 X85.652 Y98.045
G1 Z.4
G1 Z.2
G1 E5 F2400
;TYPE:Skirt
;WIDTH:0.5
G1 F3000
G1 X86.794 Y97.204 E.0512
G1 X88.012 Y96.478 E.0512
G1 X89.295 Y95.874 E.0512
G1 X91.395 Y95.188 E.07975
G1 X93.491 Y94.836 E.07677
G1 X94.849 Y94.772 E.04906
G1 X103.003 Y94.774 E.29442
G1 X104.105 Y94.86 E.03989
G1 X140.224 Y100.739 E1.32128
M73 P0 R17
G1 X141.737 Y101.295 E.05822
G1 X142.293 Y101.616 E.02316
G1 X143.124 Y102.254 E.03783
G1 X143.577 Y102.707 E.02316
G1 X144.215 Y103.539 E.03783
G1 X144.536 Y104.094 E.02316
G1 X144.937 Y105.062 E.03783
G1 X145.103 Y105.682 E.02316
G1 X145.253 Y106.85 E.04252
G1 X146.599 Y124.079 E.62398
G1 X146.449 Y125.63 E.05626
G1 X146.283 Y126.25 E.02316
G1 X145.882 Y127.218 E.03783
G1 X145.561 Y127.773 E.02316
G1 X144.924 Y128.605 E.03783
G1 X144.47 Y129.058 E.02316
G1 X143.639 Y129.696 E.03783
G1 X143.083 Y130.017 E.02316
G1 X141.64 Y130.56 E.05567
G1 X103.607 Y137.857 E1.39828
G1 X94.788 Y137.885 E.3184
G1 X93.49 Y137.822 E.04693
G1 X92.088 Y137.621 E.05116
G1 X90.595 Y137.25 E.05552
G1 X88.653 Y136.501 E.07519
G1 X87.295 Y135.772 E.05564
G1 X85.652 Y134.613 E.07259
G1 X84.598 Y133.664 E.0512
G1 X83.641 Y132.618 E.0512
G1 X82.79 Y131.483 E.0512
G1 X82.054 Y130.271 E.0512
G1 X81.111 Y128.142 E.08407
G1 X80.708 Y126.783 E.0512
G1 X80.439 Y125.39 E.0512
G1 X80.291 Y123.329 E.07461
G1 X80.306 Y108.68 E.52893
G1 X80.439 Y107.268 E.0512
G1 X80.708 Y105.875 E.0512
G1 X81.439 Y103.665 E.08406
G1 X82.054 Y102.387 E.0512
G1 X82.79 Y101.175 E.0512
G1 X83.641 Y100.04 E.0512
G1 X84.596 Y98.996 E.05109
G1 X85.622 Y98.072 E.04987
; printing object Seatbelt Muter id:0 copy 0
G1 E-3.8 F3600
;WIPE_START
G1 F3000
G1 X86.426 Y97.477 E-1.2
;WIPE_END
EXCLUDE_OBJECT_START NAME=Seatbelt_Muter_id_0_copy_0
G1 Z.6 F9000
G1 X137.182 Y126.582 Z.6
G1 Z.2
G1 E5 F2400
;TYPE:Brim
G1 F900
G1 X137.436 Y126.52 E.00945
G1 X137.867 Y126.368 E.01651
G1 X138.234 Y126.205 E.01448
G1 X138.581 Y126.019 E.01421
G1 X138.92 Y125.805 E.01449
G1 X139.243 Y125.565 E.01453
G1 X139.552 Y125.297 E.01478
G1 X139.865 Y124.978 E.01612
G1 X140.096 Y124.71 E.01278
G1 X140.32 Y124.407 E.01361
G1 X140.547 Y124.047 E.01537
G1 X140.735 Y123.691 E.01453
G1 X140.905 Y123.303 E.0153
G1 X141.039 Y122.916 E.0148
G1 X141.146 Y122.511 E.0151
G1 X141.217 Y122.133 E.01388
G1 X141.261 Y121.742 E.01421
G1 X141.274 Y120.682 E.03828
G1 X142.028 Y120.994 E.02947
G1 X142.811 Y121.596 E.03566
G1 X143.413 Y122.379 E.03566
G1 X143.79 Y123.292 E.03566
G1 X143.919 Y124.271 E.03566
G1 X143.79 Y125.25 E.03566
G1 X143.413 Y126.162 E.03566
G1 X142.811 Y126.946 E.03566
G1 X142.028 Y127.547 E.03566
G1 X141.115 Y127.925 E.03566
G1 X140.136 Y128.054 E.03566
G1 X139.157 Y127.925 E.03566
G1 X138.245 Y127.547 E.03566
G1 X137.461 Y126.946 E.03566
G1 X137.206 Y126.613 E.01513
G1 X138.151 Y126.839 F9000
G1 F900
G1 X138.226 Y126.709 E.00542
G1 X138.83 Y126.402 E.02448
G1 X139.196 Y126.169 E.01565
G1 X139.546 Y125.908 E.01577
G1 X139.882 Y125.614 E.01614
G1 X140.188 Y125.302 E.01576
G1 X140.466 Y124.978 E.0154
G1 X140.709 Y124.647 E.01484
G1 X140.931 Y124.295 E.01502
G1 X141.137 Y123.909 E.0158
G1 X141.322 Y123.49 E.01655
G1 X141.47 Y123.07 E.01606
G1 X141.587 Y122.632 E.01637
G1 X141.665 Y122.223 E.01503
G1 X141.72 Y121.6 E.02259
G1 X141.777 Y121.501 E.00413
G1 X141.94 Y121.503 E.0059
G1 X142.496 Y121.936 E.02544
G1 X143.002 Y122.595 E.03001
G1 X143.347 Y123.429 E.03257
G1 X143.456 Y124.253 E.03001
G1 X143.347 Y125.113 E.03129
G1 X143.002 Y125.946 E.03257
G1 X142.496 Y126.605 E.03001
G1 X141.812 Y127.137 E.03129
G1 X140.978 Y127.482 E.03257
G1 X140.154 Y127.591 E.03001
G1 X139.294 Y127.482 E.03129
G1 X138.461 Y127.137 E.03257
G1 X138.204 Y126.94 E.01168
G1 X138.169 Y126.874 E.00269
G1 X139.138 Y126.871 F9000
G1 F900
G1 X139.151 Y126.757 E.00413
G1 X139.815 Y126.277 E.02961
G1 X140.212 Y125.93 E.01903
G1 X140.511 Y125.625 E.01541
G1 X140.81 Y125.279 E.01652
G1 X141.075 Y124.921 E.01607
G1 X141.315 Y124.543 E.01617
G1 X141.538 Y124.129 E.01699
G1 X141.738 Y123.678 E.01779
G1 X141.912 Y123.185 E.01888
G1 X142.076 Y122.506 E.02522
G1 X142.147 Y122.416 E.00413
G1 X142.262 Y122.412 E.00413
G1 X142.319 Y122.455 E.00258
G1 X142.61 Y122.842 E.0175
G1 X142.895 Y123.531 E.02692
G1 X142.993 Y124.236 E.0257
G1 X142.895 Y125.011 E.02821
G1 X142.592 Y125.73 E.02815
G1 X142.156 Y126.291 E.02568
G1 X141.594 Y126.727 E.02564
G1 X140.875 Y127.03 E.02817
G1 X140.135 Y127.127 E.02696
G1 X139.431 Y127.039 E.02564
G1 X139.215 Y126.955 E.00834
G1 X139.165 Y126.9 E.00269
G1 X140.346 Y126.48 F9000
G1 F900
G1 X140.387 Y126.384 E.00375
G1 X140.861 Y125.919 E.02397
G1 X141.18 Y125.547 E.0177
G1 X141.463 Y125.162 E.01723
G1 X141.72 Y124.756 E.01737
G1 X141.938 Y124.351 E.0166
G1 X142.205 Y123.731 E.02436
G1 X142.29 Y123.654 E.00413
G1 X142.403 Y123.669 E.00413
G1 X142.466 Y123.766 E.0042
G1 X142.529 Y124.257 E.01786
G1 X142.442 Y124.909 E.02375
G1 X142.183 Y125.511 E.02366
G1 X141.841 Y125.952 E.02015
G1 X141.376 Y126.318 E.02136
G1 X140.736 Y126.587 E.02505
G1 X140.501 Y126.618 E.00856
G1 X140.392 Y126.584 E.00413
G1 X140.362 Y126.516 E.00269
G1 E-3.5 F3600
;WIPE_START
M73 P1 R17
G1 F900
G1 X140.387 Y126.384 E-.20144
G1 X140.861 Y125.919 E-.99582
G1 X140.992 Y125.766 E-.30274
;WIPE_END
G1 Z.6 F9000
G1 X141.101 Y109.996 Z.6
G1 Z.2
G1 E5 F2400
G1 F900
G1 X141.039 Y109.742 E.00945
G1 X140.894 Y109.327 E.01586
G1 X140.735 Y108.966 E.01425
G1 X140.539 Y108.597 E.01509
G1 X140.324 Y108.258 E.01449
G1 X140.084 Y107.934 E.01453
G1 X139.816 Y107.625 E.01478
G1 X139.498 Y107.312 E.01612
G1 X139.229 Y107.082 E.01278
G1 X138.926 Y106.858 E.01361
G1 X138.581 Y106.639 E.01475
G1 X138.21 Y106.442 E.01515
G1 X137.798 Y106.263 E.01622
G1 X137.426 Y106.135 E.01421
G1 X137.054 Y106.037 E.01388
G1 X136.653 Y105.961 E.01476
G1 X136.254 Y105.916 E.01449
G1 X135.201 Y105.904 E.03801
G1 X135.514 Y105.15 E.02947
G1 X136.115 Y104.366 E.03566
G1 X136.898 Y103.765 E.03566
G1 X137.811 Y103.387 E.03566
G1 X138.79 Y103.258 E.03566
G1 X139.769 Y103.387 E.03566
G1 X140.682 Y103.765 E.03566
G1 X141.465 Y104.366 E.03566
G1 X142.066 Y105.15 E.03566
G1 X142.444 Y106.062 E.03566
G1 X142.573 Y107.041 E.03566
G1 X142.444 Y108.02 E.03566
G1 X142.066 Y108.933 E.03566
G1 X141.465 Y109.716 E.03566
G1 X141.133 Y109.972 E.01513
G1 X141.358 Y109.027 F9000
G1 F900
G1 X141.228 Y108.952 E.00541
G1 X140.922 Y108.347 E.02448
G1 X140.688 Y107.982 E.01565
G1 X140.427 Y107.632 E.01577
G1 X140.133 Y107.295 E.01614
G1 X139.821 Y106.989 E.01576
G1 X139.497 Y106.712 E.0154
G1 X139.167 Y106.469 E.0148
G1 X138.791 Y106.233 E.01603
G1 X138.429 Y106.041 E.01479
G1 X137.984 Y105.846 E.01755
G1 X137.579 Y105.704 E.0155
G1 X137.176 Y105.596 E.01505
G1 X136.744 Y105.513 E.0159
G1 X136.119 Y105.457 E.02263
G1 X136.02 Y105.4 E.00413
G1 X136.023 Y105.237 E.00589
G1 X136.43 Y104.706 E.02414
G1 X137.146 Y104.157 E.03257
G1 X137.948 Y103.83 E.03129
G1 X138.772 Y103.721 E.03001
G1 X139.632 Y103.83 E.03129
G1 X140.434 Y104.157 E.03129
G1 X141.125 Y104.681 E.03129
G1 X141.656 Y105.366 E.03129
G1 X141.992 Y106.165 E.03129
G1 X142.11 Y107.023 E.03129
G1 X142.001 Y107.883 E.03129
G1 X141.674 Y108.686 E.03129
G1 X141.459 Y108.973 E.01296
G1 X141.393 Y109.008 E.00269
G1 X141.392 Y108.041 F9000
G1 F900
G1 X141.278 Y108.029 E.00413
G1 X141.233 Y107.985 E.00226
G1 X141.052 Y107.704 E.01208
G1 X140.796 Y107.362 E.01541
G1 X140.449 Y106.965 E.01903
G1 X140.145 Y106.666 E.01541
G1 X139.798 Y106.368 E.01652
G1 X139.441 Y106.104 E.01603
G1 X139.038 Y105.848 E.01723
G1 X138.648 Y105.639 E.01598
G1 X138.172 Y105.429 E.01879
G1 X137.695 Y105.262 E.01826
G1 X137.031 Y105.102 E.02463
G1 X136.941 Y105.032 E.00413
G1 X136.937 Y104.917 E.00413
G1 X136.98 Y104.86 E.00259
G1 X137.36 Y104.568 E.01731
G1 X138.05 Y104.282 E.02695
G1 X138.756 Y104.185 E.02573
G1 X139.497 Y104.274 E.02696
G1 X140.22 Y104.569 E.02821
G1 X140.812 Y105.023 E.02692
G1 X141.265 Y105.615 E.02692
G1 X141.54 Y106.27 E.02564
G1 X141.646 Y107.008 E.02692
G1 X141.558 Y107.748 E.02692
G1 X141.475 Y107.963 E.00829
G1 X141.421 Y108.014 E.00269
G1 X141 Y106.831 F9000
G1 F900
G1 X140.903 Y106.79 E.0038
G1 X140.439 Y106.316 E.02395
G1 X140.1 Y106.024 E.01614
G1 X139.717 Y105.739 E.01725
G1 X139.286 Y105.465 E.01843
G1 X138.869 Y105.239 E.01713
G1 X138.252 Y104.972 E.02427
G1 X138.175 Y104.887 E.00413
G1 X138.19 Y104.774 E.00413
G1 X138.287 Y104.711 E.0042
G1 X138.777 Y104.648 E.01784
G1 X139.363 Y104.718 E.0213
G1 X139.974 Y104.962 E.02373
G1 X140.496 Y105.363 E.0238
G1 X140.873 Y105.863 E.0226
G1 X141.099 Y106.41 E.02138
G1 X141.137 Y106.674 E.00962
G1 X141.104 Y106.784 E.00413
G1 X141.036 Y106.814 E.00269
G1 E-3.5 F3600
;WIPE_START
G1 F900
G1 X140.903 Y106.79 E-.20335
G1 X140.439 Y106.316 E-.99487
G1 X140.286 Y106.185 E-.30178
;WIPE_END
G1 Z.6 F9000
G1 X107.359 Y129.169 Z.6
G1 Z.2
G1 E5 F2400
;TYPE:Inner wall
;WIDTH:0.499999
G1 F900
G1 X107.201 Y129.566 E.01542
G1 X107.029 Y130.064 E.01901
G1 X106.806 Y131.144 E.03984
G1 X106.629 Y131.733 E.02219
G1 X106.361 Y132.297 E.02254
G1 X106.034 Y132.776 E.02095
G1 X105.639 Y133.204 E.02103
G1 X105.185 Y133.569 E.02104
G1 X104.684 Y133.862 E.02095
G1 X104.103 Y134.09 E.02253
G1 X103.537 Y134.219 E.02095
G1 X102.913 Y134.265 E.02259
G1 X94.522 Y134.255 E.30299
G1 X93.785 Y134.213 E.02665
G1 X93.256 Y134.148 E.01925
G1 X92.733 Y134.058 E.01916
G1 X92.17 Y133.93 E.02081
G1 X91.674 Y133.793 E.0186
G1 X91.124 Y133.609 E.02093
G1 X90.605 Y133.405 E.02016
G1 X90.121 Y133.189 E.01912
G1 X89.649 Y132.948 E.01913
G1 X89.186 Y132.684 E.01924
G1 X88.299 Y132.086 E.03863
G1 X87.884 Y131.759 E.01908
G1 X87.481 Y131.41 E.01924
G1 X87.074 Y131.018 E.0204
G1 X86.73 Y130.655 E.01807
G1 X86.383 Y130.251 E.01924
G1 X86.056 Y129.83 E.01923
G1 X85.741 Y129.38 E.01984
G1 X85.465 Y128.944 E.01862
G1 X85.203 Y128.481 E.01923
G1 X84.964 Y128.005 E.01923
G1 X84.748 Y127.518 E.01922
G1 X84.534 Y126.959 E.02162
G1 X84.37 Y126.456 E.01911
G1 X84.23 Y125.942 E.01922
G1 X84.116 Y125.422 E.01922
G1 X84.023 Y124.867 E.0203
G1 X83.93 Y123.928 E.03409
G1 X83.912 Y123.312 E.02225
G1 X83.912 Y109.343 E.50436
G1 X83.926 Y108.796 E.01975
G1 X83.965 Y108.265 E.01924
G1 X84.03 Y107.736 E.01923
G1 X84.12 Y107.211 E.01924
G1 X84.236 Y106.691 E.01923
G1 X84.377 Y106.177 E.01924
G1 X84.543 Y105.673 E.01918
G1 X84.758 Y105.114 E.02163
G1 X84.975 Y104.629 E.01918
G1 X85.215 Y104.153 E.01924
G1 X85.479 Y103.69 E.01924
G1 X85.765 Y103.241 E.01924
G1 X86.072 Y102.805 E.01924
G1 X86.4 Y102.386 E.01924
G1 X86.746 Y101.985 E.01913
G1 X87.146 Y101.569 E.02083
G1 X87.524 Y101.21 E.01881
G1 X87.927 Y100.864 E.01917
G1 X88.347 Y100.537 E.01923
G1 X88.783 Y100.231 E.01923
G1 X89.233 Y99.946 E.01923
G1 X89.697 Y99.684 E.01923
G1 X90.173 Y99.445 E.01923
G1 X90.659 Y99.229 E.01923
G1 X91.156 Y99.037 E.01923
G1 X91.94 Y98.791 E.02967
G1 X92.597 Y98.63 E.02442
G1 X93.141 Y98.53 E.01995
G1 X93.718 Y98.453 E.02105
G1 X94.318 Y98.406 E.02172
G1 X94.862 Y98.393 E.01965
G1 X103.009 Y98.399 E.29415
M73 P2 R17
G1 X103.637 Y98.462 E.02279
G1 X104.209 Y98.61 E.02134
G1 X104.786 Y98.856 E.02263
G1 X105.241 Y99.14 E.01935
G1 X105.752 Y99.574 E.02423
G1 X106.099 Y99.977 E.01917
G1 X106.412 Y100.47 E.0211
G1 X106.663 Y101.037 E.02241
G1 X106.817 Y101.582 E.02043
G1 X106.93 Y102.203 E.02281
G1 X107.233 Y103.209 E.03791
G1 X107.538 Y103.872 E.02636
G1 X107.767 Y104.262 E.01632
G1 X108.13 Y104.806 E.0236
G1 X108.785 Y105.543 E.03562
G1 X109.502 Y106.145 E.03379
G1 X110.261 Y106.619 E.03234
G1 X111.121 Y107.001 E.03397
G1 X111.867 Y107.221 E.02807
G1 X112.842 Y107.373 E.03562
G1 X113.348 Y107.393 E.0183
G1 X135.806 Y107.393 E.81086
G1 X136.428 Y107.439 E.02251
G1 X136.992 Y107.567 E.02088
G1 X137.571 Y107.794 E.02247
G1 X138.072 Y108.086 E.02094
G1 X138.491 Y108.418 E.01929
G1 X138.947 Y108.909 E.0242
G1 X139.247 Y109.35 E.01928
G1 X139.501 Y109.872 E.02095
G1 X139.667 Y110.409 E.02028
G1 X139.744 Y110.862 E.01661
G1 X139.784 Y111.363 E.01813
G1 X139.782 Y121.311 E.35917
G1 X139.726 Y121.963 E.02365
G1 X139.583 Y122.543 E.02155
G1 X139.349 Y123.11 E.02216
G1 X139.05 Y123.605 E.02088
G1 X138.708 Y124.019 E.01941
G1 X138.21 Y124.468 E.02419
G1 X137.766 Y124.757 E.01911
G1 X137.24 Y125.002 E.02097
G1 X136.624 Y125.179 E.02314
G1 X135.827 Y125.265 E.02894
G1 X113.266 Y125.268 E.81458
G1 X112.329 Y125.347 E.03396
G1 X111.517 Y125.526 E.03002
G1 X110.536 Y125.901 E.03793
G1 X109.72 Y126.362 E.03381
G1 X109.01 Y126.907 E.03232
G1 X108.351 Y127.578 E.03397
G1 X107.794 Y128.336 E.03397
G1 X107.42 Y129.017 E.02806
G1 X107.374 Y129.132 E.00446
G1 X107.797 Y129.301 F9000
G1 F900
G1 X107.771 Y129.35 E.00203
G1 X107.477 Y130.156 E.03099
G1 X107.25 Y131.257 E.04057
G1 X107.057 Y131.898 E.02419
G1 X106.758 Y132.525 E.02506
G1 X106.393 Y133.062 E.02344
G1 X105.952 Y133.539 E.02349
G1 X105.444 Y133.947 E.02349
G1 X104.884 Y134.274 E.02344
G1 X104.238 Y134.528 E.02506
G1 X103.605 Y134.672 E.02344
G1 X102.93 Y134.722 E.02443
G1 X94.859 Y134.722 E.29143
G1 X94.258 Y134.704 E.0217
