; HEADER_BLOCK_START
; generated by OrcaSlicer 1.9.0 on 2024-02-07 at 12:51:09
; total layer number: 20
; filament_density: 1.27
; filament_diameter: 1.75
; max_z_height: 4.00
; HEADER_BLOCK_END

; THUMBNAIL_BLOCK_START

;
; THUMBNAIL_BLOCK_END

; THUMBNAIL_BLOCK_START

;
; THUMBNAIL_BLOCK_END

; external perimeters extrusion width = 0.40mm
; perimeters extrusion width = 0.45mm
; infill extrusion width = 0.45mm
; solid infill extrusion width = 0.40mm
; top infill extrusion width = 0.40mm
; support material extrusion width = 0.40mm
; first layer extrusion width = 0.50mm

; EXECUTABLE_BLOCK_START
EXCLUDE_OBJECT_DEFINE NAME=ML4_-_v75_-_ring.stl_id_0_copy_0 CENTER=110,110 POLYGON=[[95.2,102.033],[95.2112,101.884],[95.2444,101.738],[95.299,101.599],[95.3738,101.469],[95.4669,101.352],[95.5765,101.251],[95.7,101.167],[109.5,93.1991],[109.635,93.1343],[109.777,93.0902],[109.925,93.0679],[110.075,93.0679],[110.223,93.0902],[110.365,93.1343],[110.5,93.1991],[124.3,101.167],[124.423,101.251],[124.533,101.352],[124.626,101.469],[124.701,101.599],[124.756,101.738],[124.789,101.884],[124.8,102.033],[124.8,117.967],[124.789,118.116],[124.756,118.262],[124.701,118.401],[124.626,118.531],[124.533,118.648],[124.423,118.749],[124.3,118.833],[110.5,126.801],[110.365,126.866],[110.223,126.91],[110.075,126.932],[109.925,126.932],[109.777,126.91],[109.635,126.866],[109.5,126.801],[95.7,118.833],[95.5765,118.749],[95.4669,118.648],[95.3738,118.531],[95.299,118.401],[95.2444,118.262],[95.2112,118.116],[95.2,117.967],[95.2,102.033]]
M73 P0 R6
;TYPE:Custom
M117 ; clear display for KAMP meshing
START_PRINT BED_TEMP=75 EXTRUDER_TEMP=240
G90
G21
M83 ; use relative distances for extrusion
; filament start gcode
SET_PRESSURE_ADVANCE ADVANCE=0.018; Override pressure advance value
M106 S0
;LAYER_CHANGE
;Z:0.2
;HEIGHT:0.2
;BEFORE_LAYER_CHANGE
;0.2
G92 E0

G10 ; retract
;_SET_FAN_SPEED_CHANGING_LAYER
SET_VELOCITY_LIMIT ACCEL=500 ACCEL_TO_DECEL=250
G1 Z.4 F9000
G1 X94.085 Y99.968
G1 Z.2
G11 ; unretract
;TYPE:Skirt
;WIDTH:0.5
G1 F3000
G1 X94.548 Y99.582 E.02286
G1 X108.521 Y91.504 E.61188
G1 X109.242 Y91.208 E.02955
G1 X110.22 Y91.118 E.03723
G1 X110.77 Y91.213 E.02114
G1 X111.479 Y91.504 E.02905
G1 X125.279 Y99.472 E.60411
G1 X125.789 Y99.846 E.024
G1 X126.212 Y100.325 E.02425
G1 X126.653 Y101.26 E.03918
G1 X126.757 Y102.033 E.02955
G1 X126.757 Y117.967 E.60411
G1 X126.673 Y118.659 E.02642
G1 X126.447 Y119.279 E.02501
G1 X125.915 Y120.032 E.03497
G1 X125.452 Y120.418 E.02286
G1 X111.479 Y128.496 E.61188
G1 X110.837 Y128.769 E.02642
G1 X110.188 Y128.883 E.02501
G1 X109.269 Y128.799 E.03497
G1 X108.521 Y128.496 E.03059
G1 X94.721 Y120.528 E.60411
G1 X94.211 Y120.154 E.024
G1 X93.788 Y119.675 E.02425
G1 X93.347 Y118.74 E.03918
G1 X93.243 Y117.967 E.02955
G1 X93.243 Y102.033 E.60411
G1 X93.327 Y101.341 E.02642
G1 X93.553 Y100.721 E.02501
G1 X94.062 Y100 E.03345
; printing object ML4_-_v75_-_ring.stl id:0 copy 0
G10 ; retract
EXCLUDE_OBJECT_START NAME=ML4_-_v75_-_ring.stl_id_0_copy_0
G1 Z.6 F9000
M73 P1 R6
G1 X110.146 Y93.861 Z.6
G1 Z.2
G11 ; unretract
;TYPE:Outer wall
;WIDTH:0.534915
G1 F900
G1 X110.366 Y94.008 E.01079
;WIDTH:0.569831
G1 X110.586 Y94.155 E.01156
G1 X111.119 Y94.435 E.02633
;WIDTH:0.521461
G1 X122.921 Y101.249 E.54089
;WIDTH:0.523215
G1 X123.686 Y101.678 E.03495
;WIDTH:0.499999
G1 X124.005 Y101.904 E.01482
G1 X124.05 Y102.12 E.00837
;WIDTH:0.534915
G1 X124.033 Y102.352 E.0095
;WIDTH:0.569831
G1 X124.015 Y102.585 E.01017
G1 X124.039 Y103.187 E.02633
;WIDTH:0.521459
G1 X124.039 Y116.813 E.54086
;WIDTH:0.52502
G1 X124.037 Y116.896 E.0033
;WIDTH:0.569831
G1 X124.015 Y117.415 E.02273
G1 X124.033 Y117.648 E.01017
;WIDTH:0.534915
G1 X124.05 Y117.88 E.0095
;WIDTH:0.499999
G1 X124.005 Y118.096 E.00837
G1 X123.851 Y118.227 E.00767
;WIDTH:0.536414
G1 X123.383 Y118.476 E.0217
G1 X122.921 Y118.751 E.02202
;WIDTH:0.52146
G1 X111.119 Y125.565 E.54091
;WIDTH:0.545196
G1 X110.748 Y125.766 E.01754
G1 X110.245 Y126.082 E.02477
;WIDTH:0.499999
G1 X109.991 Y126.176 E.01025
G1 X109.849 Y126.136 E.0056
;WIDTH:0.534915
G1 X109.632 Y125.991 E.01067
;WIDTH:0.56983
G1 X109.414 Y125.845 E.01143
G1 X108.881 Y125.565 E.02633
;WIDTH:0.521461
G1 X97.079 Y118.751 E.54089
;WIDTH:0.523214
M73 P2 R6
G1 X96.314 Y118.322 E.03495
;WIDTH:0.499999
G1 X95.995 Y118.096 E.01482
G1 X95.95 Y117.934 E.00636
;WIDTH:0.534915
G1 X95.967 Y117.675 E.01061
;WIDTH:0.569831
G1 X95.985 Y117.415 E.01136
G1 X95.961 Y116.813 E.02633
;WIDTH:0.52146
G1 X95.961 Y103.187 E.54086
;WIDTH:0.525019
G1 X95.963 Y103.104 E.0033
;WIDTH:0.569831
G1 X95.985 Y102.585 E.02273
G1 X95.967 Y102.352 E.01017
;WIDTH:0.534915
G1 X95.95 Y102.12 E.0095
;WIDTH:0.499999
G1 X95.995 Y101.904 E.00837
G1 X96.149 Y101.773 E.00767
;WIDTH:0.536414
G1 X96.617 Y101.524 E.0217
G1 X97.079 Y101.249 E.02202
;WIDTH:0.52146
G1 X108.881 Y94.435 E.54091
;WIDTH:0.5319
G1 X109.953 Y93.823 E.05002
;WIDTH:0.499999
G1 X110.107 Y93.853 E.00595
G10 ; retract
G1 Z.6 F9000
G1 X96.503 Y117.207 Z.6
G1 Z.2
G11 ; unretract
;WIDTH:0.54236
G1 F900
G1 X96.441 Y116.855 E.01482
;WIDTH:0.525019
G1 X96.439 Y116.813 E.00165
;WIDTH:0.52146
G1 X96.439 Y103.187 E.54086
;WIDTH:0.569831
M73 P3 R6
G1 X96.508 Y102.63 E.02453
G1 X96.959 Y101.93 E.03637
;WIDTH:0.536414
G1 X97.319 Y101.663 E.01834
;WIDTH:0.52146
G1 X109.121 Y94.849 E.54091
;WIDTH:0.5319
G1 X109.532 Y94.673 E.01815
;WIDTH:0.54217
G1 X110.287 Y94.629 E.03132
G1 X110.843 Y94.83 E.02448
;WIDTH:0.52502
G1 X110.88 Y94.849 E.00165
;WIDTH:0.521461
G1 X122.681 Y101.663 E.54089
;WIDTH:0.5319
G1 X123.04 Y101.932 E.01815
;WIDTH:0.542172
G1 X123.456 Y102.563 E.03132
G1 X123.559 Y103.145 E.02448
;WIDTH:0.52502
G1 X123.561 Y103.187 E.00165
;WIDTH:0.521459
G1 X123.561 Y116.813 E.54086
;WIDTH:0.569831
G1 X123.492 Y117.37 E.02453
G1 X123.041 Y118.07 E.03637
;WIDTH:0.536414
G1 X122.681 Y118.337 E.01834
;WIDTH:0.52146
G1 X110.879 Y125.151 E.54091
;WIDTH:0.531901
M73 P4 R6
G1 X110.468 Y125.327 E.01815
;WIDTH:0.542169
G1 X109.713 Y125.371 E.03132
G1 X109.157 Y125.17 E.02448
;WIDTH:0.525021
G1 X109.12 Y125.151 E.00165
;WIDTH:0.521461
G1 X97.319 Y118.337 E.54089
;WIDTH:0.531901
G1 X96.96 Y118.068 E.01815
;WIDTH:0.54236
G1 X96.544 Y117.437 E.03134
G1 X96.51 Y117.246 E.00801
G10 ; retract
G1 Z.6 F9000
G1 X96.369 Y102.08 Z.6
G1 Z.2
G11 ; unretract
;TYPE:Inner wall
;WIDTH:0.37886
G1 F900
G1 X96.306 Y102.117 E.00203
G1 X96.369 Y102.153 E.00203
G1 X96.39 Y102.117 E.00117
G10 ; retract
G1 Z.6 F9000
G1 X96.369 Y117.847 Z.6
G1 Z.2
G11 ; unretract
G1 F900
G1 X96.306 Y117.883 E.00203
G1 X96.369 Y117.92 E.00203
G1 X96.39 Y117.883 E.00117
G10 ; retract
G1 Z.6 F9000
G1 X110.02 Y125.729 Z.6
G1 Z.2
G11 ; unretract
;WIDTH:0.378984
G1 F900
G1 X109.957 Y125.765 E.00203
G1 X110.02 Y125.801 E.00203
G1 X110.041 Y125.765 E.00117
G10 ; retract
G1 Z.6 F9000
G1 X123.673 Y117.847 Z.6
G1 Z.2
G11 ; unretract
;WIDTH:0.378856
G1 F900
G1 X123.61 Y117.883 E.00203
G1 X123.673 Y117.92 E.00203
G1 X123.694 Y117.883 E.00117
G10 ; retract
G1 Z.6 F9000
G1 X123.673 Y102.08 Z.6
M73 P5 R6
G1 Z.2
G11 ; unretract
;WIDTH:0.378858
G1 F900
G1 X123.61 Y102.117 E.00203
G1 X123.673 Y102.153 E.00203
G1 X123.694 Y102.117 E.00117
G10 ; retract
G1 Z.6 F9000
G1 X110.021 Y94.198 Z.6
G1 Z.2
G11 ; unretract
;WIDTH:0.379512
G1 F900
G1 X109.958 Y94.235 E.00203
G1 X110.021 Y94.271 E.00203
G1 X110.042 Y94.235 E.00117
; stop printing object ML4_-_v75_-_ring.stl id:0 copy 0
;LAYER_CHANGE
;Z:0.4
;HEIGHT:0.2
;BEFORE_LAYER_CHANGE
;0.4
G92 E0

G10 ; retract
EXCLUDE_OBJECT_END NAME=ML4_-_v75_-_ring.stl_id_0_copy_0
;_SET_FAN_SPEED_CHANGING_LAYER
M140 S75 ; set bed temperature
; printing object ML4_-_v75_-_ring.stl id:0 copy 0
EXCLUDE_OBJECT_START NAME=ML4_-_v75_-_ring.stl_id_0_copy_0
G1 Z.6 F9000
G1 X110.121 Y94.033 Z.6
G1 Z.4
G11 ; unretract
;WIDTH:0.509997
G1 F2400
G1 X110.279 Y94.105 E.00673
;WIDTH:0.475035
G1 X110.438 Y94.176 E.00623
;WIDTH:0.440072
G1 X110.596 Y94.247 E.00573
;WIDTH:0.405109
G1 X111.08 Y94.503 E.01642
;WIDTH:0.364382
G1 X122.882 Y101.317 E.36335
;WIDTH:0.409228
G1 X123.38 Y101.63 E.01788
;WIDTH:0.442811
G1 X123.531 Y101.744 E.00629
;WIDTH:0.476393
G1 X123.683 Y101.857 E.00681
;WIDTH:0.509975
G1 X123.835 Y101.971 E.00734
G1 X123.888 Y102.094 E.00521
G1 X123.905 Y102.294 E.00778
;WIDTH:0.47502
G1 X123.923 Y102.467 E.00623
;WIDTH:0.440065
G1 X123.94 Y102.64 E.00573
;WIDTH:0.405109
G1 X123.961 Y103.187 E.01642
;WIDTH:0.36438
G1 X123.961 Y116.813 E.36333
;WIDTH:0.405584
G1 X123.94 Y117.365 E.01661
;WIDTH:0.44071
G1 X123.922 Y117.555 E.00627
;WIDTH:0.475836
G1 X123.904 Y117.744 E.00682
;WIDTH:0.510962
G1 X123.885 Y117.933 E.00738
G1 X123.799 Y118.069 E.00624
G1 X123.659 Y118.169 E.00669
;WIDTH:0.477051
G1 X123.52 Y118.269 E.0062
;WIDTH:0.443139
G1 X123.38 Y118.37 E.00572
;WIDTH:0.409227
G1 X122.882 Y118.683 E.01788
;WIDTH:0.364381
G1 X111.079 Y125.497 E.36337
;WIDTH:0.409227
G1 X110.559 Y125.772 E.01788
;WIDTH:0.443139
G1 X110.386 Y125.849 E.00629
;WIDTH:0.47705
G1 X110.213 Y125.927 E.00682
;WIDTH:0.510961
G1 X110.04 Y126.004 E.00736
G1 X109.883 Y125.968 E.00624
G1 X109.723 Y125.896 E.0068
;WIDTH:0.475678
G1 X109.563 Y125.824 E.00629
;WIDTH:0.440394
G1 X109.404 Y125.753 E.00578
;WIDTH:0.40511
G1 X108.92 Y125.497 E.01642
;WIDTH:0.364381
G1 X97.118 Y118.683 E.36335
;WIDTH:0.409227
G1 X96.62 Y118.37 E.01788
;WIDTH:0.44281
G1 X96.455 Y118.243 E.00692
;WIDTH:0.476393
G1 X96.289 Y118.116 E.0075
;WIDTH:0.509975
G1 X96.123 Y117.99 E.00808
G1 X96.095 Y117.706 E.01105
;WIDTH:0.47502
G1 X96.077 Y117.533 E.00623
;WIDTH:0.440065
G1 X96.06 Y117.36 E.00573
;WIDTH:0.405109
G1 X96.039 Y116.813 E.01642
;WIDTH:0.364381
G1 X96.039 Y103.187 E.36333
;WIDTH:0.405109
G1 X96.06 Y102.64 E.01642
;WIDTH:0.439977
G1 X96.083 Y102.438 E.00671
;WIDTH:0.474845
G1 X96.106 Y102.236 E.00729
;WIDTH:0.509713
G1 X96.129 Y102.033 E.00788
G1 X96.209 Y101.925 E.00522
G1 X96.346 Y101.827 E.00653
;WIDTH:0.476218
G1 X96.483 Y101.729 E.00606
;WIDTH:0.442723
G1 X96.62 Y101.63 E.00559
;WIDTH:0.409228
G1 X97.118 Y101.317 E.01788
;WIDTH:0.364381
G1 X108.921 Y94.503 E.36337
;WIDTH:0.409228
G1 X109.441 Y94.228 E.01788
;WIDTH:0.443032
G1 X109.62 Y94.148 E.0065
;WIDTH:0.476835
G1 X109.799 Y94.069 E.00705
;WIDTH:0.510638
G1 X109.978 Y93.989 E.0076
G1 X110.083 Y94.021 E.00425
G1 X110.258 Y93.64 F9000
;TYPE:Outer wall
;WIDTH:0.399999
G1 F1200
G1 X110.267 Y93.642 E.00027
G1 X110.96 Y94.042 E.0237
G1 F1199.999
G1 X123.338 Y101.188 E.42331
M73 P6 R6
G1 X124.03 Y101.588 E.02367
G1 X124.25 Y101.829 E.00966
G1 X124.3 Y102.094 E.00799
G1 X124.3 Y102.894 E.02369
G1 X124.3 Y116.565 E.40489
G1 X124.3 Y117.365 E.02369
G1 X124.293 Y117.998 E.01875
G1 F1214.268
G1 X124.213 Y118.214 E.00682
G1 F1200.002
G1 X124.038 Y118.407 E.00772
G1 X123.345 Y118.807 E.0237
G1 X111.432 Y125.685 E.40741
G1 X110.74 Y126.085 E.02367
G1 X110.22 Y126.377 E.01766
G1 F1214.269
G1 X109.993 Y126.415 E.00682
G1 F1199.999
G1 X109.738 Y126.361 E.00772
G1 X109.045 Y125.961 E.0237
G1 X96.743 Y118.858 E.42072
G1 F1200.002
G1 X96.05 Y118.458 E.0237
G1 X95.779 Y118.231 E.01047
G1 X95.7 Y117.952 E.00859
G1 X95.7 Y117.152 E.02369
G1 F1199.997
G1 X95.7 Y102.931 E.42118
G1 X95.7 Y102.131 E.02369
G1 X95.761 Y101.799 E.01
G1 X95.964 Y101.592 E.00859
G1 X96.657 Y101.192 E.0237
G1 X109.003 Y94.063 E.42223
M73 P7 R6
G1 F1200.001
G1 X109.696 Y93.663 E.0237
G1 X109.966 Y93.575 E.00841
G1 F1221.946
G1 X110.219 Y93.631 E.00767
G10 ; retract
G1 Z.8 F9000
G1 X96.403 Y117.187 Z.8
G1 Z.4
G11 ; unretract
;TYPE:Inner wall
;WIDTH:0.405109
G1 F2400
M106 S0
G1 X96.361 Y116.813 E.0113
;WIDTH:0.364381
G1 X96.361 Y103.187 E.36333
;WIDTH:0.405109
G1 X96.419 Y102.67 E.01561
;WIDTH:0.453337
G1 X96.497 Y102.433 E.00851
;WIDTH:0.501565
G1 X96.574 Y102.195 E.00951
G1 X96.698 Y102.073 E.00662
;WIDTH:0.464225
G1 X96.822 Y101.951 E.00608
;WIDTH:0.426885
G1 X96.947 Y101.829 E.00554
;WIDTH:0.389544
G1 X97.279 Y101.595 E.01169
;WIDTH:0.364381
G1 X109.082 Y94.781 E.36337
;WIDTH:0.409228
G1 X109.563 Y94.567 E.01601
;WIDTH:0.442818
G1 X109.705 Y94.534 E.00483
;WIDTH:0.476408
G1 X109.847 Y94.502 E.00523
;WIDTH:0.509997
G1 X109.989 Y94.469 E.00564
G1 X110.14 Y94.504 E.00601
;WIDTH:0.475035
G1 X110.291 Y94.539 E.00556
;WIDTH:0.440072
G1 X110.442 Y94.574 E.00511
;WIDTH:0.405109
G1 X110.919 Y94.781 E.01561
;WIDTH:0.364382
G1 X122.721 Y101.595 E.36335
;WIDTH:0.409228
G1 X123.147 Y101.905 E.01601
;WIDTH:0.442811
G1 X123.246 Y102.012 E.00483
;WIDTH:0.476393
G1 X123.346 Y102.118 E.00523
;WIDTH:0.509975
G1 X123.445 Y102.225 E.00564
G1 X123.49 Y102.373 E.00601
;WIDTH:0.47502
G1 X123.535 Y102.522 E.00556
;WIDTH:0.440065
G1 X123.581 Y102.67 E.00511
;WIDTH:0.405109
G1 X123.639 Y103.187 E.01561
;WIDTH:0.36438
G1 X123.639 Y116.813 E.36333
;WIDTH:0.405109
G1 X123.581 Y117.33 E.01561
;WIDTH:0.453337
G1 X123.503 Y117.567 E.00851
;WIDTH:0.501564
G1 X123.426 Y117.805 E.00951
G1 X123.302 Y117.927 E.00662
;WIDTH:0.464224
G1 X123.178 Y118.049 E.00608
;WIDTH:0.426883
G1 X123.054 Y118.171 E.00554
;WIDTH:0.389542
G1 X122.721 Y118.405 E.01169
;WIDTH:0.364381
G1 X110.918 Y125.219 E.36337
;WIDTH:0.409227
G1 X110.437 Y125.433 E.01601
;WIDTH:0.443139
G1 X110.296 Y125.466 E.00479
;WIDTH:0.47705
G1 X110.156 Y125.499 E.0052
;WIDTH:0.510961
G1 X110.015 Y125.532 E.0056
G1 X109.863 Y125.497 E.00608
;WIDTH:0.475678
G1 X109.71 Y125.461 E.00562
;WIDTH:0.440394
G1 X109.558 Y125.426 E.00516
;WIDTH:0.40511
G1 X109.081 Y125.219 E.01561
;WIDTH:0.364381
G1 X97.279 Y118.405 E.36335
;WIDTH:0.409227
M73 P8 R5
G1 X96.853 Y118.095 E.01601
;WIDTH:0.44281
G1 X96.754 Y117.988 E.00483
;WIDTH:0.476393
G1 X96.654 Y117.882 E.00523
;WIDTH:0.509975
G1 X96.555 Y117.775 E.00564
G1 X96.51 Y117.627 E.00601
;WIDTH:0.47502
G1 X96.465 Y117.478 E.00556
;WIDTH:0.440065
G1 X96.419 Y117.33 E.00511
;WIDTH:0.405109
G1 X96.408 Y117.227 E.00311
G1 X96.756 Y117.156 F9000
;TYPE:Outer wall
;WIDTH:0.399999
G1 F1156.965
G1 X96.7 Y116.814 E.01026
G1 F1200
G1 X96.7 Y116.813 E.00003
G1 X96.7 Y116.013 E.02369
G1 X96.7 Y103.987 E.35617
G1 X96.7 Y103.187 E.02369
G1 X96.7 Y103.186 E.00003
G1 F1196.438
G1 X96.79 Y102.68 E.01522
G1 X96.961 Y102.344 E.01117
G1 F1200
G1 X96.963 Y102.34 E.00013
G1 X96.969 Y102.333 E.00027
G1 F1196.187
G1 X97.161 Y102.108 E.00876
G1 X97.448 Y101.89 E.01067
G1 F1200
G1 X97.449 Y101.889 E.00004
G1 F1199.999
G1 X98.142 Y101.489 E.0237
G1 X108.558 Y95.475 E.35622
G1 F1200.004
G1 X109.251 Y95.075 E.0237
G1 X109.624 Y94.924 E.01192
G1 X109.63 Y94.923 E.00018
G1 F1192.212
G1 X109.962 Y94.88 E.00991
G1 X110.317 Y94.911 E.01055
G1 F1198.818
G1 X110.749 Y95.075 E.01369
G1 F1200
G1 X110.749 Y95.075
G1 F1199.995
G1 X111.442 Y95.475 E.0237
G1 X121.858 Y101.489 E.35622
G1 F1200
G1 X122.551 Y101.889 E.0237
G1 X122.868 Y102.136 E.0119
G1 X122.872 Y102.141 E.00019
G1 F1192.188
G1 X123.075 Y102.407 E.00991
G1 X123.226 Y102.73 E.01056
G1 F1198.823
G1 X123.3 Y103.186 E.01368
G1 F1200
G1 X123.3 Y103.187 E.00003
G1 X123.3 Y103.987 E.02369
G1 X123.3 Y116.013 E.35617
G1 X123.3 Y116.813 E.02369
G1 X123.3 Y116.814 E.00003
G1 F1196.442
G1 X123.21 Y117.32 E.01522
G1 X123.039 Y117.656 E.01117
G1 F1200
G1 X123.037 Y117.66 E.00013
G1 X123.031 Y117.667 E.00027
G1 F1196.189
G1 X122.839 Y117.892 E.00876
G1 X122.552 Y118.11 E.01067
G1 F1200
G1 X122.551 Y118.111 E.00004
G1 X121.858 Y118.511 E.0237
G1 X111.442 Y124.525 E.35622
M73 P9 R5
G1 X110.749 Y124.925 E.0237
G1 X110.376 Y125.076 E.01192
G1 X110.37 Y125.077 E.00018
G1 F1193.028
G1 X110.042 Y125.12 E.0098
G1 X109.683 Y125.089 E.01067
G1 F1198.818
G1 X109.251 Y124.925 E.01369
G1 F1200
G1 X109.251 Y124.925
G1 F1199.995
G1 X108.558 Y124.525 E.0237
G1 X98.142 Y118.511 E.35622
G1 F1200.001
G1 X97.449 Y118.111 E.0237
G1 X97.132 Y117.864 E.0119
G1 X97.128 Y117.859 E.00019
G1 F1192.189
G1 X96.925 Y117.593 E.00991
G1 X96.774 Y117.27 E.01056
G1 F1169.354
G1 X96.762 Y117.196 E.00222
; stop printing object ML4_-_v75_-_ring.stl id:0 copy 0
;LAYER_CHANGE
;Z:0.6
;HEIGHT:0.2
;BEFORE_LAYER_CHANGE
;0.6
G92 E0

G10 ; retract
EXCLUDE_OBJECT_END NAME=ML4_-_v75_-_ring.stl_id_0_copy_0
;_SET_FAN_SPEED_CHANGING_LAYER
; printing object ML4_-_v75_-_ring.stl id:0 copy 0
EXCLUDE_OBJECT_START NAME=ML4_-_v75_-_ring.stl_id_0_copy_0
G1 Z.8 F9000
G1 X96.573 Y117.346 Z.8
