; HEADER_BLOCK_START
; generated by OrcaSlicer 1.9.0 on 2024-02-07 at 12:58:43
; total layer number: 50
; filament_density: 1.27
; filament_diameter: 1.75
; max_z_height: 10.00
; HEADER_BLOCK_END

; THUMBNAIL_BLOCK_START

;
; THUMBNAIL_BLOCK_END

; THUMBNAIL_BLOCK_START

;
; THUMBNAIL_BLOCK_END

; external perimeters extrusion width = 0.40mm
; perimeters extrusion width = 0.45mm
; infill extrusion width = 0.45mm
; solid infill extrusion width = 0.40mm
; top infill extrusion width = 0.40mm
; support material extrusion width = 0.40mm
; first layer extrusion width = 0.50mm

; EXECUTABLE_BLOCK_START
EXCLUDE_OBJECT_DEFINE NAME=ML4_-_v75_-_top_ring.stl_id_0_copy_0 CENTER=110,110 POLYGON=[[80.2,93.3723],[80.2086,93.2418],[80.2112,93.2233],[80.2341,93.1135],[80.2444,93.0776],[80.2761,92.9896],[80.299,92.9384],[80.334,92.8723],[80.3738,92.809],[80.4066,92.7636],[80.4669,92.6921],[80.4929,92.6652],[80.5765,92.5905],[80.5912,92.579],[80.7,92.5063],[81.0695,92.293],[109.5,75.8786],[109.617,75.8207],[109.635,75.8138],[109.741,75.7787],[109.777,75.7697],[109.869,75.7532],[109.925,75.7474],[110,75.7446],[110.075,75.7474],[110.131,75.7532],[110.223,75.7697],[110.259,75.7787],[110.365,75.8138],[110.383,75.8207],[110.5,75.8786],[139.3,92.5063],[139.409,92.579],[139.423,92.5905],[139.507,92.6652],[139.533,92.6921],[139.593,92.7636],[139.626,92.809],[139.666,92.8723],[139.701,92.9384],[139.724,92.9896],[139.756,93.0776],[139.766,93.1135],[139.789,93.2233],[139.791,93.2418],[139.8,93.3723],[139.8,126.628],[139.791,126.758],[139.789,126.777],[139.766,126.887],[139.756,126.922],[139.724,127.01],[139.701,127.062],[139.666,127.128],[139.626,127.191],[139.593,127.236],[139.533,127.308],[139.507,127.335],[139.423,127.41],[139.409,127.421],[139.3,127.494],[110.5,144.121],[110.383,144.179],[110.365,144.186],[110.259,144.221],[110.223,144.23],[110.131,144.247],[110.075,144.253],[110,144.255],[109.925,144.253],[109.869,144.247],[109.777,144.23],[109.741,144.221],[109.635,144.186],[109.617,144.179],[109.5,144.121],[81.0695,127.707],[80.7,127.494],[80.5912,127.421],[80.5765,127.41],[80.4929,127.335],[80.4669,127.308],[80.4066,127.236],[80.3738,127.191],[80.334,127.128],[80.299,127.062],[80.2761,127.01],[80.2444,126.922],[80.2341,126.887],[80.2112,126.777],[80.2086,126.758],[80.2,126.628],[80.2,93.3723]]
M73 P0 R83
;TYPE:Custom
M117 ; clear display for KAMP meshing
START_PRINT BED_TEMP=75 EXTRUDER_TEMP=240
G90
G21
M83 ; use relative distances for extrusion
; filament start gcode
SET_PRESSURE_ADVANCE ADVANCE=0.018; Override pressure advance value
M106 S0
;LAYER_CHANGE
;Z:0.2
;HEIGHT:0.2
;BEFORE_LAYER_CHANGE
;0.2
G92 E0

G10 ; retract
;_SET_FAN_SPEED_CHANGING_LAYER
SET_VELOCITY_LIMIT ACCEL=500 ACCEL_TO_DECEL=250
G1 Z.4 F9000
G1 X79.54 Y90.339
G1 Z.2
G11 ; unretract
;TYPE:Skirt
;WIDTH:0.5
G1 F3000
G1 X108.203 Y73.79 E1.25472
G1 X109.551 Y73.464 E.05261
G1 X110.656 Y73.789 E.04366
G1 X141.032 Y91.326 E1.32973
G1 X141.987 Y92.332 E.05261
G1 X142.257 Y93.452 E.04366
G1 X142.257 Y126.548 E1.25472
G1 X141.865 Y127.879 E.05261
G1 X141.032 Y128.674 E.04366
G1 X110.656 Y146.211 E1.32973
G1 X109.307 Y146.536 E.05261
G1 X108.203 Y146.21 E.04366
G1 X79.54 Y129.661 E1.25472
G1 X78.583 Y128.656 E.05261
G1 X78.312 Y127.537 E.04366
G1 X78.312 Y92.463 E1.32973
G1 X78.706 Y91.132 E.05261
G1 X79.511 Y90.366 E.04214
; printing object ML4_-_v75_-_top_ring.stl id:0 copy 0
G10 ; retract
EXCLUDE_OBJECT_START NAME=ML4_-_v75_-_top_ring.stl_id_0_copy_0
G1 Z.6 F9000
G1 X86.808 Y109.885 Z.6
G1 Z.2
G11 ; unretract
;TYPE:Inner wall
;WIDTH:0.509587
G1 F900
G1 X86.858 Y109.76 E.00521
G1 X87.114 Y109.616 E.01137
G1 X87.216 Y109.711 E.00539
G1 X87.29 Y109.892 E.00757
G1 X87.214 Y110.148 E.01035
G1 X87.07 Y110.139 E.00559
G1 X86.898 Y110.079 E.00704
G1 X86.825 Y109.921 E.00674
G1 X86.341 Y109.811 F9000
;WIDTH:0.499999
G1 F900
G1 X86.444 Y109.553 E.01052
G1 X86.658 Y109.317 E.01211
G1 X86.987 Y109.166 E.01372
G1 X87.03 Y108.903 E.01009
G1 X87.628 Y109.48 E.0315
G1 X87.728 Y109.729 E.01017
G1 X87.739 Y110.031 E.01146
G1 X87.615 Y110.385 E.01422
G1 X87.763 Y110.61 E.01022
G1 X86.861 Y110.577 E.03423
G1 X86.609 Y110.439 E.0109
G1 X86.415 Y110.204 E.01155
G1 X86.349 Y109.851 E.01362
G10 ; retract
G1 Z.6 F9000
G1 X82.869 Y104.392 Z.6
G1 Z.2
G11 ; unretract
G1 F900
G1 X82.828 Y104.187 E.00792
G1 X82.814 Y103.426 E.02884
G1 X82.935 Y102.675 E.02883
G1 X83.188 Y101.956 E.02892
G1 X83.454 Y101.461 E.02129
G1 X83.925 Y100.849 E.02928
G1 X84.637 Y100.234 E.03567
G1 X84.933 Y100.059 E.01303
G1 X85.351 Y99.977 E.01615
G1 X85.752 Y100.046 E.01542
G1 X86.094 Y100.243 E.01497
G1 X87.472 Y101.531 E.07151
G1 X87.724 Y101.877 E.01621
G1 X87.825 Y102.229 E.01389
G1 X87.811 Y102.59 E.01369
G1 X87.618 Y103.034 E.01836
G1 X87.139 Y103.417 E.02326
G1 X86.877 Y103.559 E.01129
G1 X86.814 Y103.699 E.00583
G1 X86.857 Y103.877 E.00692
G1 X86.982 Y103.968 E.00589
G1 X88.107 Y103.989 E.04265
G1 X91.857 Y103.989 E.14214
G1 X92.237 Y104.054 E.01462
G1 X92.663 Y104.323 E.01912
G1 X92.966 Y104.857 E.02327
;WIDTH:0.522585
G1 X93.006 Y105.229 E.01489
G1 X92.905 Y105.615 E.01586
G1 X92.665 Y105.94 E.01608
;WIDTH:0.499999
G1 X90.958 Y107.646 E.09148
G1 X90.745 Y107.804 E.01006
G1 X91.022 Y108.41 E.02527
G1 X91.166 Y108.835 E.01703
G1 X91.265 Y109.343 E.01962
G1 X91.294 Y110.153 E.03074
G1 X91.857 Y110.153 E.02134
G1 X92.358 Y110.269 E.01952
G1 X92.812 Y110.67 E.02296
G1 X92.855 Y110.857 E.00728
;WIDTH:0.461575
G1 X92.897 Y111.044 E.00667
;WIDTH:0.423151
G1 X92.94 Y111.231 E.00605
G1 X92.91 Y111.055 E.00562
;WIDTH:0.461575
G1 X92.88 Y110.88 E.00619
;WIDTH:0.499999
G1 X92.85 Y110.704 E.00676
G1 X92.836 Y110.023 E.02583
G1 X92.885 Y108.72 E.04942
G1 X92.938 Y108.156 E.02148
G1 X93.048 Y107.309 E.0324
G1 X93.169 Y106.638 E.02583
;WIDTH:0.510595
G1 X93.31 Y105.971 E.02643
;WIDTH:0.522585
G1 X93.477 Y105.311 E.02712
G1 X93.637 Y104.827 E.02025
;WIDTH:0.499999
G1 X93.648 Y101.843 E.11313
G1 X93.75 Y101.284 E.02157
G1 X94.048 Y100.662 E.02615
G1 X94.318 Y100.308 E.01687
G1 X94.734 Y99.943 E.02098
G1 X95.679 Y99.373 E.04183
G1 X97.34 Y98.414 E.07273
G1 X98.137 Y97.596 E.04329
G1 X98.639 Y97.135 E.02583
G1 X99.149 Y96.702 E.02536
G1 X99.695 Y96.274 E.0263
G1 X100.248 Y95.876 E.02583
G1 X100.816 Y95.5 E.02583
G1 X101.398 Y95.147 E.02583
G1 X101.995 Y94.817 E.02583
G1 X102.603 Y94.512 E.02583
G1 X103.224 Y94.23 E.02583
G1 X103.855 Y93.974 E.02583
G1 X104.496 Y93.742 E.02583
G1 X105.145 Y93.537 E.02583
G1 X106.296 Y93.243 E.04501
G1 X108.719 Y91.844 E.10609
G1 X109.194 Y91.636 E.01965
G1 X109.556 Y91.552 E.0141
G1 X110.11 Y91.515 E.02105
G1 X110.481 Y91.552 E.01413
G1 X110.973 Y91.692 E.01938
G1 X113.702 Y93.242 E.11899
G1 X114.811 Y93.524 E.04338
G1 X115.461 Y93.728 E.02583
G1 X116.103 Y93.958 E.02583
G1 X116.734 Y94.212 E.02583
G1 X117.356 Y94.492 E.02583
G1 X117.965 Y94.796 E.02583
G1 X118.562 Y95.124 E.02583
G1 X119.146 Y95.476 E.02583
G1 X119.715 Y95.85 E.02583
G1 X120.269 Y96.247 E.02583
G1 X120.807 Y96.665 E.02583
G1 X121.327 Y97.105 E.02583
G1 X121.83 Y97.564 E.02583
G1 X122.66 Y98.414 E.04501
G1 X125.083 Y99.813 E.10609
G1 X125.501 Y100.121 E.01967
G1 X125.712 Y100.332 E.01131
G1 X126.026 Y100.759 E.02009
G1 X126.292 Y101.481 E.02917
G1 X126.352 Y101.843 E.01394
G1 X126.363 Y104.827 E.11313
G1 X126.674 Y105.929 E.04338
G1 X126.823 Y106.593 E.02583
G1 X126.942 Y107.252 E.02536
G1 X127.04 Y107.938 E.0263
G1 X127.108 Y108.616 E.02583
G1 X127.15 Y109.296 E.02583
G1 X127.164 Y109.977 E.02583
G1 X127.151 Y110.658 E.02583
G1 X127.112 Y111.339 E.02583
G1 X127.045 Y112.017 E.02583
G1 X126.952 Y112.691 E.02583
G1 X126.831 Y113.362 E.02583
G1 X126.685 Y114.027 E.02583
G1 X126.363 Y115.173 E.0451
G1 X126.352 Y118.157 E.11313
G1 X126.242 Y118.74 E.02252
G1 X125.952 Y119.338 E.02519
G1 X125.748 Y119.628 E.01342
G1 X125.266 Y120.057 E.02448
G1 X125.083 Y120.187 E.00851
G1 X122.66 Y121.586 E.10609
G1 X121.863 Y122.404 E.04329
G1 X121.361 Y122.865 E.02583
G1 X120.842 Y123.306 E.02583
G1 X120.305 Y123.726 E.02583
G1 X119.752 Y124.124 E.02583
G1 X119.184 Y124.5 E.02583
G1 X118.602 Y124.853 E.02583
G1 X118.005 Y125.183 E.02583
G1 X117.397 Y125.488 E.02583
G1 X116.776 Y125.77 E.02583
G1 X116.145 Y126.026 E.02583
G1 X115.504 Y126.258 E.02583
G1 X114.855 Y126.463 E.02583
G1 X113.704 Y126.757 E.04501
G1 X111.281 Y128.156 E.10609
G1 X110.805 Y128.364 E.01967
G1 X110.517 Y128.441 E.01131
G1 X110.007 Y128.499 E.01946
G1 X109.483 Y128.441 E.01999
G1 X108.853 Y128.222 E.02527
G1 X106.296 Y126.757 E.11174
G1 X105.189 Y126.476 E.0433
G1 X104.539 Y126.272 E.02583
G1 X103.909 Y126.047 E.02536
G1 X103.266 Y125.788 E.0263
G1 X102.644 Y125.508 E.02583
G1 X102.035 Y125.204 E.02583
G1 X101.438 Y124.876 E.02583
G1 X100.854 Y124.524 E.02583
G1 X100.285 Y124.15 E.02583
G1 X99.731 Y123.753 E.02583
G1 X99.193 Y123.335 E.02583
G1 X98.673 Y122.895 E.02583
G1 X98.17 Y122.436 E.02583
G1 X97.34 Y121.586 E.04501
G1 X94.917 Y120.187 E.10609
G1 X94.5 Y119.88 E.01965
G1 X94.246 Y119.61 E.01404
G1 X93.94 Y119.154 E.02082
G1 X93.786 Y118.816 E.01407
G1 X93.654 Y118.274 E.02115
G1 X93.637 Y115.173 E.11758
G1 X93.326 Y114.071 E.04341
G1 X93.177 Y113.407 E.0258
G1 X93.056 Y112.736 E.02583
G1 X92.914 Y111.605 E.04322
G1 X92.752 Y112.005 E.01636
G1 X90.958 Y113.81 E.09648
G1 X90.745 Y113.972 E.01013
G1 X91.02 Y114.545 E.02409
G1 X91.181 Y115.048 E.02005
G1 X91.293 Y115.754 E.02709
G1 X91.301 Y116.288 E.02026
G1 X91.204 Y116.998 E.02714
G1 X90.979 Y117.709 E.02829
G1 X90.607 Y118.387 E.02931
G1 X90.366 Y118.746 E.01641
G1 X89.992 Y119.154 E.02098
G1 X89.422 Y119.612 E.02771
G1 X88.74 Y119.987 E.02953
G1 X88.06 Y120.215 E.02717
G1 X87.361 Y120.324 E.02684
G1 X86.452 Y120.29 E.03447
G1 X85.734 Y120.127 E.02791
G1 X84.936 Y119.77 E.03315
G1 X84.174 Y119.199 E.03612
G1 X83.617 Y118.573 E.03176
G1 X83.165 Y117.787 E.03439
G1 X82.928 Y117.103 E.02745
G1 X82.82 Y116.459 E.02474
G1 X82.805 Y115.954 E.01918
G1 X82.882 Y115.266 E.02624
G1 X83.07 Y114.6 E.02623
G1 X83.364 Y113.972 E.02628
G1 X83.651 Y113.543 E.01957
G1 X84.013 Y113.113 E.02131
G1 X84.145 Y112.986 E.00697
G1 X83.725 Y112.54 E.02322
G1 X83.262 Y111.813 E.03265
G1 X82.92 Y110.872 E.03798
G1 X82.808 Y110.086 E.03008
G1 X82.84 Y109.33 E.02869
G1 X83.006 Y108.591 E.02872
G1 X83.302 Y107.89 E.02886
G1 X83.606 Y107.401 E.02182
G1 X84.129 Y106.807 E.03002
G1 X83.729 Y106.368 E.02251
G1 X83.508 Y106.076 E.01387
G1 X83.255 Y105.64 E.01913
G1 X82.977 Y104.936 E.02866
G1 X82.877 Y104.431 E.01954
G10 ; retract
G1 Z.6 F9000
G1 X84.208 Y106.225 Z.6
G1 Z.2
G11 ; unretract
G1 F900
G1 X83.967 Y105.937 E.01425
G1 X83.65 Y105.41 E.02332
G1 X83.406 Y104.778 E.02566
G1 X83.278 Y104.109 E.02584
G1 X83.271 Y103.429 E.02578
G1 X83.384 Y102.758 E.02577
G1 X83.615 Y102.118 E.02581
G1 X83.911 Y101.599 E.02264
G1 X84.282 Y101.134 E.02256
G1 X84.926 Y100.588 E.03201
G1 X85.104 Y100.483 E.00782
G1 X85.355 Y100.434 E.00969
G1 X85.595 Y100.475 E.00925
G1 X85.829 Y100.619 E.01039
G1 X87.16 Y101.865 E.06912
G1 X87.334 Y102.128 E.01196
G1 X87.372 Y102.283 E.00607
G1 X87.363 Y102.5 E.00821
G1 X87.247 Y102.766 E.01102
G1 X86.871 Y103.034 E.0175
G1 X86.606 Y103.179 E.01147
G1 X86.42 Y103.426 E.01171
G1 X86.359 Y103.652 E.00888
G1 X86.384 Y103.924 E.01033
G1 X86.48 Y104.135 E.00881
G1 X86.686 Y104.339 E.01098
G1 X86.981 Y104.429 E.01172
G1 X88.107 Y104.446 E.04269
G1 X91.857 Y104.446 E.14214
G1 X92.085 Y104.486 E.00877
G1 X92.341 Y104.647 E.01147
G1 X92.522 Y104.967 E.01396
G1 X92.519 Y105.307 E.01288
G1 X92.429 Y105.509 E.00837
G1 X92.056 Y105.902 E.02055
G1 X90.635 Y107.323 E.0762
G1 X90.374 Y107.486 E.01166
G1 X89.999 Y107.524 E.01429
G1 X90.303 Y107.949 E.01981
G1 X90.595 Y108.572 E.02607
G1 X90.718 Y108.923 E.0141
G1 X90.817 Y109.431 E.01962
G1 X90.844 Y110.043 E.02325
G1 X90.772 Y110.61 E.02167
G1 X91.857 Y110.61 E.04112
G1 X92.182 Y110.692 E.01271
G1 X92.445 Y110.943 E.01378
G1 X92.54 Y111.348 E.01577
G1 X92.394 Y111.721 E.01521
G1 X90.635 Y113.487 E.09448
G1 X90.45 Y113.619 E.00863
G1 X89.994 Y113.688 E.01748
G1 X90.317 Y114.14 E.02108
G1 X90.604 Y114.736 E.02506
G1 X90.761 Y115.257 E.02063
G1 X90.84 Y115.818 E.02149
G1 X90.836 Y116.386 E.02151
G1 X90.752 Y116.927 E.02079
G1 X90.547 Y117.562 E.02528
G1 X90.214 Y118.155 E.02579
G1 X90.029 Y118.438 E.0128
G1 X89.655 Y118.845 E.02098
G1 X89.145 Y119.248 E.02466
G1 X88.531 Y119.581 E.02646
G1 X87.926 Y119.779 E.02415
G1 X87.301 Y119.871 E.02395
G1 X86.48 Y119.834 E.03116
G1 X85.849 Y119.684 E.02459
G1 X85.133 Y119.358 E.02984
G1 X84.459 Y118.842 E.03216
G1 X83.967 Y118.278 E.02837
G1 X83.567 Y117.569 E.03087
G1 X83.364 Y116.966 E.02414
G1 X83.276 Y116.446 E.01998
G1 X83.262 Y115.94 E.01918
G1 X83.335 Y115.327 E.02343
G1 X83.507 Y114.733 E.02342
G1 X83.773 Y114.175 E.02345
G1 X84.113 Y113.682 E.02269
G1 X84.466 Y113.31 E.01946
G1 X84.841 Y113.013 E.01811
G1 X84.32 Y112.521 E.02714
G1 X84.003 Y112.148 E.01856
G1 X83.652 Y111.575 E.02549
G1 X83.354 Y110.729 E.03401
G1 X83.262 Y110.036 E.02647
G1 X83.297 Y109.361 E.02565
G1 X83.449 Y108.701 E.02567
G1 X83.719 Y108.078 E.02574
G1 X83.988 Y107.652 E.01911
G1 X84.362 Y107.223 E.02158
G1 X84.829 Y106.836 E.02297
G1 X84.325 Y106.364 E.02618
G1 X84.234 Y106.255 E.00536
G10 ; retract
G1 Z.6 F9000
G1 X88.9 Y107.067 Z.6
G1 Z.2
G11 ; unretract
;TYPE:Outer wall
G1 F900
G1 X89.576 Y107.724 E.03573
G1 X89.886 Y108.142 E.01971
G1 X90.168 Y108.734 E.02485
G1 X90.269 Y109.01 E.01118
G1 X90.368 Y109.518 E.01962
G1 X90.387 Y110.057 E.02042
G1 X90.299 Y110.689 E.02423
G1 X90.223 Y110.732 E.00328
;WIDTH:0.454179
G1 X90.148 Y110.774 E.00295
;WIDTH:0.408358
G1 X90.072 Y110.816 E.00262
;WIDTH:0.362537
G1 X88.245 Y110.816 E.04845
;WIDTH:0.408358
G1 X88.175 Y110.733 E.0033
;WIDTH:0.454179
G1 X88.105 Y110.65 E.00371
;WIDTH:0.499999
G1 X88.035 Y110.566 E.00413
G1 X88.174 Y110.245 E.01328
G1 X88.22 Y109.854 E.01491
G1 X88.142 Y109.47 E.01487
G1 X87.91 Y109.109 E.01626
G1 X87.618 Y108.802 E.01606
;WIDTH:0.455651
G1 X87.326 Y108.495 E.0145
;WIDTH:0.411303
G1 X87.034 Y108.189 E.01294
;WIDTH:0.366955
G1 X85.7 Y106.937 E.04916
;WIDTH:0.369223
G1 X85.658 Y106.899 E.00153
;WIDTH:0.412815
G1 X85.526 Y106.805 E.00498
;WIDTH:0.456407
G1 X85.394 Y106.71 E.00557
;WIDTH:0.499999
G1 X85.262 Y106.616 E.00616
G1 X84.638 Y106.03 E.03244
G1 X84.318 Y105.645 E.019
G1 X84.045 Y105.18 E.02043
G1 X83.835 Y104.62 E.02266
G1 X83.729 Y104.03 E.02272
G1 X83.728 Y103.431 E.02272
G1 X83.834 Y102.841 E.02272
G1 X84.043 Y102.28 E.02271
G1 X84.268 Y101.884 E.01727
G1 X84.639 Y101.419 E.02256
G1 X85.215 Y100.942 E.02835
G1 X85.389 Y100.893 E.00685
G1 X85.516 Y100.953 E.00533
G1 X86.847 Y102.199 E.06912
G1 X86.918 Y102.338 E.00593
G1 X86.876 Y102.499 E.0063
G1 X86.405 Y102.752 E.02027
G1 X86.079 Y103.077 E.01747
G1 X85.926 Y103.403 E.01364
G1 X85.883 Y103.816 E.01575
G1 X85.993 Y104.234 E.01639
G1 X86.19 Y104.521 E.01319
G1 X86.445 Y104.734 E.01257
G1 X86.74 Y104.859 E.01216
G1 X87.256 Y104.904 E.01962
G1 X91.857 Y104.904 E.17443
G1 X92.018 Y104.97 E.00662
G1 X92.084 Y105.151 E.00731
G1 X92.018 Y105.294 E.00595
G1 X90.312 Y107 E.09148
G1 X90.15 Y107.067 E.00663
G1 X88.94 Y107.067 E.04587
G10 ; retract
G1 Z.6 F9000
G1 X125.878 Y118.236 Z.6
G1 Z.2
G11 ; unretract
;TYPE:Inner wall
G1 F900
G1 X125.802 Y118.61 E.01447
G1 X125.543 Y119.136 E.02224
G1 X125.38 Y119.348 E.01012
G1 X124.855 Y119.792 E.02606
G1 X122.372 Y121.225 E.10868
G1 X121.541 Y122.08 E.04521
G1 X121.053 Y122.529 E.02514
G1 X120.547 Y122.957 E.02514
G1 X120.024 Y123.366 E.02514
G1 X119.486 Y123.753 E.02514
G1 X118.933 Y124.118 E.02514
G1 X118.365 Y124.462 E.02514
G1 X117.785 Y124.782 E.02514
G1 X117.192 Y125.08 E.02514
G1 X116.588 Y125.353 E.02514
G1 X115.973 Y125.603 E.02514
G1 X115.35 Y125.827 E.02514
G1 X114.717 Y126.027 E.02514
G1 X113.535 Y126.327 E.04624
G1 X111.052 Y127.76 E.10868
G1 X110.554 Y127.968 E.02046
G1 X110.004 Y128.042 E.02103
G1 X109.397 Y127.952 E.02327
G1 X108.948 Y127.76 E.01852
G1 X106.465 Y126.327 E.10868
G1 X105.309 Y126.035 E.04521
G1 X104.676 Y125.836 E.02514
G1 X104.064 Y125.616 E.02467
G1 X103.437 Y125.364 E.02561
G1 X102.833 Y125.091 E.02514
G1 X102.239 Y124.795 E.02514
G1 X101.658 Y124.475 E.02514
