; HEADER_BLOCK_START
; generated by OrcaSlicer 1.9.0 on 2024-02-03 at 20:32:12
; total layer number: 53
; filament_density: 1.27
; filament_diameter: 1.75
; max_z_height: 10.60
; HEADER_BLOCK_END

; THUMBNAIL_BLOCK_START

;
; THUMBNAIL_BLOCK_END

; THUMBNAIL_BLOCK_START

;
; THUMBNAIL_BLOCK_END

; external perimeters extrusion width = 0.40mm
; perimeters extrusion width = 0.45mm
; infill extrusion width = 0.45mm
; solid infill extrusion width = 0.40mm
; top infill extrusion width = 0.40mm
; support material extrusion width = 0.40mm
; first layer extrusion width = 0.50mm

; external perimeters extrusion width = 0.40mm
; perimeters extrusion width = 0.45mm
; infill extrusion width = 0.45mm
; solid infill extrusion width = 0.40mm
; top infill extrusion width = 0.40mm
; support material extrusion width = 0.40mm
; first layer extrusion width = 0.50mm

; external perimeters extrusion width = 0.40mm
; perimeters extrusion width = 0.45mm
; infill extrusion width = 0.45mm
; solid infill extrusion width = 0.40mm
; top infill extrusion width = 0.40mm
; support material extrusion width = 0.40mm
; first layer extrusion width = 0.50mm

; EXECUTABLE_BLOCK_START
EXCLUDE_OBJECT_DEFINE NAME=ML4_-_base_stabilizer_clip-on_v23_-_nut.stl_id_0_copy_0 CENTER=109.861,111.14 POLYGON=[[99.8949,110.318],[99.9816,109.592],[100.121,108.875],[100.313,108.169],[102.282,104.617],[102.778,104.081],[103.313,103.582],[103.883,103.124],[107.563,101.408],[108.28,101.266],[109.006,101.177],[109.736,101.141],[113.723,101.916],[114.386,102.223],[115.026,102.577],[115.637,102.977],[118.407,105.947],[118.764,106.586],[119.073,107.248],[119.332,107.931],[119.827,111.962],[119.741,112.688],[119.601,113.406],[119.41,114.111],[117.441,117.663],[116.944,118.2],[116.409,118.698],[115.84,119.156],[112.159,120.873],[111.442,121.014],[110.716,121.104],[109.986,121.139],[105.999,120.364],[105.336,120.058],[104.697,119.703],[104.085,119.303],[101.315,116.333],[100.959,115.695],[100.65,115.032],[100.39,114.349],[99.8949,110.318]]
EXCLUDE_OBJECT_DEFINE NAME=ML4_-_base_stabilizer_clip-on_v23_-_ring.stl_id_1_copy_0 CENTER=110,110 POLYGON=[[93.9,102.09],[93.9268,101.733],[94.0066,101.383],[94.1377,101.049],[94.317,100.738],[94.5407,100.458],[94.8036,100.214],[95.1,100.012],[108.8,92.1021],[109.123,91.9465],[109.466,91.8408],[109.821,91.7873],[110.179,91.7873],[110.534,91.8408],[110.877,91.9465],[111.2,92.1021],[124.9,100.012],[125.196,100.214],[125.459,100.458],[125.683,100.738],[125.862,101.049],[125.993,101.383],[126.073,101.733],[126.1,102.09],[126.1,117.91],[126.073,118.267],[125.993,118.617],[125.862,118.951],[125.683,119.262],[125.459,119.542],[125.196,119.786],[124.9,119.988],[111.2,127.898],[110.877,128.054],[110.534,128.159],[110.179,128.213],[109.821,128.213],[109.466,128.159],[109.123,128.054],[108.8,127.898],[95.1,119.988],[94.8036,119.786],[94.5407,119.542],[94.317,119.262],[94.1377,118.951],[94.0066,118.617],[93.9268,118.267],[93.9,117.91],[93.9,102.09]]
EXCLUDE_OBJECT_DEFINE NAME=ML4_-_base_stabilizer_clip-on_v23_-_body.stl_id_2_copy_0 CENTER=110,110 POLYGON=[[40.8027,100.762],[40.8283,100.371],[40.9049,99.9859],[41.031,99.6143],[41.2046,99.2624],[41.4226,98.9361],[41.6814,98.6411],[41.9764,98.3823],[42.3027,98.1643],[58.3027,88.9267],[148.303,36.9652],[148.655,36.7916],[149.026,36.6655],[149.411,36.5889],[149.803,36.5633],[150.194,36.5889],[150.579,36.6655],[150.951,36.7916],[151.303,36.9652],[167.303,46.2028],[167.629,46.4208],[167.924,46.6795],[168.183,46.9746],[168.401,47.3009],[168.574,47.6528],[168.7,48.0244],[168.777,48.4093],[179.088,108.618],[179.103,108.712],[179.118,108.808],[179.131,108.905],[179.143,109],[179.168,109.233],[179.186,109.466],[179.197,109.7],[179.197,110.3],[179.186,110.534],[179.168,110.767],[179.143,111],[179.131,111.095],[179.118,111.192],[179.103,111.288],[179.088,111.382],[168.777,171.591],[168.7,171.976],[168.574,172.347],[168.401,172.699],[168.183,173.025],[167.924,173.32],[167.629,173.579],[167.303,173.797],[151.303,183.035],[150.951,183.208],[150.579,183.334],[150.194,183.411],[149.803,183.437],[149.411,183.411],[149.026,183.334],[148.655,183.208],[148.303,183.035],[132.303,173.797],[58.3027,131.073],[42.3027,121.836],[41.9764,121.618],[41.6814,121.359],[41.4226,121.064],[41.2046,120.738],[41.031,120.386],[40.9049,120.014],[40.8283,119.629],[40.8027,119.238],[40.8027,100.762]]
M73 P0 R107
;TYPE:Custom
M117 ; clear display for KAMP meshing
START_PRINT BED_TEMP=75 EXTRUDER_TEMP=240
G90
G21
M83 ; use relative distances for extrusion
; filament start gcode
SET_PRESSURE_ADVANCE ADVANCE=0.018; Override pressure advance value
M106 S0
;LAYER_CHANGE
;Z:0.2
;HEIGHT:0.2
;BEFORE_LAYER_CHANGE
;0.2
G92 E0

G10 ; retract
;_SET_FAN_SPEED_CHANGING_LAYER
SET_VELOCITY_LIMIT ACCEL=500 ACCEL_TO_DECEL=250
G1 Z.4 F9000
G1 X52.304 Y90.592
G1 Z.2
G11 ; unretract
;TYPE:Skirt
;WIDTH:0.5
G1 F3000
G1 X147.524 Y35.617 E4.1684
G1 X148.592 Y35.173 E.04383
G1 X149.248 Y35.043 E.02537
G1 X149.997 Y35.014 E.02839
G1 X151.005 Y35.171 E.03868
G1 X152.081 Y35.617 E.04416
G1 X168.081 Y44.854 E.70042
G1 X168.772 Y45.348 E.03221
G1 X169.246 Y45.821 E.02538
G1 X169.593 Y46.272 E.02155
G1 X169.994 Y47.021 E.03222
G1 X170.302 Y48.08 E.04182
G1 X180.453 Y107.587 E2.28856
G1 X180.488 Y112 E.16732
G1 X170.302 Y171.92 E2.30422
G1 X169.994 Y172.979 E.04182
G1 X169.593 Y173.728 E.03222
G1 X169.246 Y174.179 E.02155
G1 X168.772 Y174.652 E.02538
G1 X168.081 Y175.146 E.03221
G1 X152.081 Y184.383 E.70042
G1 X151.014 Y184.827 E.04383
G1 X149.689 Y184.989 E.0506
G1 X148.592 Y184.827 E.04203
G1 X147.524 Y184.383 E.04383
G1 X41.116 Y122.915 E4.65878
G1 X40.359 Y122.217 E.03902
G1 X39.804 Y121.415 E.03701
G1 X39.5 Y120.73 E.0284
G1 X39.275 Y119.726 E.03902
G1 X39.246 Y100.762 E.71893
G1 X39.395 Y99.616 E.04383
G1 X39.918 Y98.388 E.0506
G1 X40.606 Y97.519 E.04203
G1 X41.524 Y96.816 E.04383
G1 X52.269 Y90.612 E.47036
; printing object ML4_-_base_stabilizer_clip-on_v23_-_body.stl id:2 copy 0
G10 ; retract
EXCLUDE_OBJECT_START NAME=ML4_-_base_stabilizer_clip-on_v23_-_body.stl_id_2_copy_0
G1 Z.6 F9000
G1 X151.367 Y128.792 Z.6
G1 Z.2
G11 ; unretract
;TYPE:Inner wall
;WIDTH:0.499999
G1 F900
G1 X151.458 Y128.729 E.00421
G1 X151.708 Y128.433 E.01467
G1 X151.787 Y128.271 E.00686
G1 X151.867 Y127.853 E.01615
G1 X151.867 Y113.164 E.55685
G1 X176.286 Y113.164 E.92575
G1 X175.947 Y113.696 E.02392
G1 X175.61 Y114.124 E.02064
G1 X175.26 Y114.499 E.01944
G1 X174.883 Y114.844 E.0194
G1 X174.438 Y115.185 E.02123
G1 X173.984 Y115.475 E.02042
G1 X173.505 Y115.727 E.02051
G1 X173.011 Y115.935 E.02035
G1 X172.435 Y116.12 E.02291
G1 X170.56 Y116.505 E.07257
G1 X169.256 Y116.821 E.05086
G1 X167.967 Y117.191 E.05086
G1 X166.739 Y117.599 E.04905
G1 X165.484 Y118.073 E.05086
G1 X164.203 Y118.622 E.05284
G1 X162.925 Y119.239 E.0538
G1 X161.854 Y119.806 E.04594
G1 X160.655 Y120.508 E.05268
G1 X159.527 Y121.235 E.05086
G1 X158.431 Y122.008 E.05086
G1 X157.405 Y122.796 E.04906
G1 X156.781 Y123.339 E.03135
G1 X156.249 Y123.879 E.02872
G1 X155.803 Y124.405 E.02616
G1 X155.312 Y125.077 E.03155
G1 X154.917 Y125.721 E.02862
G1 X154.6 Y126.333 E.02613
G1 X154.299 Y127.03 E.02881
G1 X154.052 Y127.749 E.02881
G1 X153.863 Y128.466 E.02809
G1 X153.719 Y129.171 E.02731
G1 X153.576 Y129.556 E.01558
G1 X153.233 Y129.884 E.01797
G1 X148.868 Y132.405 E.1911
G1 X148.301 Y132.787 E.02593
G1 X147.838 Y133.193 E.02333
G1 X147.428 Y133.652 E.02333
G1 X147.077 Y134.157 E.02333
G1 X146.792 Y134.696 E.02312
G1 X146.586 Y135.227 E.02157
G1 X146.431 Y135.829 E.02359
G1 X146.349 Y136.476 E.02471
G1 X146.345 Y137.047 E.02168
G1 X146.413 Y137.659 E.02333
G1 X146.556 Y138.258 E.02332
G1 X146.769 Y138.835 E.02333
G1 X147.015 Y139.322 E.02068
G1 X147.613 Y140.359 E.04539
G1 X148.301 Y141.277 E.0435
G1 X149.064 Y141.951 E.03861
G1 X149.609 Y142.294 E.02438
G1 X148.967 Y142.378 E.02452
G1 X148.661 Y142.458 E.01199
G1 X147.871 Y142.795 E.03257
G1 X134.38 Y150.585 E.59061
G1 X133.829 Y150.955 E.02515
G1 X133.272 Y151.432 E.02782
G1 X132.867 Y151.959 E.02521
G1 X132.821 Y151.305 E.02486
G1 X132.721 Y150.611 E.02658
G1 X132.475 Y149.854 E.03019
G1 X132.189 Y149.264 E.02486
G1 X131.59 Y148.227 E.04539
G1 X131.207 Y147.66 E.02594
G1 X130.802 Y147.197 E.02333
G1 X130.343 Y146.787 E.02333
G1 X129.838 Y146.436 E.02333
G1 X129.294 Y146.149 E.02333
G1 X128.725 Y145.931 E.02309
G1 X128.172 Y145.791 E.0216
G1 X127.563 Y145.71 E.02332
G1 X126.939 Y145.705 E.02366
G1 X126.295 Y145.781 E.02457
G1 X125.737 Y145.915 E.02174
G1 X125.16 Y146.128 E.02333
G1 X124.673 Y146.374 E.02068
G1 X120.412 Y148.834 E.18653
G1 X120.045 Y148.992 E.01516
G1 X119.758 Y149.033 E.01097
G1 X119.291 Y148.89 E.01854
G1 X86.476 Y129.945 E1.43648
G1 X86.134 Y129.688 E.01623
G1 X85.966 Y129.441 E.01131
G1 X85.867 Y129.01 E.01678
G1 X85.867 Y123.969 E.1911
G1 X85.819 Y123.288 E.02588
G1 X85.709 Y122.731 E.02154
G1 X85.507 Y122.099 E.02516
G1 X85.245 Y121.542 E.02333
G1 X84.917 Y121.021 E.02333
G1 X84.534 Y120.548 E.02309
G1 X84.125 Y120.151 E.0216
G1 X83.637 Y119.776 E.02332
G1 X83.108 Y119.463 E.02333
G1 X82.544 Y119.216 E.02333
G1 X81.954 Y119.04 E.02333
G1 X81.348 Y118.937 E.02333
G1 X80.803 Y118.905 E.02068
G1 X79.606 Y118.905 E.04539
G1 X78.422 Y119.051 E.04522
G1 X77.501 Y119.365 E.03689
G1 X76.933 Y119.666 E.02438
G1 X77.18 Y119.068 E.02453
G1 X77.264 Y118.763 E.01199
G1 X77.367 Y117.91 E.03257
G1 X77.367 Y102.332 E.59061
G1 X77.321 Y101.67 E.02515
G1 X77.187 Y100.949 E.02781
G1 X76.933 Y100.334 E.02521
G1 X77.522 Y100.621 E.02487
G1 X78.173 Y100.882 E.02658
G1 X78.952 Y101.047 E.03019
G1 X79.606 Y101.095 E.02486
G1 X80.803 Y101.095 E.04539
G1 X81.486 Y101.047 E.02594
G1 X82.087 Y100.927 E.02324
G1 X82.629 Y100.75 E.0216
G1 X83.23 Y100.473 E.02513
G1 X83.751 Y100.145 E.02333
G1 X84.224 Y99.761 E.02309
G1 X84.622 Y99.353 E.0216
G1 X84.997 Y98.865 E.02332
G1 X85.313 Y98.327 E.02365
G1 X85.57 Y97.732 E.02457
G1 X85.732 Y97.182 E.02175
G1 X85.836 Y96.575 E.02333
G1 X85.867 Y96.031 E.02068
G1 X85.867 Y90.99 E.1911
G1 X85.966 Y90.559 E.01678
G1 X86.134 Y90.312 E.01131
G1 X86.408 Y90.094 E.01328
G1 X119.193 Y71.166 E1.43519
G1 X119.564 Y71.007 E.01531
G1 X119.843 Y70.967 E.01069
G1 X120.308 Y71.106 E.01839
G1 X124.673 Y73.626 E.1911
G1 X125.288 Y73.926 E.02594
G1 X125.871 Y74.124 E.02333
G1 X126.47 Y74.249 E.0232
G1 X127.039 Y74.299 E.02167
G1 X127.701 Y74.278 E.0251
G1 X128.302 Y74.182 E.02309
G1 X128.851 Y74.027 E.0216
G1 X129.419 Y73.792 E.02333
G1 X129.955 Y73.49 E.02332
G1 X130.451 Y73.125 E.02333
G1 X130.898 Y72.703 E.02333
G1 X131.291 Y72.229 E.02333
G1 X131.59 Y71.773 E.02068
G1 X132.244 Y70.627 E.05003
G1 X132.655 Y69.638 E.04059
G1 X132.843 Y68.683 E.03689
G1 X132.867 Y68.041 E.02438
G1 X133.261 Y68.554 E.02453
G1 X133.483 Y68.779 E.01199
G1 X134.17 Y69.294 E.03257
G1 X147.673 Y77.09 E.59112
G1 X148.306 Y77.395 E.02662
G1 X148.949 Y77.62 E.02583
G1 X149.609 Y77.706 E.02521
G1 X149.064 Y78.072 E.02488
G1 X148.548 Y78.476 E.02484
G1 X147.986 Y79.094 E.03167
G1 X147.613 Y79.641 E.0251
G1 X147.015 Y80.678 E.04539
G1 X146.715 Y81.293 E.02594
G1 X146.517 Y81.876 E.02333
G1 X146.391 Y82.478 E.02333
G1 X146.34 Y83.087 E.02316
G1 X146.359 Y83.66 E.02173
G1 X146.461 Y84.314 E.02507
G1 X146.628 Y84.898 E.02306
G1 X146.849 Y85.425 E.02164
G1 X147.151 Y85.961 E.02333
G1 X147.516 Y86.456 E.02332
G1 X147.938 Y86.903 E.02333
G1 X148.412 Y87.296 E.02333
G1 X148.868 Y87.595 E.02068
G1 X153.233 Y90.116 E.1911
G1 X153.576 Y90.444 E.01797
G1 X153.719 Y90.829 E.01558
G1 X153.903 Y91.692 E.03345
G1 X154.077 Y92.333 E.02521
G1 X154.33 Y93.05 E.02881
G1 X154.635 Y93.742 E.02865
G1 X154.958 Y94.35 E.0261
G1 X155.364 Y94.999 E.02904
G1 X155.855 Y95.66 E.0312
G1 X156.306 Y96.183 E.02621
G1 X156.844 Y96.72 E.02881
G1 X157.408 Y97.206 E.02824
G1 X158.537 Y98.067 E.05381
G1 X159.567 Y98.792 E.04775
G1 X160.655 Y99.492 E.04905
G1 X161.812 Y100.171 E.05086
G1 X163.039 Y100.822 E.05267
G1 X164.25 Y101.4 E.05086
G1 X165.484 Y101.927 E.05086
G1 X166.739 Y102.401 E.05086
G1 X167.967 Y102.809 E.04905
G1 X169.256 Y103.179 E.05086
G1 X170.56 Y103.495 E.05086
G1 X172.435 Y103.88 E.07257
G1 X172.957 Y104.047 E.02076
G1 X173.454 Y104.247 E.02032
G1 X173.939 Y104.496 E.02066
G1 X174.397 Y104.784 E.0205
G1 X174.883 Y105.156 E.0232
G1 X175.26 Y105.501 E.0194
G1 X175.626 Y105.895 E.02039
G1 X175.955 Y106.316 E.02024
G1 X176.286 Y106.836 E.02337
G1 X151.867 Y106.836 E.92575
G1 X151.863 Y92.049 E.5606
G1 X151.708 Y91.567 E.0192
G1 X151.295 Y91.158 E.02202
G1 X120.374 Y73.305 E1.35362
G1 X119.763 Y73.153 E.02388
G1 X119.231 Y73.305 E.02096
G1 X88.31 Y91.158 E1.35362
G1 X88.147 Y91.271 E.00751
G1 X87.888 Y91.582 E.01534
G1 X87.739 Y92.147 E.02217
G1 X87.739 Y127.853 E1.35362
G1 X87.756 Y128.05 E.00751
G1 X87.912 Y128.458 E.01657
G1 X88.31 Y128.842 E.02096
G1 X119.231 Y146.695 E1.35362
G1 X119.411 Y146.778 E.00751
G1 X119.796 Y146.848 E.01483
G1 X120.194 Y146.778 E.01533
G1 X120.374 Y146.695 E.00751
G1 X151.295 Y128.842 E1.35362
M73 P0 R106
G1 X151.334 Y128.815 E.00179
G1 X151.072 Y128.431 F9000
G1 F900
G1 X151.164 Y128.378 E.00403
G1 X151.362 Y128.104 E.01283
G1 X151.41 Y127.853 E.00969
G1 X151.41 Y112.707 E.57418
G1 X177.025 Y112.707 E.97111
G1 X176.943 Y112.903 E.00805
G1 X176.637 Y113.476 E.02463
G1 X176.318 Y113.963 E.02207
G1 X175.958 Y114.422 E.02213
G1 X175.558 Y114.849 E.02216
G1 X175.175 Y115.196 E.01958
G1 X174.658 Y115.592 E.02472
G1 X174.165 Y115.901 E.02205
G1 X173.646 Y116.169 E.02214
G1 X173.168 Y116.365 E.0196
G1 X172.551 Y116.563 E.02454
G1 X170.691 Y116.945 E.07201
G1 X169.382 Y117.261 E.05103
G1 X168.138 Y117.616 E.04905
G1 X166.883 Y118.033 E.05014
G1 X165.62 Y118.511 E.05122
G1 X164.402 Y119.033 E.05024
G1 X163.123 Y119.65 E.0538
G1 X162.043 Y120.224 E.04637
G1 X160.927 Y120.877 E.04905
G1 X159.814 Y121.592 E.05014
G1 X158.709 Y122.37 E.05122
G1 X157.683 Y123.159 E.04906
G1 X157.105 Y123.661 E.02902
G1 X156.597 Y124.176 E.02745
G1 X156.171 Y124.676 E.02491
G1 X155.701 Y125.318 E.03015
G1 X155.322 Y125.933 E.02739
G1 X155.019 Y126.515 E.02489
G1 X154.73 Y127.181 E.0275
G1 X154.493 Y127.867 E.0275
G1 X154.311 Y128.557 E.02707
G1 X154.124 Y129.47 E.03534
G1 X153.958 Y129.816 E.01453
G1 X153.792 Y129.997 E.00933
G1 X153.477 Y130.272 E.01585
G1 X149.061 Y132.823 E.19332
G1 X148.598 Y133.135 E.0212
G1 X148.175 Y133.502 E.02122
G1 X147.8 Y133.918 E.02122
G1 X147.478 Y134.376 E.02122
G1 X147.216 Y134.867 E.0211
G1 X147.027 Y135.347 E.01957
G1 X146.884 Y135.893 E.02138
G1 X146.806 Y136.485 E.02264
G1 X146.8 Y137.003 E.01964
G1 X146.86 Y137.559 E.02122
G1 X146.986 Y138.105 E.02122
G1 X147.178 Y138.631 E.02122
G1 X147.411 Y139.093 E.01962
G1 X148.009 Y140.13 E.04539
G1 X148.608 Y140.939 E.03816
G1 X149.226 Y141.501 E.03167
G1 X149.663 Y141.796 E.02
G1 X150.949 Y142.519 E.0559
;WIDTH:0.46448
G1 X151.309 Y142.713 E.01431
;WIDTH:0.439432
G1 X151.67 Y142.907 E.01346
;WIDTH:0.414384
G1 X165.371 Y150.817 E.48744
;WIDTH:0.417942
G1 X165.464 Y150.873 E.00338
;WIDTH:0.456642
G1 X165.863 Y151.125 E.01619
;WIDTH:0.495341
G1 X166.262 Y151.378 E.01771
;WIDTH:0.539561
G1 X166.504 Y151.578 E.01294
;WIDTH:0.58378
G1 X166.747 Y151.777 E.01409
;WIDTH:0.586407
G1 X166.994 Y152.121 E.01907
G1 X167.149 Y152.581 E.0219
;WIDTH:0.568974
G1 X167.17 Y152.798 E.00952
;WIDTH:0.534143
G1 X167.192 Y153.016 E.00889
;WIDTH:0.499311
G1 X167.213 Y153.233 E.00826
;WIDTH:0.464479
G1 X167.226 Y153.642 E.01431
;WIDTH:0.439424
G1 X167.238 Y154.051 E.01346
;WIDTH:0.414368
G1 X167.238 Y169.872 E.48742
;WIDTH:0.417932
G1 X167.237 Y169.981 E.00338
;WIDTH:0.456634
G1 X167.217 Y170.452 E.01619
;WIDTH:0.495335
G1 X167.198 Y170.924 E.01771
;WIDTH:0.539834
G1 X167.146 Y171.236 E.01304
;WIDTH:0.584333
G1 X167.094 Y171.548 E.01421
;WIDTH:0.588846
G1 X166.869 Y172.012 E.02333
G1 X166.664 Y172.208 E.01287
;WIDTH:0.562448
G1 X166.459 Y172.405 E.01225
;WIDTH:0.53605
G1 X166.263 Y172.54 E.00973
;WIDTH:0.500269
G1 X166.067 Y172.675 E.00902
;WIDTH:0.464487
G1 X165.719 Y172.891 E.01432
;WIDTH:0.439433
G1 X165.371 Y173.106 E.01346
;WIDTH:0.414385
G1 X151.67 Y181.017 E.48744
;WIDTH:0.417947
G1 X151.575 Y181.069 E.00338
;WIDTH:0.456642
