; HEADER_BLOCK_START
; generated by OrcaSlicer 1.9.0 on 2024-02-02 at 18:21:35
; total layer number: 61
; filament_density: 1.27
; filament_diameter: 1.75
; max_z_height: 12.20
; HEADER_BLOCK_END

; THUMBNAIL_BLOCK_START

;
; THUMBNAIL_BLOCK_END

; THUMBNAIL_BLOCK_START

;
; THUMBNAIL_BLOCK_END

; external perimeters extrusion width = 0.40mm
; perimeters extrusion width = 0.45mm
; infill extrusion width = 0.45mm
; solid infill extrusion width = 0.40mm
; top infill extrusion width = 0.40mm
; support material extrusion width = 0.40mm
; first layer extrusion width = 0.50mm

; external perimeters extrusion width = 0.40mm
; perimeters extrusion width = 0.45mm
; infill extrusion width = 0.45mm
; solid infill extrusion width = 0.40mm
; top infill extrusion width = 0.40mm
; support material extrusion width = 0.40mm
; first layer extrusion width = 0.50mm

; external perimeters extrusion width = 0.40mm
; perimeters extrusion width = 0.45mm
; infill extrusion width = 0.45mm
; solid infill extrusion width = 0.40mm
; top infill extrusion width = 0.40mm
; support material extrusion width = 0.40mm
; first layer extrusion width = 0.50mm

; external perimeters extrusion width = 0.40mm
; perimeters extrusion width = 0.45mm
; infill extrusion width = 0.45mm
; solid infill extrusion width = 0.40mm
; top infill extrusion width = 0.40mm
; support material extrusion width = 0.40mm
; first layer extrusion width = 0.50mm

; EXECUTABLE_BLOCK_START
EXCLUDE_OBJECT_DEFINE NAME=13mm_-_right_arm.stl_id_0_copy_0 CENTER=113.827,109.585 POLYGON=[[101.271,95.3014],[101.272,94.535],[111.967,93.1449],[112.072,93.1353],[112.472,93.1352],[120.762,94.7354],[120.946,94.7729],[121.129,94.8162],[121.313,94.8652],[121.496,94.9204],[121.681,94.982],[121.868,95.0505],[122.056,95.1266],[122.246,95.2109],[122.439,95.3037],[122.636,95.4059],[122.836,95.5178],[123.035,95.6381],[123.231,95.7648],[123.422,95.8978],[123.608,96.0369],[123.79,96.182],[123.967,96.3329],[124.139,96.4896],[124.306,96.6511],[124.468,96.8193],[124.625,96.9923],[124.776,97.1704],[124.921,97.3535],[125.06,97.5412],[125.193,97.7333],[125.319,97.9298],[125.439,98.1303],[125.532,98.2974],[125.619,98.4628],[125.7,98.6268],[125.775,98.7895],[125.844,98.9512],[125.907,99.1122],[125.966,99.2725],[126.02,99.4325],[126.115,99.7523],[126.194,100.074],[126.255,100.396],[126.301,100.722],[126.326,100.99],[126.341,101.262],[126.355,101.667],[126.365,102.065],[126.373,102.456],[126.378,102.841],[126.381,103.22],[126.383,103.592],[126.383,103.959],[126.382,104.32],[126.327,126.034],[126.277,126.034],[125.695,126.034],[123.253,126.034],[122.345,126.034],[122.329,126.034],[101.271,96.4338],[101.271,95.3014]]
EXCLUDE_OBJECT_DEFINE NAME=13mm_-_base.stl_id_1_copy_0 CENTER=111.31,158.894 POLYGON=[[89.6104,146.943],[89.6189,146.813],[89.6444,146.684],[89.6865,146.561],[89.7443,146.443],[89.817,146.334],[89.9033,146.236],[90.0016,146.15],[90.1104,146.077],[110.81,134.126],[110.928,134.068],[111.052,134.026],[111.18,134.001],[111.31,133.992],[111.441,134.001],[111.569,134.026],[111.693,134.068],[111.81,134.126],[116.407,136.78],[126.883,142.828],[127.689,143.294],[132.51,146.077],[132.619,146.15],[132.717,146.236],[132.804,146.334],[132.876,146.443],[132.934,146.561],[132.976,146.684],[133.002,146.813],[133.01,146.943],[133.01,170.846],[133.002,170.976],[132.976,171.104],[132.934,171.228],[132.876,171.346],[132.804,171.454],[132.717,171.553],[132.619,171.639],[132.51,171.712],[111.81,183.663],[111.693,183.721],[111.569,183.763],[111.441,183.788],[111.31,183.797],[111.18,183.788],[111.052,183.763],[110.928,183.721],[110.81,183.663],[106.304,181.061],[102.724,178.994],[95.2135,174.658],[90.1104,171.712],[90.0016,171.639],[89.9033,171.553],[89.817,171.454],[89.7443,171.346],[89.6865,171.228],[89.6444,171.104],[89.6189,170.976],[89.6104,170.846],[89.6104,146.943]]
EXCLUDE_OBJECT_DEFINE NAME=13mm_-_hammer.stl_id_2_copy_0 CENTER=151.377,108.995 POLYGON=[[143.279,132.206],[143.875,105.691],[143.884,105.584],[146.339,86.6465],[146.394,86.3428],[146.466,86.043],[146.557,85.7481],[146.665,85.4593],[146.79,85.1775],[146.933,84.9038],[147.091,84.6393],[147.266,84.3849],[147.455,84.1415],[147.659,83.91],[147.876,83.6913],[148.107,83.4862],[148.349,83.2954],[148.603,83.1197],[148.866,82.9596],[149.139,82.8158],[149.42,82.6888],[149.708,82.5791],[150.003,82.487],[150.302,82.4129],[150.606,82.3571],[150.912,82.3198],[151.22,82.3011],[151.528,82.3011],[151.836,82.3197],[152.142,82.357],[152.446,82.4128],[152.745,82.4868],[153.039,82.5789],[153.328,82.6886],[153.609,82.8156],[153.882,82.9594],[154.145,83.1194],[154.399,83.2951],[154.641,83.4859],[154.872,83.691],[155.089,83.9096],[155.293,84.1411],[155.483,84.3845],[155.657,84.6389],[155.816,84.9034],[155.958,85.177],[156.084,85.4588],[156.192,85.7476],[156.282,86.0425],[156.355,86.3423],[156.409,86.6459],[158.866,105.583],[158.875,105.69],[159.475,132.205],[159.474,132.591],[159.455,132.977],[159.418,133.361],[159.362,133.743],[159.289,134.121],[159.235,134.351],[159.174,134.58],[159.159,134.634],[159.144,134.685],[159.129,134.735],[159.115,134.782],[159.101,134.825],[159.088,134.865],[159.076,134.902],[159.066,134.935],[159.055,134.966],[159.046,134.993],[159.038,135.017],[159.031,135.038],[159.021,135.065],[159.019,135.072],[159.018,135.075],[159.018,135.075],[158.898,135.113],[157.574,135.534],[157.093,135.688],[145.661,135.688],[145.42,135.612],[144.698,135.382],[143.735,135.075],[143.732,135.066],[143.728,135.055],[143.723,135.039],[143.716,135.018],[143.707,134.994],[143.698,134.966],[143.688,134.936],[143.677,134.903],[143.665,134.866],[143.652,134.826],[143.639,134.782],[143.624,134.736],[143.61,134.686],[143.594,134.634],[143.579,134.581],[143.518,134.352],[143.464,134.122],[143.391,133.743],[143.335,133.362],[143.298,132.977],[143.279,132.592],[143.279,132.206]]
EXCLUDE_OBJECT_DEFINE NAME=13mm_-_left_arm.stl_id_3_copy_0 CENTER=96.1363,90.9813 POLYGON=[[83.5804,85.3569],[83.5806,84.9883],[83.5822,84.6182],[83.5855,84.2372],[83.5908,83.8524],[83.5984,83.4612],[83.6088,83.0631],[83.6223,82.6572],[83.6374,82.3867],[83.6628,82.1187],[83.7084,81.7924],[83.7702,81.4694],[83.8484,81.1487],[83.9433,80.8289],[83.9974,80.669],[84.0562,80.5086],[84.12,80.3476],[84.1891,80.1859],[84.2639,80.0232],[84.3445,79.8592],[84.4313,79.6938],[84.5245,79.5267],[84.6444,79.3261],[84.7708,79.1296],[84.9037,78.9374],[85.0429,78.7497],[85.188,78.5666],[85.3389,78.3887],[85.4953,78.2158],[85.657,78.0483],[85.8241,77.8862],[85.9962,77.7295],[86.1721,77.5796],[86.3541,77.4343],[86.5408,77.2949],[86.7322,77.1616],[86.9281,77.0346],[87.128,76.9142],[87.3279,76.8023],[87.5243,76.7002],[87.7175,76.6073],[87.9117,76.5215],[88.0962,76.447],[88.2825,76.3784],[88.4674,76.3169],[88.6512,76.2617],[88.8344,76.2126],[89.0176,76.1694],[89.2016,76.1319],[97.4922,74.5319],[97.8922,74.5319],[97.9964,74.5416],[103.692,75.9318],[108.692,78.2306],[108.692,78.4266],[108.692,79.3207],[108.692,80.1294],[87.6339,107.431],[87.0023,107.431],[83.6956,107.431],[83.6367,107.431],[83.5811,85.7168],[83.5804,85.3569]]
M73 P0 R80
;TYPE:Custom
M117 ; clear display for KAMP meshing
START_PRINT BED_TEMP=75 EXTRUDER_TEMP=240
G90
G21
M83 ; use relative distances for extrusion
; filament start gcode
SET_PRESSURE_ADVANCE ADVANCE=0.018; Override pressure advance value
M106 S0
;LAYER_CHANGE
;Z:0.2
;HEIGHT:0.2
;BEFORE_LAYER_CHANGE
;0.2
G92 E0

G10 ; retract
;_SET_FAN_SPEED_CHANGING_LAYER
SET_VELOCITY_LIMIT ACCEL=500 ACCEL_TO_DECEL=250
G1 Z.4 F9000
G1 X84.825 Y77.176
G1 Z.2
G11 ; unretract
;TYPE:Skirt
;WIDTH:0.5
G1 F3000
G1 X85.577 Y76.51 E.0381
G1 X86.313 Y75.994 E.03406
G1 X87.258 Y75.487 E.04065
G1 X88.391 Y75.07 E.04577
G1 X96.835 Y72.726 E.33225
G1 X97.892 Y72.637 E.04021
G1 X98.589 Y72.722 E.0266
G1 X155.546 Y87.344 E2.22935
G1 X157.132 Y87.981 E.06478
G1 X157.9 Y88.479 E.03471
G1 X158.953 Y89.471 E.05486
G1 X159.523 Y90.273 E.03729
G1 X160.008 Y91.183 E.0391
G1 X164.388 Y105.696 E.57471
G1 X164.662 Y107.134 E.05551
G1 X165.297 Y114.249 E.27082
G1 X165.161 Y115.695 E.05504
G1 X164.609 Y117.144 E.05881
G1 X160.355 Y125.445 E.35362
G1 X134.482 Y172.335 E2.0303
G1 X134.052 Y172.885 E.02648
G1 X133.454 Y173.347 E.02863
G1 X112.754 Y185.298 E.90617
G1 X111.67 Y185.658 E.04334
G1 X110.821 Y185.639 E.0322
G1 X109.866 Y185.298 E.03842
G1 X89.166 Y173.347 E.90617
G1 X88.569 Y172.885 E.02863
G1 X88.139 Y172.335 E.02648
G1 X87.853 Y171.698 E.02646
G1 X87.734 Y171.109 E.02279
G1 X82.568 Y107.63 E2.41452
G1 X82.404 Y85.408 E.84249
G1 X82.449 Y82.146 E.12368
G1 X82.798 Y80.482 E.06443
G1 X83.185 Y79.502 E.03996
G1 X83.641 Y78.667 E.03608
G1 X84.227 Y77.841 E.03838
G1 X84.798 Y77.206 E.03239
; printing object 13mm_-_base.stl id:1 copy 0
G10 ; retract
EXCLUDE_OBJECT_START NAME=13mm_-_base.stl_id_1_copy_0
G1 Z.6 F9000
G1 X111.31 Y181.95 Z.6
G1 Z.2
G11 ; unretract
;TYPE:Inner wall
;WIDTH:0.499999
G1 F900
G1 X91.343 Y170.422 E.87408
G1 X91.343 Y147.366 E.87408
G1 X111.31 Y135.839 E.87408
G1 X131.277 Y147.366 E.87408
G1 X131.277 Y170.422 E.87408
G1 X111.345 Y181.93 E.87256
G1 X111.31 Y182.478 F9000
G1 F900
G1 X90.886 Y170.686 E.89409
G1 X90.886 Y147.103 E.89409
G1 X111.31 Y135.311 E.89409
G1 X131.734 Y147.103 E.89409
G1 X131.734 Y170.686 E.89409
G1 X111.345 Y182.458 E.89257
G1 X111.31 Y182.969 F9000
;TYPE:Outer wall
G1 F900
G1 X111.193 Y182.938 E.00461
G1 X90.602 Y171.05 E.90138
G1 X90.517 Y170.98 E.00419
G1 X90.429 Y170.821 E.00689
G1 X90.429 Y147.038 E.90161
G1 X90.447 Y146.929 E.00419
G1 X90.541 Y146.774 E.00689
G1 X111.157 Y134.871 E.90249
G1 X111.31 Y134.819 E.00612
G1 X111.429 Y134.851 E.00465
G1 X132.018 Y146.739 E.90135
G1 X132.136 Y146.845 E.00602
G1 X132.191 Y146.99 E.00588
G1 X132.191 Y170.75 E.90079
G1 X132.174 Y170.86 E.00419
G1 X132.079 Y171.015 E.00689
G1 X111.463 Y182.918 E.90252
G1 X111.348 Y182.957 E.00458
G10 ; retract
G1 Z.6 F9000
G1 X116.272 Y162.072 Z.6
G1 Z.2
G11 ; unretract
;TYPE:Inner wall
;WIDTH:0.47255
G1 F900
G1 X116.271 Y161.818 E.00905
G1 X116.523 Y161.772 E.00911
G1 X116.627 Y161.84 E.00445
G1 X116.709 Y162.004 E.00655
G1 X116.676 Y162.096 E.00348
G1 X116.579 Y162.194 E.00492
G1 X116.397 Y162.203 E.0065
G1 X116.299 Y162.101 E.00501
G1 X115.82 Y162.133 F9000
;WIDTH:0.499999
G1 F900
G1 X115.837 Y161.714 E.01588
G1 X115.637 Y161.545 E.00995
G1 X116.268 Y161.356 E.025
G1 X116.521 Y161.328 E.00965
G1 X116.755 Y161.382 E.00908
G1 X117.055 Y161.64 E.01502
G1 X117.16 Y162.033 E.01539
G1 X117.072 Y162.295 E.01049
G1 X116.863 Y162.549 E.01247
G1 X116.594 Y162.649 E.01087
G1 X116.272 Y162.632 E.01222
G1 X116.002 Y162.461 E.01212
G1 X115.84 Y162.168 E.01269
G10 ; retract
G1 Z.6 F9000
G1 X112.773 Y158.516 Z.6
G1 Z.2
G11 ; unretract
;TYPE:Outer wall
;WIDTH:0.661808
G1 F900
G1 X113.661 Y156.979 E.09112
;WIDTH:0.6665
G1 X113.686 Y156.931 E.00279
G10 ; retract
G1 Z.6 F9000
G1 X111.218 Y159.213 Z.6
G1 Z.2
G11 ; unretract
;TYPE:Inner wall
;WIDTH:0.464875
G1 F900
G1 X111.091 Y159.086 E.0063
G1 X111.094 Y158.815 E.0095
G1 X111.206 Y158.781 E.0041
G1 X111.394 Y158.802 E.0066
G1 X111.563 Y158.981 E.00861
G1 X111.413 Y159.162 E.00825
G1 X111.257 Y159.203 E.00565
G1 X111.043 Y159.62 F9000
;WIDTH:0.499999
G1 F900
G1 X110.783 Y159.433 E.01216
G1 X110.653 Y159.142 E.01207
G1 X110.664 Y158.694 E.01699
G1 X110.478 Y158.542 E.00911
G1 X111.221 Y158.329 E.02931
G1 X111.461 Y158.361 E.00918
G1 X111.702 Y158.484 E.01025
G1 X111.955 Y158.771 E.01452
G1 X112.2 Y158.757 E.00929
G1 X111.825 Y159.375 E.02741
G1 X111.553 Y159.599 E.01334
G1 X111.267 Y159.661 E.01109
G1 X111.083 Y159.627 E.00712
G10 ; retract
G1 Z.6 F9000
G1 X109.727 Y162.836 Z.6
G1 Z.2
G11 ; unretract
G1 F900
G1 X109.596 Y162.79 E.00529
G1 X108.951 Y162.431 E.02797
G1 X108.534 Y162.111 E.01994
G1 X108.045 Y161.599 E.02682
G1 X107.707 Y161.073 E.02368
G1 X107.462 Y160.636 E.01903
G1 X107.263 Y159.99 E.02561
G1 X106.771 Y160.099 E.0191
G1 X106.064 Y160.162 E.02694
G1 X105.166 Y160.05 E.03429
G1 X104.428 Y159.805 E.02949
G1 X103.606 Y159.32 E.03618
G1 X103.03 Y158.8 E.0294
G1 X102.576 Y158.202 E.02847
G1 X102.151 Y157.278 E.03855
G1 X102.074 Y157.014 E.01045
G1 X101.964 Y156.343 E.02578
G1 X101.97 Y155.935 E.01548
G1 X102.113 Y155.567 E.01496
G1 X102.357 Y155.282 E.01424
G1 X102.52 Y155.168 E.00751
G1 X102.759 Y155.064 E.0099
G1 X104.454 Y154.55 E.06716
G1 X104.872 Y154.504 E.01594
G1 X105.322 Y154.634 E.01775
G1 X105.602 Y154.843 E.01328
G1 X105.85 Y155.225 E.01723
G1 X105.921 Y155.779 E.02119
G1 X105.91 Y156.061 E.01069
G1 X106.009 Y156.186 E.00601
G1 X106.151 Y156.189 E.0054
G1 X106.288 Y156.101 E.00615
G1 X108.626 Y152.073 E.17659
M73 P0 R79
G1 X108.882 Y151.768 E.01508
G1 X109.224 Y151.571 E.01497
G1 X109.625 Y151.502 E.01544
G1 X110.008 Y151.571 E.01472
G1 X110.35 Y151.768 E.01497
G1 X110.591 Y152.048 E.014
G1 X110.72 Y152.349 E.0124
G1 X111.326 Y154.611 E.08882
G1 X111.353 Y154.845 E.0089
G1 X111.917 Y154.885 E.02143
G1 X112.399 Y154.988 E.0187
G1 X112.94 Y155.175 E.02168
G1 X113.546 Y155.511 E.02629
G1 X113.805 Y155.063 E.01964
G1 X113.945 Y154.87 E.00902
G1 X114.131 Y154.704 E.00948
G1 X114.499 Y154.53 E.01541
G1 X114.889 Y154.495 E.01484
G1 X115.199 Y154.566 E.01208
G1 X115.528 Y154.758 E.01445
G1 X115.785 Y155.064 E.01513
G1 X115.898 Y155.338 E.01126
G1 X116.505 Y157.601 E.08882
G1 X116.534 Y157.836 E.00896
G1 X117.327 Y157.92 E.03024
G1 X118.24 Y158.224 E.03646
G1 X118.891 Y158.618 E.02886
G1 X119.266 Y158.905 E.01789
G1 X119.755 Y159.429 E.02719
G1 X119.914 Y159.646 E.01019
G1 X120.269 Y160.272 E.02731
G1 X120.486 Y160.849 E.02338
G1 X120.634 Y161.708 E.03303
G1 X120.62 Y162.471 E.02895
G1 X120.48 Y163.162 E.02669
G1 X120.137 Y163.983 E.03376
G1 X119.613 Y164.735 E.03474
G1 X119.095 Y165.236 E.02733
G1 X118.406 Y165.683 E.03113
G1 X117.696 Y165.966 E.02898
G1 X116.724 Y166.136 E.03741
G1 X115.807 Y166.092 E.0348
G1 X114.933 Y165.848 E.03442
G1 X114.136 Y165.421 E.03425
G1 X113.455 Y164.837 E.03403
G1 X113.13 Y164.424 E.01991
G1 X112.844 Y164.006 E.01922
G1 X112.547 Y163.322 E.02825
G1 X112.456 Y162.976 E.01359
G1 X112.093 Y163.064 E.01419
G1 X111.51 Y163.142 E.02229
G1 X110.784 Y163.12 E.02752
G1 X110.265 Y163.024 E.02004
G1 X109.765 Y162.849 E.02007
G10 ; retract
G1 Z.6 F9000
G1 X111.895 Y162.624 Z.6
G1 Z.2
G11 ; unretract
G1 F900
G1 X111.449 Y162.689 E.01707
G1 X110.811 Y162.664 E.0242
G1 X110.311 Y162.566 E.01933
G1 X109.755 Y162.361 E.02247
G1 X109.183 Y162.037 E.02493
G1 X108.767 Y161.708 E.02009
G1 X108.381 Y161.289 E.02159
G1 X108.102 Y160.843 E.01994
G1 X107.852 Y160.373 E.0202
G1 X107.647 Y159.673 E.02767
G1 X107.612 Y159.407 E.01014
G1 X107.004 Y159.591 E.02409
G1 X106.468 Y159.686 E.02061
G1 X105.95 Y159.701 E.01967
G1 X105.231 Y159.597 E.02752
G1 X104.586 Y159.376 E.02588
G1 X103.848 Y158.932 E.03262
G1 X103.347 Y158.471 E.02584
G1 X102.947 Y157.935 E.02533
G1 X102.571 Y157.098 E.03477
G1 X102.415 Y156.269 E.03201
G1 X102.439 Y155.946 E.01229
G1 X102.593 Y155.686 E.01145
G1 X102.748 Y155.564 E.00747
G1 X102.892 Y155.501 E.00594
G1 X104.587 Y154.987 E.06716
G1 X104.838 Y154.959 E.00956
G1 X105.108 Y155.037 E.01065
G1 X105.276 Y155.163 E.00797
G1 X105.424 Y155.392 E.01034
G1 X105.455 Y155.821 E.01629
G1 X105.454 Y156.102 E.01067
G1 X105.56 Y156.386 E.01147
G1 X105.819 Y156.603 E.01282
G1 X106.089 Y156.671 E.01054
G1 X106.375 Y156.608 E.0111
G1 X106.65 Y156.38 E.01358
G1 X109.022 Y152.301 E.17885
G1 X109.219 Y152.085 E.01108
G1 X109.483 Y151.972 E.01091
G1 X109.753 Y151.972 E.01022
G1 X109.998 Y152.075 E.01007
G1 X110.201 Y152.287 E.01112
G1 X110.446 Y153.092 E.03191
G1 X110.884 Y154.73 E.06429
G1 X110.892 Y155.055 E.01232
G1 X110.757 Y155.352 E.01237
G1 X111.249 Y155.297 E.01875
G1 X111.831 Y155.334 E.02213
G1 X112.251 Y155.421 E.01626
G1 X112.765 Y155.597 E.02058
G1 X113.217 Y155.836 E.01938
G1 X113.684 Y156.186 E.02214
G1 X114.201 Y155.291 E.03916
G1 X114.397 Y155.076 E.01104
G1 X114.699 Y154.955 E.01234
G1 X114.973 Y154.972 E.01041
G1 X115.235 Y155.109 E.01119
G1 X115.425 Y155.365 E.01209
G1 X116.063 Y157.72 E.09251
G1 X116.083 Y157.963 E.00925
G1 X115.932 Y158.349 E.01573
G1 X116.585 Y158.29 E.02486
G1 X117.272 Y158.374 E.02623
