; HEADER_BLOCK_START
; generated by OrcaSlicer 1.9.0 on 2024-01-28 at 15:05:54
; total layer number: 16
; filament_density: 1.27
; filament_diameter: 1.75
; max_z_height: 3.20
; HEADER_BLOCK_END

; THUMBNAIL_BLOCK_START

;
; THUMBNAIL_BLOCK_END

; THUMBNAIL_BLOCK_START

;
; THUMBNAIL_BLOCK_END

; external perimeters extrusion width = 0.40mm
; perimeters extrusion width = 0.45mm
; infill extrusion width = 0.45mm
; solid infill extrusion width = 0.40mm
; top infill extrusion width = 0.40mm
; first layer extrusion width = 0.50mm

; EXECUTABLE_BLOCK_START
EXCLUDE_OBJECT_DEFINE NAME=ground_plate_v34.stl_id_0_copy_0 CENTER=110,110 POLYGON=[[14.3475,80],[14.5146,78.4741],[14.7814,76.9149],[15.4176,75.8129],[16.2356,74.8381],[40.8334,50.2],[86.9166,13.0701],[88.1545,12.1625],[89.5595,11.5442],[91.0433,10.9957],[92.3157,10.9957],[93.5689,11.2167],[127.205,20.2],[182.402,41.5442],[183.807,42.1625],[185.045,43.0701],[186.262,44.0808],[186.898,45.1828],[187.333,46.3786],[196.372,80],[205.485,138.474],[205.653,140],[205.485,141.526],[205.219,143.085],[204.582,144.187],[203.764,145.162],[179.167,169.8],[133.083,206.93],[131.846,207.838],[130.44,208.456],[128.957,209.004],[127.684,209.004],[126.431,208.783],[92.795,199.8],[37.598,178.456],[36.193,177.838],[34.9551,176.93],[33.7382,175.919],[33.1019,174.817],[32.6667,173.621],[23.6284,140],[14.5146,81.5259],[14.3475,80]]
M73 P0 R123
;TYPE:Custom
M117 ; clear display for KAMP meshing
START_PRINT BED_TEMP=75 EXTRUDER_TEMP=240
G90
G21
M83 ; use relative distances for extrusion
; filament start gcode
SET_PRESSURE_ADVANCE ADVANCE=0.018; Override pressure advance value
M106 S0
;LAYER_CHANGE
;Z:0.2
;HEIGHT:0.2
;BEFORE_LAYER_CHANGE
;0.2
G92 E0

G10 ; retract
;_SET_FAN_SPEED_CHANGING_LAYER
SET_VELOCITY_LIMIT ACCEL=500 ACCEL_TO_DECEL=250
G1 Z.4 F9000
G1 X39.292 Y48.287
G1 Z.2
G11 ; unretract
;TYPE:Skirt
;WIDTH:0.5
G1 F3000
G1 X85.464 Y11.089 E2.24783
G1 X87.165 Y9.913 E.07839
G1 X90.191 Y8.691 E.12374
G1 X91.043 Y8.539 E.03281
G1 X92.742 Y8.576 E.06443
G1 X94.203 Y8.843 E.05629
G1 X128.091 Y17.908 E1.32993
G1 X183.288 Y39.253 E2.24359
G1 X185.26 Y40.181 E.08262
G1 X187.832 Y42.191 E.12374
G1 X188.39 Y42.852 E.03281
G1 X189.026 Y43.954 E.04824
G1 X189.642 Y45.538 E.06443
G1 X198.799 Y79.622 E1.33797
G1 X207.928 Y138.207 E2.24783
G1 X208.095 Y140.268 E.07839
G1 X207.64 Y143.5 E.12374
G1 X207.346 Y144.314 E.03281
G1 X206.465 Y145.766 E.06443
G1 X205.503 Y146.898 E.05628
G1 X180.708 Y171.713 E1.32993
G1 X134.625 Y208.843 E2.24359
G1 X132.835 Y210.087 E.08262
G1 X129.809 Y211.309 E.12374
G1 X128.957 Y211.461 E.03281
G1 X127.684 Y211.461 E.04824
G1 X125.797 Y211.157 E.07247
G1 X91.909 Y202.092 E1.32993
G1 X36.712 Y180.747 E2.24359
G1 X34.74 Y179.819 E.08262
G1 X32.168 Y177.809 E.12374
G1 X31.61 Y177.148 E.03281
G1 X30.974 Y176.046 E.04824
G1 X30.358 Y174.462 E.06443
G1 X21.201 Y140.378 E1.33797
G1 X12.072 Y81.793 E2.24783
G1 X11.905 Y79.732 E.07839
G1 X12.36 Y76.5 E.12374
G1 X12.654 Y75.686 E.03281
G1 X13.535 Y74.234 E.06443
G1 X14.497 Y73.102 E.05628
G1 X39.264 Y48.315 E1.32841
; printing object ground_plate_v34.stl id:0 copy 0
G10 ; retract
EXCLUDE_OBJECT_START NAME=ground_plate_v34.stl_id_0_copy_0
G1 Z.6 F9000
G1 X182.637 Y118.411 Z.6
G1 Z.2
G11 ; unretract
;TYPE:Inner wall
;WIDTH:0.40567
G1 F900
G1 X181.913 Y117.875 E.02709
;WIDTH:0.448212
G1 X181.784 Y117.866 E.00436
;WIDTH:0.490754
G1 X181.655 Y117.857 E.00481
;WIDTH:0.533295
G1 X181.525 Y117.848 E.00527
;WIDTH:0.575837
G1 X181.396 Y117.839 E.00573
;WIDTH:0.618378
G1 X181.267 Y117.83 E.00619
G1 X181.357 Y117.758 E.00551
;WIDTH:0.577437
G1 X181.448 Y117.687 E.00512
;WIDTH:0.536496
G1 X181.538 Y117.615 E.00473
;WIDTH:0.495554
G1 X181.628 Y117.543 E.00433
;WIDTH:0.454613
G1 X181.719 Y117.471 E.00394
;WIDTH:0.413671
G1 X182.117 Y117.546 E.01247
;WIDTH:0.406248
G1 X182.616 Y118.377 E.02921
G10 ; retract
G1 Z.6 F9000
G1 X173.894 Y119.314 Z.6
G1 Z.2
G11 ; unretract
;WIDTH:0.5942
G1 F900
G1 X173.951 Y119.11 E.00967
;WIDTH:0.598178
G1 X173.968 Y118.822 E.01328
G1 X173.927 Y118.588 E.01097
G1 X173.599 Y118.043 E.02927
;WIDTH:0.597283
G1 X173.492 Y117.952 E.00647
G1 X173.621 Y118.009 E.00647
;WIDTH:0.598178
G1 X174.664 Y118.389 E.05115
G1 X175.197 Y118.547 E.02558
G1 X174.723 Y118.571 E.02184
G1 X174.352 Y118.742 E.0188
G1 X174.171 Y118.896 E.01097
G1 X173.916 Y119.28 E.02124
G10 ; retract
G1 Z.6 F9000
G1 X170.692 Y123.7 Z.6
G1 Z.2
G11 ; unretract
;WIDTH:0.571682
G1 F900
G1 X170.85 Y123.66 E.00717
;WIDTH:0.536784
G1 X171.009 Y123.62 E.0067
;WIDTH:0.501886
G1 X171.261 Y123.507 E.01051
;WIDTH:0.535154
G1 X171.461 Y123.353 E.01029
;WIDTH:0.580686
G1 X171.661 Y123.2 E.01125
G1 X171.636 Y123.311 E.00508
;WIDTH:0.553696
G1 X171.611 Y123.422 E.00483
;WIDTH:0.526706
G1 X171.623 Y123.975 E.02217
;WIDTH:0.536784
G1 X171.668 Y124.132 E.0067
;WIDTH:0.571682
G1 X171.713 Y124.289 E.00717
G1 X171.599 Y124.172 E.00717
;WIDTH:0.536784
G1 X171.485 Y124.054 E.0067
;WIDTH:0.501886
G1 X171.261 Y123.893 E.01051
G1 X171.009 Y123.78 E.01051
;WIDTH:0.536784
G1 X170.85 Y123.74 E.0067
;WIDTH:0.571682
G1 X170.731 Y123.71 E.00542
G10 ; retract
G1 Z.6 F9000
G1 X167.372 Y110 Z.6
G1 Z.2
G11 ; unretract
;WIDTH:0.58551
G1 F900
G1 X167.777 Y109.936 E.01844
G1 X168.069 Y109.781 E.01488
G1 X168.354 Y109.485 E.01849
;WIDTH:0.603828
G1 X168.523 Y109.142 E.01777
G1 X168.502 Y109.413 E.01264
;WIDTH:0.591264
G1 X168.499 Y110 E.0267
;WIDTH:0.592258
G1 X168.536 Y110.94 E.04287
G1 X168.415 Y110.614 E.01585
;WIDTH:0.586225
G1 X168.069 Y110.219 E.02366
;WIDTH:0.58551
G1 X167.777 Y110.064 E.01488
G1 X167.411 Y110.006 E.01664
G10 ; retract
G1 Z.6 F9000
G1 X173.851 Y100.634 Z.6
G1 Z.2
G11 ; unretract
;WIDTH:0.595811
G1 F900
G1 X173.8 Y100.504 E.00639
G1 X173.999 Y100.873 E.01922
G1 X174.171 Y101.102 E.01314
G1 X174.351 Y101.256 E.01086
G1 X174.679 Y101.415 E.01674
G1 X175.173 Y101.458 E.02273
G1 X174.284 Y101.744 E.04284
;WIDTH:0.604574
G1 X173.524 Y102.028 E.03778
G1 X173.647 Y101.912 E.00788
;WIDTH:0.60078
G1 X173.927 Y101.409 E.0266
;WIDTH:0.595811
G1 X173.967 Y101.176 E.01086
G1 X173.952 Y100.89 E.01314
G1 X173.865 Y100.671 E.01079
G10 ; retract
G1 Z.6 F9000
G1 X171.128 Y96.166 Z.6
G1 Z.2
G11 ; unretract
;WIDTH:0.501886
G1 F900
G1 X171.261 Y96.107 E.00553
;WIDTH:0.535153
G1 X171.461 Y95.953 E.01029
;WIDTH:0.580684
G1 X171.661 Y95.8 E.01125
G1 X171.636 Y95.911 E.00508
;WIDTH:0.553695
G1 X171.611 Y96.022 E.00483
;WIDTH:0.526705
G1 X171.623 Y96.575 E.02217
;WIDTH:0.536784
G1 X171.668 Y96.732 E.0067
;WIDTH:0.571682
G1 X171.713 Y96.889 E.00717
G1 X171.599 Y96.772 E.00717
;WIDTH:0.536784
G1 X171.485 Y96.654 E.0067
;WIDTH:0.501886
G1 X171.261 Y96.493 E.01051
G1 X171.009 Y96.38 E.01051
;WIDTH:0.536785
G1 X170.85 Y96.34 E.0067
;WIDTH:0.571684
G1 X170.692 Y96.3 E.00717
G1 X170.85 Y96.26 E.00717
;WIDTH:0.536785
G1 X171.009 Y96.22 E.0067
;WIDTH:0.501886
G1 X171.092 Y96.183 E.00345
G10 ; retract
G1 Z.6 F9000
G1 X182.537 Y101.747 Z.6
G1 Z.2
G11 ; unretract
;WIDTH:0.40671
G1 F900
G1 X182.117 Y102.454 E.02482
;WIDTH:0.414203
G1 X181.719 Y102.528 E.01248
;WIDTH:0.457164
G1 X181.64 Y102.462 E.00355
;WIDTH:0.500125
G1 X181.561 Y102.395 E.00391
;WIDTH:0.543086
G1 X181.483 Y102.328 E.00428
;WIDTH:0.586047
G1 X181.404 Y102.262 E.00465
;WIDTH:0.629008
G1 X181.325 Y102.195 E.00502
G1 X181.452 Y102.179 E.00621
;WIDTH:0.584549
G1 X181.578 Y102.163 E.00574
;WIDTH:0.540089
G1 X181.705 Y102.147 E.00527
;WIDTH:0.49563
G1 X181.832 Y102.131 E.0048
;WIDTH:0.45117
G1 X181.959 Y102.115 E.00433
;WIDTH:0.40671
G1 X182.503 Y101.768 E.01947
G10 ; retract
G1 Z.6 F9000
G1 X180.887 Y80 Z.6
G1 Z.2
G11 ; unretract
;WIDTH:0.441328
G1 F900
G1 X180.8 Y80.102 E.00443
;WIDTH:0.490736
G1 X180.712 Y80.204 E.00498
;WIDTH:0.540144
G1 X180.625 Y80.305 E.00553
;WIDTH:0.589552
G1 X180.538 Y80.407 E.00608
G1 X180.531 Y80.305 E.00462
;WIDTH:0.540144
G1 X180.524 Y80.204 E.00421
;WIDTH:0.490736
G1 X180.518 Y80.102 E.00379
;WIDTH:0.441328
G1 X180.511 Y80 E.00337
;WIDTH:0.436863
G1 X180.494 Y79.853 E.00485
;WIDTH:0.481805
G1 X180.477 Y79.705 E.0054
;WIDTH:0.526748
G1 X180.46 Y79.558 E.00595
;WIDTH:0.57169
G1 X180.443 Y79.411 E.0065
G1 X180.541 Y79.536 E.00699
;WIDTH:0.526748
G1 X180.64 Y79.662 E.0064
;WIDTH:0.481805
G1 X180.738 Y79.787 E.00581
;WIDTH:0.436863
G1 X180.837 Y79.913 E.00521
;WIDTH:0.39192
G1 X180.867 Y79.965 E.00176
G10 ; retract
G1 Z.6 F9000
G1 X176.667 Y72.871 Z.6
G1 Z.2
G11 ; unretract
;WIDTH:0.601939
G1 F900
G1 X175.599 Y71.003 E.09978
G1 X176.366 Y71.425 E.04063
G1 X176.705 Y71.416 E.0157
;WIDTH:0.59869
G1 X177.009 Y71.312 E.01482
G1 X176.767 Y71.524 E.01482
;WIDTH:0.601939
G1 X176.59 Y71.812 E.01569
G1 X176.664 Y72.831 E.04734
G10 ; retract
G1 Z.6 F9000
G1 X171.713 Y64.289 Z.6
G1 Z.2
G11 ; unretract
;WIDTH:0.571686
G1 F900
G1 X171.593 Y64.201 E.0065
;WIDTH:0.526744
G1 X171.474 Y64.113 E.00595
;WIDTH:0.481802
G1 X171.355 Y64.024 E.0054
;WIDTH:0.436859
G1 X171.236 Y63.936 E.00485
G1 X171.1 Y63.877 E.00485
;WIDTH:0.481801
G1 X170.964 Y63.818 E.0054
;WIDTH:0.526743
G1 X170.828 Y63.759 E.00595
;WIDTH:0.571684
G1 X170.692 Y63.7 E.0065
G1 X170.875 Y63.678 E.00809
;WIDTH:0.526743
G1 X171.058 Y63.655 E.0074
;WIDTH:0.481801
G1 X171.241 Y63.633 E.00671
;WIDTH:0.436859
G1 X171.424 Y63.61 E.00603
;WIDTH:0.391917
G1 X171.475 Y63.697 E.00292
;WIDTH:0.43686
G1 X171.534 Y63.845 E.00521
;WIDTH:0.481802
G1 X171.594 Y63.993 E.00581
;WIDTH:0.526744
G1 X171.653 Y64.141 E.0064
;WIDTH:0.571686
G1 X171.698 Y64.252 E.00524
G10 ; retract
G1 Z.6 F9000
G1 X172.856 Y51.292 Z.6
G1 Z.2
G11 ; unretract
;WIDTH:0.425352
G1 F900
G1 X173.09 Y51.174 E.00829
;WIDTH:0.462676
G1 X173.323 Y51.057 E.0091
;WIDTH:0.499999
G1 X173.557 Y50.94 E.00991
G1 X174.359 Y49.947 E.04839
G1 X174.501 Y49.724 E.01003
G1 X174.595 Y49.431 E.01165
G1 X174.607 Y49.114 E.01205
G1 X174.557 Y48.553 E.02134
G1 X174.553 Y47.433 E.04247
G1 X174.499 Y47.384 E.00275
G1 X174.675 Y46.5 E.03417
G1 X175.191 Y45.329 E.04853
G1 X175.948 Y44.296 E.04853
G1 X176.982 Y43.389 E.05214
G1 X177.203 Y43.152 E.01229
G1 X177.23 Y42.977 E.00672
G1 X177.691 Y42.711 E.02017
G1 X178.695 Y42.345 E.04052
G1 X179.748 Y42.16 E.04052
G1 X180.28 Y42.16 E.02017
G1 X180.342 Y42.273 E.00491
G1 X180.651 Y42.383 E.01242
G1 X182.05 Y42.661 E.05409
G1 X183.221 Y43.177 E.04853
G1 X184.254 Y43.934 E.04853
G1 X185.143 Y44.947 E.0511
G1 X185.444 Y45.219 E.01538
G1 X185.573 Y45.216 E.00491
G1 X185.839 Y45.677 E.02017
G1 X186.205 Y46.681 E.04052
G1 X186.382 Y47.689 E.03881
G1 X186.386 Y48.272 E.0221
G1 X186.273 Y48.334 E.00488
G1 X186.167 Y48.636 E.01215
G1 X185.889 Y50.036 E.05409
G1 X185.373 Y51.207 E.04853
G1 X184.616 Y52.24 E.04853
G1 X183.939 Y52.834 E.03416
G1 X183.87 Y52.812 E.00274
G1 X182.855 Y53.392 E.04433
G1 X182.387 Y53.605 E.0195
G1 X182.042 Y53.845 E.01594
G1 X181.789 Y54.237 E.01767
G1 X181.331 Y55.428 E.04839
G1 X181.375 Y55.744 E.01212
;WIDTH:0.457227
G1 X181.419 Y56.061 E.01098
;WIDTH:0.414455
G1 X181.463 Y56.378 E.00985
G1 X181.31 Y56.07 E.0106
;WIDTH:0.457227
G1 X181.157 Y55.762 E.01182
;WIDTH:0.499999
G1 X181.004 Y55.453 E.01304
G1 X179.897 Y53.537 E.08391
G1 X179.704 Y53.278 E.01224
;WIDTH:0.538206
G1 X179.491 Y53.123 E.01082
;WIDTH:0.576413
G1 X179.278 Y52.967 E.01166
;WIDTH:0.598443
G1 X178.845 Y52.806 E.02129
;WIDTH:0.615151
G1 X178.328 Y52.62 E.02609
G1 X177.942 Y52.414 E.02075
;WIDTH:0.619081
G1 X177.491 Y52.134 E.02536
G1 X176.721 Y51.479 E.04832
;WIDTH:0.597199
G1 X176.455 Y51.371 E.01318
;WIDTH:0.548599
G1 X176.189 Y51.263 E.01203
;WIDTH:0.499999
G1 X175.94 Y51.236 E.00953
G1 X173.698 Y51.236 E.08497
G1 X173.418 Y51.255 E.01067
;WIDTH:0.462676
G1 X173.137 Y51.273 E.0098
;WIDTH:0.425352
G1 X172.896 Y51.289 E.00766
G10 ; retract
G1 Z.6 F9000
G1 X187.305 Y66.512 Z.6
G1 Z.2
G11 ; unretract
;WIDTH:0.435103
G1 F900
G1 X187.045 Y66.359 E.0098
;WIDTH:0.482179
G1 X186.786 Y66.207 E.01097
;WIDTH:0.529255
G1 X186.526 Y66.054 E.01215
;WIDTH:0.531557
G1 X186.227 Y66.078 E.01217
;WIDTH:0.571684
G1 X185.882 Y66.189 E.01588
G1 X186.151 Y65.947 E.01588
;WIDTH:0.531557
G1 X186.322 Y65.699 E.01217
;WIDTH:0.529255
G1 X186.298 Y65.432 E.01083
;WIDTH:0.489864
G1 X186.274 Y65.164 E.00996
;WIDTH:0.450472
G1 X186.251 Y64.897 E.00908
;WIDTH:0.41108
G1 X186.227 Y64.629 E.0082
G1 X186.357 Y64.894 E.00902
;WIDTH:0.450472
G1 X186.488 Y65.159 E.00998
;WIDTH:0.489864
G1 X186.618 Y65.424 E.01095
;WIDTH:0.529255
G1 X186.748 Y65.689 E.01191
G1 X186.934 Y65.964 E.01336
;WIDTH:0.482179
G1 X187.119 Y66.238 E.01206
;WIDTH:0.435103
G1 X187.282 Y66.479 E.00947
G10 ; retract
G1 Z.6 F9000
G1 X181.352 Y80 Z.6
G1 Z.2
G11 ; unretract
;WIDTH:0.499999
G1 F900
G1 X181.186 Y79.711 E.01264
G1 X177.094 Y72.624 E.31024
G1 X177.057 Y72.012 E.02325
G1 X177.158 Y71.846 E.00738
G1 X177.345 Y71.688 E.00928
G1 X186.129 Y66.616 E.38453
G1 X186.327 Y66.54 E.00804
G1 X186.504 Y66.525 E.00674
G1 X186.997 Y66.77 E.02088
G1 X187.065 Y66.867 E.00451
G1 X194.45 Y79.657 E.5599
G1 X194.542 Y80 E.01345
G1 X194.45 Y80.343 E.01345
G1 X182.229 Y101.489 E.92593
G1 X181.835 Y101.722 E.01734
G1 X181.489 Y101.7 E.01317
G1 X179.869 Y101.078 E.06576
G1 X178.328 Y100.769 E.0596
G1 X176.756 Y100.725 E.05959
G1 X175.126 Y100.956 E.06242
G1 X174.828 Y100.933 E.01135
G1 X174.535 Y100.752 E.01304
G1 X174.226 Y100.258 E.02211
G1 X172.139 Y96.643 E.15824
G1 X172.048 Y96.3 E.01345
G1 X172.112 Y96.01 E.01125
G1 X181.332 Y80.035 E.69929
G1 X181.88 Y80 F9000
;TYPE:Outer wall
G1 F900
G1 X181.581 Y79.483 E.02265
G1 X177.49 Y72.396 E.31024
G1 X177.477 Y72.192 E.00775
G1 X177.573 Y72.083 E.00548
G1 X186.357 Y67.012 E.38453
G1 X186.482 Y66.982 E.00488
G1 X186.67 Y67.096 E.00831
G1 X194.054 Y79.886 E.5599
G1 X194.071 Y80.078 E.00733
G1 X181.901 Y101.163 E.92293
G1 X181.747 Y101.273 E.00718
G1 X181.622 Y101.262 E.00479
G1 X179.997 Y100.638 E.06598
G1 X178.38 Y100.313 E.06254
G1 X176.731 Y100.267 E.06254
G1 X175.062 Y100.504 E.0639
G1 X174.899 Y100.465 E.00633
G1 X174.622 Y100.029 E.0196
G1 X172.535 Y96.414 E.15824
G1 X172.511 Y96.245 E.00648
G1 X181.86 Y80.035 E.70944
G10 ; retract
G1 Z.6 F9000
G1 X153.128 Y63.7 Z.6
G1 Z.2
G11 ; unretract
;TYPE:Inner wall
;WIDTH:0.580684
G1 F900
G1 X153.019 Y63.734 E.00508
;WIDTH:0.553695
G1 X152.911 Y63.768 E.00483
;WIDTH:0.526705
G1 X152.438 Y64.054 E.02217
;WIDTH:0.536786
G1 X152.324 Y64.172 E.0067
;WIDTH:0.571684
G1 X152.211 Y64.289 E.00717
G1 X152.255 Y64.132 E.00717
;WIDTH:0.536786
G1 X152.3 Y63.975 E.0067
;WIDTH:0.501888
G1 X152.327 Y63.7 E.01051
;WIDTH:0.535157
G1 X152.295 Y63.45 E.01029
;WIDTH:0.58069
G1 X152.262 Y63.2 E.01125
G1 X152.462 Y63.353 E.01125
;WIDTH:0.535154
G1 X152.662 Y63.507 E.01029
G1 X152.895 Y63.603 E.01029
;WIDTH:0.580684
G1 X153.091 Y63.685 E.00946
G10 ; retract
G1 Z.6 F9000
G1 X149.984 Y57.829 Z.6
G1 Z.2
G11 ; unretract
;WIDTH:0.598179
G1 F900
G1 X149.784 Y58.233 E.02076
G1 X149.747 Y58.64 E.0188
G1 X149.79 Y58.874 E.01097
G1 X149.903 Y59.14 E.01329
G1 X150.124 Y59.496 E.01931
G1 X149.866 Y59.17 E.01911
G1 X149.624 Y59.013 E.01329
G1 X149.401 Y58.931 E.01097
G1 X148.766 Y58.944 E.02925
;WIDTH:0.593836
G1 X148.557 Y59.032 E.01033
G1 X148.745 Y58.906 E.01033
;WIDTH:0.598179
G1 X149.597 Y58.193 E.05115
G1 X149.955 Y57.857 E.02262
G10 ; retract
G1 Z.6 F9000
G1 X153.415 Y51.308 Z.6
G1 Z.2
G11 ; unretract
;WIDTH:0.405695
G1 F900
G1 X152.777 Y51.659 E.02191
;WIDTH:0.448361
G1 X152.704 Y51.765 E.00433
;WIDTH:0.491026
G1 X152.632 Y51.872 E.00479
;WIDTH:0.533692
G1 X152.56 Y51.979 E.00524
;WIDTH:0.576357
G1 X152.487 Y52.085 E.0057
;WIDTH:0.619022
G1 X152.415 Y52.192 E.00615
G1 X152.398 Y52.078 E.00547
;WIDTH:0.577958
G1 X152.381 Y51.965 E.00508
;WIDTH:0.536893
G1 X152.364 Y51.852 E.00469
;WIDTH:0.495828
G1 X152.347 Y51.739 E.0043
;WIDTH:0.454763
G1 X152.33 Y51.625 E.00391
;WIDTH:0.413698
G1 X152.593 Y51.317 E.01247
;WIDTH:0.406273
G1 X153.375 Y51.309 E.02355
G10 ; retract
G1 Z.6 F9000
G1 X140.082 Y59.776 Z.6
G1 Z.2
G11 ; unretract
;WIDTH:0.592258
G1 F900
G1 X139.739 Y59.718 E.01585
;WIDTH:0.586225
G1 X139.224 Y59.821 E.02366
;WIDTH:0.58551
G1 X138.944 Y59.996 E.01488
G1 X138.686 Y60.315 E.01844
G1 X138.833 Y59.932 E.01844
G1 X138.844 Y59.601 E.01488
G1 X138.731 Y59.206 E.01849
;WIDTH:0.603822
G1 X138.518 Y58.889 E.01777
