; HEADER_BLOCK_START
; generated by OrcaSlicer 1.9.0 on 2024-02-07 at 12:34:34
; total layer number: 28
; filament_density: 1.27
; filament_diameter: 1.75
; max_z_height: 5.60
; HEADER_BLOCK_END

; THUMBNAIL_BLOCK_START

;
; THUMBNAIL_BLOCK_END

; THUMBNAIL_BLOCK_START

;
; THUMBNAIL_BLOCK_END

; external perimeters extrusion width = 0.40mm
; perimeters extrusion width = 0.45mm
; infill extrusion width = 0.45mm
; solid infill extrusion width = 0.40mm
; top infill extrusion width = 0.40mm
; support material extrusion width = 0.40mm
; first layer extrusion width = 0.50mm

; EXECUTABLE_BLOCK_START
EXCLUDE_OBJECT_DEFINE NAME=ML4_-_base_stabilizer_clip-on_v23_-_ring.stl_id_0_copy_0 CENTER=110,110 POLYGON=[[93.9,102.09],[93.9268,101.733],[94.0066,101.383],[94.1377,101.049],[94.317,100.738],[94.5407,100.458],[94.8036,100.214],[95.1,100.012],[108.8,92.1021],[109.123,91.9465],[109.466,91.8408],[109.821,91.7873],[110.179,91.7873],[110.534,91.8408],[110.877,91.9465],[111.2,92.1021],[124.9,100.012],[125.196,100.214],[125.459,100.458],[125.683,100.738],[125.862,101.049],[125.993,101.383],[126.073,101.733],[126.1,102.09],[126.1,117.91],[126.073,118.267],[125.993,118.617],[125.862,118.951],[125.683,119.262],[125.459,119.542],[125.196,119.786],[124.9,119.988],[111.2,127.898],[110.877,128.054],[110.534,128.159],[110.179,128.213],[109.821,128.213],[109.466,128.159],[109.123,128.054],[108.8,127.898],[95.1,119.988],[94.8036,119.786],[94.5407,119.542],[94.317,119.262],[94.1377,118.951],[94.0066,118.617],[93.9268,118.267],[93.9,117.91],[93.9,102.09]]
M73 P0 R7
;TYPE:Custom
M117 ; clear display for KAMP meshing
START_PRINT BED_TEMP=75 EXTRUDER_TEMP=240
G90
G21
M83 ; use relative distances for extrusion
; filament start gcode
SET_PRESSURE_ADVANCE ADVANCE=0.018; Override pressure advance value
M106 S0
;LAYER_CHANGE
;Z:0.2
;HEIGHT:0.2
;BEFORE_LAYER_CHANGE
;0.2
G92 E0

G10 ; retract
;_SET_FAN_SPEED_CHANGING_LAYER
SET_VELOCITY_LIMIT ACCEL=500 ACCEL_TO_DECEL=250
G1 Z.4 F9000
G1 X93.319 Y98.647
G1 Z.2
G11 ; unretract
;TYPE:Skirt
;WIDTH:0.5
G1 F3000
G1 X93.866 Y98.241 E.02581
G1 X107.884 Y90.148 E.61365
G1 X108.509 Y89.878 E.0258
G1 X109.166 Y89.704 E.0258
G1 X109.843 Y89.629 E.02581
G1 X110.523 Y89.657 E.0258
G1 X111.491 Y89.878 E.03766
G1 X112.279 Y90.234 E.03275
G1 X125.979 Y98.144 E.59973
G1 X126.911 Y98.861 E.04459
G1 X127.563 Y99.679 E.03967
G1 X127.879 Y100.282 E.0258
G1 X128.102 Y100.925 E.0258
G1 X128.25 Y101.907 E.03765
G1 X128.257 Y117.91 E.6067
G1 X128.102 Y119.075 E.04458
G1 X127.72 Y120.049 E.03967
G1 X127.356 Y120.625 E.0258
G1 X126.911 Y121.139 E.02581
G1 X126.134 Y121.758 E.03765
G1 X112.279 Y129.766 E.6067
G1 X111.191 Y130.215 E.04459
G1 X110.523 Y130.343 E.0258
G1 X109.843 Y130.371 E.0258
G1 X108.809 Y130.215 E.03966
G1 X107.721 Y129.766 E.04459
G1 X94.021 Y121.856 E.59973
G1 X93.089 Y121.139 E.04458
G1 X92.437 Y120.321 E.03966
G1 X92.006 Y119.426 E.03766
G1 X91.828 Y118.769 E.0258
G1 X91.75 Y118.093 E.02581
G1 X91.743 Y102.09 E.60669
G1 X91.898 Y100.925 E.04458
G1 X92.28 Y99.951 E.03966
G1 X92.84 Y99.13 E.03766
G1 X93.291 Y98.676 E.02428
; printing object ML4_-_base_stabilizer_clip-on_v23_-_ring.stl id:0 copy 0
G10 ; retract
EXCLUDE_OBJECT_START NAME=ML4_-_base_stabilizer_clip-on_v23_-_ring.stl_id_0_copy_0
G1 Z.6 F9000
G1 X109.998 Y92.429 Z.6
G1 Z.2
G11 ; unretract
;TYPE:Outer wall
;WIDTH:0.669882
G1 F900
G1 X110.132 Y92.417 E.007
;WIDTH:0.68863
G1 X110.652 Y92.552 E.02877
;WIDTH:0.69999
G1 X110.886 Y92.672 E.01432
G1 X124.553 Y100.562 E.86004
M73 P1 R7
G1 X124.99 Y100.894 E.02988
;WIDTH:0.674126
G1 X125.291 Y101.324 E.02751
;WIDTH:0.688624
G1 X125.436 Y101.841 E.02874
;WIDTH:0.699998
G1 X125.45 Y102.103 E.01433
G1 X125.45 Y117.884 E.86005
G1 X125.381 Y118.428 E.02988
;WIDTH:0.67413
G1 X125.159 Y118.904 E.0275
;WIDTH:0.688632
G1 X124.784 Y119.288 E.02874
;WIDTH:0.699994
G1 X124.564 Y119.432 E.01433
G1 X110.897 Y127.322 E.86005
G1 X110.391 Y127.535 E.02988
;WIDTH:0.674134
G1 X109.868 Y127.58 E.0275
;WIDTH:0.688632
G1 X109.348 Y127.448 E.02874
;WIDTH:0.700008
G1 X109.114 Y127.328 E.01432
G1 X95.447 Y119.438 E.86007
M73 P2 R7
G1 X95.01 Y119.106 E.02989
;WIDTH:0.674136
G1 X94.709 Y118.676 E.0275
;WIDTH:0.688628
G1 X94.564 Y118.159 E.02874
;WIDTH:0.699986
G1 X94.55 Y117.897 E.01433
G1 X94.55 Y102.116 E.86004
G1 X94.619 Y101.572 E.02988
;WIDTH:0.674126
G1 X94.841 Y101.096 E.0275
;WIDTH:0.688634
G1 X95.216 Y100.712 E.02874
;WIDTH:0.699996
G1 X95.436 Y100.568 E.01433
G1 X109.103 Y92.678 E.86005
G1 X109.608 Y92.463 E.0299
;WIDTH:0.669882
G1 X109.958 Y92.433 E.01828
; stop printing object ML4_-_base_stabilizer_clip-on_v23_-_ring.stl id:0 copy 0
;LAYER_CHANGE
;Z:0.4
;HEIGHT:0.2
;BEFORE_LAYER_CHANGE
;0.4
G92 E0

G10 ; retract
EXCLUDE_OBJECT_END NAME=ML4_-_base_stabilizer_clip-on_v23_-_ring.stl_id_0_copy_0
;_SET_FAN_SPEED_CHANGING_LAYER
M140 S75 ; set bed temperature
; printing object ML4_-_base_stabilizer_clip-on_v23_-_ring.stl id:0 copy 0
EXCLUDE_OBJECT_START NAME=ML4_-_base_stabilizer_clip-on_v23_-_ring.stl_id_0_copy_0
G1 Z.6 F9000
G1 X125.316 Y100.72 Z.6
G1 Z.4
G11 ; unretract
;WIDTH:0.486752
G1 F1141.916
G1 X125.604 Y101.155 E.01921
;WIDTH:0.492492
G1 F1145.079
G1 X125.729 Y101.482 E.01305
;WIDTH:0.504792
G1 F1153.215
G1 X125.814 Y102.108 E.0242
G1 F1166.075
G1 X125.814 Y103.132 E.03923
G1 X125.814 Y116.868 E.52621
G1 X125.814 Y117.892 E.03923
G1 F1158.54
G1 X125.801 Y118.135 E.00932
;WIDTH:0.49696
G1 F1157.887
G1 X125.671 Y118.657 E.02026
;WIDTH:0.486753
G1 F1144.429
G1 X125.462 Y119.091 E.01773
;WIDTH:0.492493
G1 F1145.077
G1 X125.242 Y119.363 E.01304
;WIDTH:0.504794
G1 F1153.231
G1 X124.749 Y119.745 E.02389
G1 F1166.089
G1 X123.862 Y120.257 E.03923
G1 X111.959 Y127.129 E.52653
M73 P3 R7
G1 X111.073 Y127.641 E.0392
G1 F1158.548
G1 X110.855 Y127.751 E.00935
;WIDTH:0.496961
G1 F1141.839
G1 X110.368 Y127.906 E.01925
;WIDTH:0.486758
G1 F1140.62
G1 X109.858 Y127.936 E.01881
;WIDTH:0.492491
G1 F1145.065
G1 X109.512 Y127.881 E.01306
;WIDTH:0.504789
G1 F1153.244
G1 X108.927 Y127.641 E.02422
G1 F1166.086
G1 X108.041 Y127.129 E.0392
G1 X96.145 Y120.262 E.5262
G1 X95.259 Y119.75 E.0392
G1 F1158.545
G1 X95.055 Y119.616 E.00935
;WIDTH:0.496967
G1 F1141.827
G1 X94.677 Y119.271 E.01927
;WIDTH:0.486766
G1 F1140.608
G1 X94.396 Y118.845 E.01879
;WIDTH:0.492493
G1 F1145.078
G1 X94.271 Y118.518 E.01305
;WIDTH:0.504792
G1 F1153.221
G1 X94.186 Y117.9 E.0239
G1 F1166.051
G1 X94.186 Y116.876 E.03923
G1 X94.186 Y103.132 E.52652
G1 X94.186 Y102.108 E.03923
G1 F1158.532
G1 X94.199 Y101.865 E.00932
;WIDTH:0.496962
G1 F1141.815
G1 X94.309 Y101.365 E.01928
;WIDTH:0.486761
G1 F1140.595
G1 X94.538 Y100.909 E.01878
;WIDTH:0.492489
G1 F1145.073
G1 X94.758 Y100.637 E.01304
;WIDTH:0.504788
G1 F1153.224
G1 X95.251 Y100.255 E.02389
G1 F1166.08
G1 X96.138 Y99.743 E.03923
G1 X108.041 Y92.871 E.52652
G1 X108.927 Y92.359 E.0392
G1 F1159.072
G1 X109.243 Y92.205 E.01347
;WIDTH:0.497404
G1 F1144.555
G1 X109.825 Y92.066 E.02256
;WIDTH:0.48587
G1 F1143.239
G1 X110.269 Y92.086 E.01633
;WIDTH:0.498647
G1 F1157.95
G1 X110.756 Y92.208 E.01898
;WIDTH:0.504789
G1 F1166.082
G1 X111.065 Y92.354 E.01309
G1 X111.952 Y92.866 E.03923
G1 X123.855 Y99.738 E.52652
G1 X124.741 Y100.25 E.0392
G1 F1158.545
G1 X124.945 Y100.384 E.00935
;WIDTH:0.496962
G1 F1157.892
G1 X125.286 Y100.693 E.01733
G10 ; retract
G1 Z.8 F9000
G1 X109.994 Y92.515 Z.8
M73 P4 R7
G1 Z.4
G11 ; unretract
;WIDTH:0.490678
G1 F1500
M106 S0
G1 X110.112 Y92.504 E.0044
;WIDTH:0.498647
G1 X110.628 Y92.645 E.02019
;WIDTH:0.504789
G1 X124.511 Y100.65 E.61393
G1 X124.944 Y100.974 E.02073
;WIDTH:0.492487
G1 X125.078 Y101.131 E.00768
;WIDTH:0.486754
G1 X125.271 Y101.495 E.01519
;WIDTH:0.497597
G1 X125.349 Y101.916 E.01614
;WIDTH:0.504792
G1 X125.344 Y118.134 E.6213
;WIDTH:0.49865
G1 X125.211 Y118.638 E.01968
;WIDTH:0.486758
G1 X125.001 Y118.973 E.01457
;WIDTH:0.4976
G1 X124.675 Y119.251 E.01614
;WIDTH:0.504794
G1 X110.842 Y127.241 E.612
G1 X110.345 Y127.455 E.02073
;WIDTH:0.492491
G1 X110.142 Y127.492 E.00769
;WIDTH:0.486757
G1 X109.73 Y127.478 E.01518
;WIDTH:0.497597
G1 X109.326 Y127.334 E.01614
;WIDTH:0.504789
G1 X95.489 Y119.35 E.612
G1 X95.056 Y119.026 E.02073
;WIDTH:0.492494
G1 X94.922 Y118.869 E.00769
;WIDTH:0.48676
G1 X94.729 Y118.505 E.01519
;WIDTH:0.497598
G1 X94.651 Y118.084 E.01614
;WIDTH:0.504792
G1 X94.648 Y102.108 E.612
G1 X94.711 Y101.571 E.02073
;WIDTH:0.492494
G1 X94.78 Y101.377 E.00768
;WIDTH:0.48676
G1 X94.999 Y101.027 E.01519
;WIDTH:0.497598
G1 X95.325 Y100.749 E.01614
;WIDTH:0.504788
G1 X109.158 Y92.759 E.61199
G1 X109.619 Y92.552 E.01934
;WIDTH:0.490678
G1 X109.955 Y92.519 E.01252
; stop printing object ML4_-_base_stabilizer_clip-on_v23_-_ring.stl id:0 copy 0
;LAYER_CHANGE
;Z:0.6
;HEIGHT:0.2
;BEFORE_LAYER_CHANGE
;0.6
G92 E0

G10 ; retract
EXCLUDE_OBJECT_END NAME=ML4_-_base_stabilizer_clip-on_v23_-_ring.stl_id_0_copy_0
;_SET_FAN_SPEED_CHANGING_LAYER
; printing object ML4_-_base_stabilizer_clip-on_v23_-_ring.stl id:0 copy 0
EXCLUDE_OBJECT_START NAME=ML4_-_base_stabilizer_clip-on_v23_-_ring.stl_id_0_copy_0
G1 Z.8 F9000
M73 P5 R7
G1 X125.333 Y100.702 Z.8
G1 Z.6
G11 ; unretract
;WIDTH:0.503371
G1 F1500
G1 X125.626 Y101.144 E.02024
;WIDTH:0.509071
G1 X125.753 Y101.475 E.01373
;WIDTH:0.521459
G1 X125.839 Y102.109 E.02539
G1 X125.828 Y118.101 E.63476
;WIDTH:0.514241
G1 X125.732 Y118.581 E.01912
;WIDTH:0.503386
G1 X125.481 Y119.103 E.02213
;WIDTH:0.509072
G1 X125.259 Y119.38 E.01371
;WIDTH:0.521461
G1 X124.761 Y119.767 E.02504
G1 X111.086 Y127.663 E.62676
G1 X110.866 Y127.774 E.00976
;WIDTH:0.51358
G1 X110.374 Y127.93 E.02016
;WIDTH:0.503378
G1 X109.857 Y127.961 E.0198
;WIDTH:0.50907
G1 X109.506 Y127.905 E.01373
;WIDTH:0.521456
G1 X108.914 Y127.663 E.02539
G1 X95.247 Y119.772 E.6264
G1 X95.041 Y119.637 E.00977
;WIDTH:0.513586
G1 X94.659 Y119.289 E.02016
;WIDTH:0.503386
G1 X94.374 Y118.856 E.0198
;WIDTH:0.509072
G1 X94.247 Y118.525 E.01373
;WIDTH:0.52146
G1 X94.161 Y117.9 E.02504
G1 X94.161 Y102.109 E.62676
M73 P5 R6
G1 X94.175 Y101.863 E.00976
;WIDTH:0.513584
G1 X94.285 Y101.359 E.02016
;WIDTH:0.503381
G1 X94.517 Y100.895 E.01979
;WIDTH:0.509068
G1 X94.741 Y100.62 E.01373
;WIDTH:0.521455
G1 X95.239 Y100.233 E.02504
G1 X109.102 Y92.242 E.63511
;WIDTH:0.514242
G1 X109.506 Y92.094 E.01681
;WIDTH:0.507156
G1 X109.977 Y92.046 E.01824
;WIDTH:0.509524
G1 X110.511 Y92.1 E.02076
;WIDTH:0.521455
G1 X111.078 Y92.333 E.02434
G1 X124.753 Y100.228 E.62676
M73 P6 R6
G1 X124.959 Y100.363 E.00976
;WIDTH:0.513581
G1 X125.304 Y100.675 E.01814
G10 ; retract
G1 Z1 F9000
G1 X110.06 Y92.507 Z1
G1 Z.6
G11 ; unretract
;WIDTH:0.509524
G1 F1500
G1 X110.362 Y92.542 E.01179
;WIDTH:0.521455
G1 X110.847 Y92.752 E.02094
G1 X124.514 Y100.643 E.6264
G1 X124.951 Y100.969 E.02164
;WIDTH:0.509066
G1 X125.084 Y101.126 E.00795
;WIDTH:0.503372
G1 X125.28 Y101.494 E.01591
;WIDTH:0.514241
G1 X125.357 Y101.916 E.01679
;WIDTH:0.521459
G1 X125.361 Y117.891 E.63406
G1 X125.303 Y118.42 E.02111
;WIDTH:0.507113
G1 X125.071 Y118.896 E.02039
;WIDTH:0.513583
G1 X124.694 Y119.248 E.02014
;WIDTH:0.521461
G1 X110.847 Y127.248 E.63476
G1 X110.346 Y127.463 E.02164
;WIDTH:0.50907
G1 X110.143 Y127.501 E.00795
;WIDTH:0.503377
G1 X109.727 Y127.486 E.01591
;WIDTH:0.514241
G1 X109.322 Y127.342 E.01679
;WIDTH:0.521456
G1 X95.486 Y119.357 E.63405
G1 X95.049 Y119.031 E.02164
;WIDTH:0.509072
G1 X94.916 Y118.874 E.00795
;WIDTH:0.503382
G1 X94.72 Y118.506 E.01591
;WIDTH:0.514243
G1 X94.643 Y118.084 E.01679
;WIDTH:0.52146
G1 X94.639 Y102.109 E.63406
G1 X94.703 Y101.568 E.02164
;WIDTH:0.509072
G1 X94.772 Y101.374 E.00795
;WIDTH:0.503379
G1 X94.963 Y101.055 E.0142
;WIDTH:0.514243
G1 X95.321 Y100.742 E.01855
;WIDTH:0.521455
G1 X109.153 Y92.752 E.63405
M73 P7 R6
G1 X109.618 Y92.544 E.02022
;WIDTH:0.507156
G1 X109.95 Y92.494 E.01292
;WIDTH:0.509524
G1 X110.02 Y92.502 E.00272
; stop printing object ML4_-_base_stabilizer_clip-on_v23_-_ring.stl id:0 copy 0
M106 S224
;LAYER_CHANGE
;Z:0.8
;HEIGHT:0.2
;BEFORE_LAYER_CHANGE
;0.8
G92 E0

G10 ; retract
EXCLUDE_OBJECT_END NAME=ML4_-_base_stabilizer_clip-on_v23_-_ring.stl_id_0_copy_0
;_SET_FAN_SPEED_CHANGING_LAYER
; printing object ML4_-_base_stabilizer_clip-on_v23_-_ring.stl id:0 copy 0
EXCLUDE_OBJECT_START NAME=ML4_-_base_stabilizer_clip-on_v23_-_ring.stl_id_0_copy_0
G1 Z1 F9000
G1 X125.331 Y100.7 Z1
G1 Z.8
G11 ; unretract
;WIDTH:0.513581
G1 F1500
G1 X125.333 Y100.702 E.00013
;WIDTH:0.503372
G1 X125.626 Y101.144 E.02024
;WIDTH:0.509072
G1 X125.753 Y101.475 E.01373
;WIDTH:0.521459
G1 X125.839 Y102.109 E.02539
G1 X125.839 Y117.891 E.62641
G1 X125.821 Y118.184 E.01163
;WIDTH:0.514759
G1 X125.705 Y118.644 E.01858
;WIDTH:0.50208
G1 X125.481 Y119.103 E.01947
;WIDTH:0.509072
G1 X125.259 Y119.38 E.01371
;WIDTH:0.521461
G1 X124.761 Y119.767 E.02504
G1 X111.086 Y127.663 E.62676
G1 X110.866 Y127.774 E.00976
;WIDTH:0.513581
G1 X110.374 Y127.93 E.02016
;WIDTH:0.503378
G1 X109.857 Y127.961 E.0198
;WIDTH:0.509069
G1 X109.506 Y127.905 E.01373
;WIDTH:0.521455
G1 X108.914 Y127.663 E.02539
G1 X95.262 Y119.781 E.62568
G1 X95.063 Y119.635 E.0098
;WIDTH:0.505662
G1 X94.659 Y119.289 E.02041
;WIDTH:0.503387
G1 X94.374 Y118.856 E.0198
;WIDTH:0.509072
G1 X94.247 Y118.525 E.01373
;WIDTH:0.52146
G1 X94.161 Y117.9 E.02504
G1 X94.161 Y102.109 E.62676
G1 X94.175 Y101.863 E.00976
;WIDTH:0.513584
G1 X94.285 Y101.359 E.02016
;WIDTH:0.503382
G1 X94.517 Y100.895 E.0198
;WIDTH:0.509067
G1 X94.741 Y100.62 E.01373
;WIDTH:0.521455
G1 X95.239 Y100.233 E.02504
G1 X109.102 Y92.242 E.63511
;WIDTH:0.514242
M73 P8 R6
G1 X109.506 Y92.094 E.01681
;WIDTH:0.506958
G1 X109.948 Y92.044 E.01713
;WIDTH:0.509528
G1 X110.511 Y92.1 E.02188
;WIDTH:0.521455
G1 X111.078 Y92.333 E.02434
G1 X124.753 Y100.228 E.62676
G1 X124.959 Y100.363 E.00976
;WIDTH:0.513581
G1 X125.301 Y100.673 E.01801
G10 ; retract
G1 Z1.2 F9000
G1 X110.061 Y92.51 Z1.2
G1 Z.8
G11 ; unretract
;WIDTH:0.509528
G1 F1500
G1 X110.362 Y92.542 E.01171
;WIDTH:0.521455
G1 X110.847 Y92.752 E.02094
G1 X124.514 Y100.643 E.6264
G1 X124.951 Y100.969 E.02164
;WIDTH:0.509065
G1 X125.084 Y101.126 E.00795
;WIDTH:0.503374
G1 X125.28 Y101.494 E.01591
;WIDTH:0.514241
G1 X125.357 Y101.916 E.01679
;WIDTH:0.521459
G1 X125.361 Y117.891 E.63406
G1 X125.3 Y118.415 E.02093
;WIDTH:0.509515
G1 X125.075 Y118.889 E.0203
;WIDTH:0.514762
G1 X124.713 Y119.234 E.01958
;WIDTH:0.521461
G1 X110.847 Y127.248 E.63569
G1 X110.346 Y127.463 E.02164
;WIDTH:0.50907
G1 X110.143 Y127.501 E.00795
;WIDTH:0.503377
G1 X109.727 Y127.486 E.01591
;WIDTH:0.514241
G1 X109.322 Y127.342 E.01679
;WIDTH:0.521455
G1 X95.323 Y119.254 E.64171
;WIDTH:0.505662
G1 X94.943 Y118.918 E.01946
;WIDTH:0.501507
G1 X94.72 Y118.506 E.0178
;WIDTH:0.514243
G1 X94.643 Y118.084 E.01679
;WIDTH:0.52146
G1 X94.639 Y102.109 E.63406
M73 P9 R6
G1 X94.703 Y101.568 E.02164
;WIDTH:0.509071
G1 X94.772 Y101.374 E.00795
;WIDTH:0.50338
G1 X94.993 Y101.021 E.01591
;WIDTH:0.514243
G1 X95.321 Y100.742 E.01679
;WIDTH:0.521455
G1 X109.153 Y92.752 E.63406
G1 X109.62 Y92.543 E.02029
;WIDTH:0.506958
G1 X109.924 Y92.495 E.01183
;WIDTH:0.509528
G1 X110.022 Y92.505 E.00381
; stop printing object ML4_-_base_stabilizer_clip-on_v23_-_ring.stl id:0 copy 0
;LAYER_CHANGE
;Z:1
;HEIGHT:0.2
;BEFORE_LAYER_CHANGE
;1
G92 E0

G10 ; retract
EXCLUDE_OBJECT_END NAME=ML4_-_base_stabilizer_clip-on_v23_-_ring.stl_id_0_copy_0
;_SET_FAN_SPEED_CHANGING_LAYER
; printing object ML4_-_base_stabilizer_clip-on_v23_-_ring.stl id:0 copy 0
EXCLUDE_OBJECT_START NAME=ML4_-_base_stabilizer_clip-on_v23_-_ring.stl_id_0_copy_0
G1 Z1.2 F9000
G1 X125.325 Y100.695 Z1.2
G1 Z1
G11 ; unretract
;WIDTH:0.513583
G1 F1500
G1 X125.333 Y100.702 E.00042
;WIDTH:0.503373
G1 X125.626 Y101.144 E.02024
;WIDTH:0.509071
G1 X125.753 Y101.475 E.01373
;WIDTH:0.521459
G1 X125.839 Y102.109 E.02539
G1 X125.839 Y117.891 E.62641
G1 X125.825 Y118.137 E.00979
;WIDTH:0.51356
G1 X125.719 Y118.63 E.01969
;WIDTH:0.503374
G1 X125.483 Y119.105 E.02023
;WIDTH:0.509072
G1 X125.259 Y119.38 E.01373
;WIDTH:0.521461
G1 X124.761 Y119.767 E.02504
G1 X111.086 Y127.663 E.62676
G1 X110.866 Y127.774 E.00976
;WIDTH:0.513581
G1 X110.374 Y127.93 E.02016
;WIDTH:0.503379
G1 X109.857 Y127.961 E.0198
;WIDTH:0.50907
