; generated by PrusaSlicer 2.7.1 on 2024-01-01 at 10:05:02 UTC
;FLAVOR:Marlin
;TIME:12566
;Filament used: 24.100460
;Layer height: 0.20
;MINX:0.000
;MINY:0.000
;MINZ:0.000
;MAXX:0.000
;MAXY:0.000
;MAXZ:0.000
;POSTPROCESSED
;Header generated for The Ender3v2 Professional Firmware
;https://github.com/mriscoc/Marlin_Ender3v2



;
;

;
;
; 

; external perimeters extrusion width = 0.42mm
; perimeters extrusion width = 0.44mm
; infill extrusion width = 0.44mm
; solid infill extrusion width = 0.44mm
; top infill extrusion width = 0.40mm
; first layer extrusion width = 0.42mm

M73 P0 R209

EXCLUDE_OBJECT_DEFINE NAME=6er_tray_bierkisten_stl CENTER=109.997,110.006 POLYGON=[[172.640,27.421],[174.056,27.679],[175.064,28.068],[176.008,28.592],[177.113,29.514],[178.006,30.643],[178.361,31.270],[178.869,32.617],[179.091,34.040],[179.100,185.600],[178.952,187.032],[178.768,187.729],[178.514,188.403],[177.805,189.656],[176.855,190.737],[176.301,191.199],[175.067,191.940],[173.708,192.413],[172.100,192.600],[47.900,192.600],[46.645,192.487],[45.263,192.084],[44.610,191.779],[43.416,190.975],[42.411,189.944],[41.639,188.730],[41.131,187.383],[40.983,186.677],[40.900,185.600],[40.900,34.400],[40.993,33.324],[41.232,32.271],[41.486,31.597],[42.195,30.344],[43.145,29.263],[43.699,28.801],[44.615,28.229],[45.600,27.789],[46.292,27.587],[47.720,27.402]]

M190 S60 ; set bed temperature and wait for it to be reached
M104 S215 ; set temperature
;TYPE:Custom
M117 ;fix for KAMP meshing
START_PRINT BED_TEMP=60 EXTRUDER_TEMP=215
M109 S215 ; set temperature and wait for it to be reached
G21 ; set units to millimeters
G90 ; use absolute coordinates
M83 ; use relative distances for extrusion
; Filament gcode
M107
;LAYER_CHANGE
;Z:0.2
;HEIGHT:0.2
;BEFORE_LAYER_CHANGE
G92 E0
;0.2


G10 ; retract
G1 Z.2 F15000
;AFTER_LAYER_CHANGE
;0.2
G1 X39.547 Y28.248
G11 ; unretract
M204 S500
;TYPE:Skirt/Brim
;WIDTH:0.42
G1 F2400
G1 X40.224 Y27.422 E.03349
G1 X40.993 Y26.66 E.03394
G1 X42.411 Y25.597 E.05557
G1 X43.345 Y25.079 E.03349
G1 X44.477 Y24.604 E.03849
G1 X45.348 Y24.345 E.02849
G1 X46.396 Y24.136 E.03351
G1 X47.676 Y24.026 E.04028
G1 X172.23 Y24.025 E3.9053
G1 X174.131 Y24.227 E.05994
G1 X176.022 Y24.794 E.0619
G1 X177.734 Y25.69 E.06059
G1 X178.606 Y26.32 E.03373
G1 X179.407 Y27.036 E.03369
G1 X180.126 Y27.827 E.03352
G1 X180.759 Y28.686 E.03346
G1 X181.456 Y29.918 E.04438
G1 X181.867 Y30.904 E.03349
G1 X182.363 Y32.875 E.06373
G1 X182.467 Y33.952 E.03393
G1 X182.477 Y185.6 E4.75482
G1 X182.289 Y187.552 E.06149
G1 X181.928 Y188.92 E.04436
G1 X181.213 Y190.558 E.05604
G1 X180.453 Y191.752 E.04438
G1 X179.273 Y193.094 E.05603
G1 X178.465 Y193.792 E.03348
G1 X177.589 Y194.403 E.03349
G1 X176.654 Y194.921 E.03351
G1 X175.685 Y195.334 E.03303
G1 X174.658 Y195.653 E.03372
G1 X173.604 Y195.864 E.0337
G1 X172.323 Y195.974 E.04031
G1 X47.9 Y195.977 E3.9012
G1 X45.87 Y195.773 E.06397
G1 X44.153 Y195.274 E.05606
G1 X42.871 Y194.674 E.04438
G1 X41.389 Y193.677 E.056
G1 X40.365 Y192.73 E.04373
G1 X39.659 Y191.901 E.03414
G1 X39.055 Y191.02 E.03349
G1 X38.544 Y190.082 E.03349
G1 X38.186 Y189.247 E.02849
G1 X37.822 Y188.059 E.03896
G1 X37.624 Y187.025 E.03301
G1 X37.523 Y185.607 E.04457
G1 X37.523 Y34.4 E4.74099
G1 X37.709 Y32.463 E.06101
G1 X38.02 Y31.231 E.03984
G1 X38.787 Y29.442 E.06103
G1 X39.515 Y28.299 E.04249
EXCLUDE_OBJECT_START NAME=6er_tray_bierkisten_stl
G10 ; retract
G1 X39.515 Y28.299 Z.6 F15000
G1 X43.063 Y30.961
G1 Z.2
G11 ; unretract
;TYPE:Perimeter
;WIDTH:0.419999
G1 F2400
G1 X43.442 Y30.482 E.01915
G1 X43.869 Y30.045 E.01916
G1 X44.338 Y29.653 E.01917
G1 X44.845 Y29.312 E.01916
G1 X45.384 Y29.025 E.01915
G1 X45.95 Y28.795 E.01916
G1 X46.537 Y28.624 E.01917
G1 X47.138 Y28.515 E.01915
G1 X47.762 Y28.466 E.01963
G1 X172.282 Y28.472 E3.90423
G1 X172.861 Y28.522 E.01822
G1 X173.461 Y28.632 E.01913
G1 X174.047 Y28.802 E.01913
G1 X174.612 Y29.032 E.01913
G1 X175.151 Y29.319 E.01915
G1 X175.657 Y29.66 E.01913
G1 X176.126 Y30.051 E.01915
G1 X176.552 Y30.488 E.01913
G1 X176.93 Y30.966 E.01911
G1 X177.258 Y31.481 E.01914
G1 X177.531 Y32.027 E.01914
G1 X177.746 Y32.598 E.01913
G1 X177.901 Y33.188 E.01913
G1 X177.995 Y33.792 E.01917
G1 X178.027 Y34.401 E.01912
G1 X178.036 Y185.573 E4.73988
G1 X178.003 Y186.21 E.02
G1 X177.909 Y186.814 E.01917
G1 X177.753 Y187.405 E.01917
G1 X177.538 Y187.976 E.01913
G1 X177.265 Y188.523 E.01917
G1 X176.937 Y189.039 E.01917
G1 X176.558 Y189.518 E.01915
G1 X176.131 Y189.955 E.01916
G1 X175.662 Y190.347 E.01917
G1 X175.155 Y190.688 E.01916
G1 X174.616 Y190.975 E.01915
G1 X174.05 Y191.205 E.01916
G1 X173.463 Y191.376 E.01917
G1 X172.868 Y191.484 E.01896
G1 X172.068 Y191.536 E.02514
G1 X48.038 Y191.536 E3.88887
G1 X47.718 Y191.528 E.01004
M73 P0 R208
G1 X47.139 Y191.477 E.01822
G1 X46.539 Y191.368 E.01912
G1 X45.953 Y191.198 E.01913
G1 X45.388 Y190.968 E.01913
G1 X44.848 Y190.681 E.01917
G1 X44.343 Y190.341 E.01909
G1 X43.874 Y189.949 E.01917
G1 X43.448 Y189.513 E.01911
G1 X43.07 Y189.034 E.01913
G1 X42.742 Y188.519 E.01914
G1 X42.469 Y187.973 E.01914
G1 X42.254 Y187.402 E.01913
G1 X42.099 Y186.812 E.01913
G1 X41.996 Y186.12 E.02194
G1 X41.964 Y185.586 E.01677
G1 X41.964 Y34.427 E4.73948
G1 X41.997 Y33.79 E.02
G1 X42.091 Y33.186 E.01917
G1 X42.246 Y32.596 E.01913
G1 X42.466 Y32.016 E.01945
G1 X42.735 Y31.477 E.01889
G1 X43.031 Y31.012 E.01728
G1 X42.756 Y30.743 F15000
G1 F2400
G1 X43.159 Y30.233 E.02038
G1 X43.612 Y29.768 E.02035
G1 X44.111 Y29.351 E.02039
G1 X44.651 Y28.989 E.02038
G1 X45.224 Y28.683 E.02037
G1 X45.826 Y28.438 E.02038
G1 X46.45 Y28.257 E.02037
G1 X47.09 Y28.14 E.0204
G1 X47.747 Y28.089 E.02066
G1 X172.296 Y28.095 E3.90514
G1 X172.909 Y28.149 E.01929
G1 X173.548 Y28.265 E.02036
G1 X174.171 Y28.446 E.02034
G1 X174.772 Y28.691 E.02035
G1 X175.345 Y28.996 E.02035
G1 X175.884 Y29.358 E.02036
G1 X176.382 Y29.774 E.02035
G1 X176.835 Y30.239 E.02035
G1 X177.238 Y30.748 E.02036
G1 X177.586 Y31.295 E.02033
G1 X177.876 Y31.876 E.02036
G1 X178.105 Y32.483 E.02034
G1 X178.27 Y33.111 E.02036
G1 X178.37 Y33.753 E.02037
G1 X178.404 Y34.401 E.02035
G1 X178.413 Y185.582 E4.74017
G1 X178.379 Y186.249 E.02094
G1 X178.279 Y186.891 E.02037
G1 X178.113 Y187.52 E.0204
G1 X177.884 Y188.128 E.02037
G1 X177.593 Y188.709 E.02037
G1 X177.244 Y189.257 E.02037
G1 X176.841 Y189.767 E.02038
G1 X176.388 Y190.232 E.02035
G1 X175.889 Y190.649 E.02039
G1 X175.349 Y191.011 E.02038
G1 X174.776 Y191.317 E.02037
G1 X174.174 Y191.562 E.02038
G1 X173.55 Y191.743 E.02037
G1 X172.914 Y191.859 E.02027
G1 X172.08 Y191.913 E.0262
G1 X48.038 Y191.913 E3.88924
G1 X47.703 Y191.905 E.01051
G1 X47.09 Y191.851 E.01929
G1 X46.452 Y191.735 E.02033
G1 X45.829 Y191.554 E.02034
G1 X45.228 Y191.309 E.02035
G1 X44.654 Y191.004 E.02038
G1 X44.117 Y190.642 E.02031
G1 X43.618 Y190.226 E.02037
G1 X43.165 Y189.761 E.02035
G1 X42.762 Y189.252 E.02036
G1 X42.414 Y188.705 E.02033
G1 X42.124 Y188.124 E.02036
G1 X41.895 Y187.517 E.02034
G1 X41.73 Y186.889 E.02036
G1 X41.621 Y186.159 E.02314
G1 X41.587 Y185.591 E.01784
G1 X41.587 Y34.418 E4.73992
G1 X41.621 Y33.751 E.02094
G1 X41.721 Y33.109 E.02037
G1 X41.887 Y32.481 E.02037
G1 X42.12 Y31.864 E.02068
G1 X42.407 Y31.291 E.02009
G1 X42.723 Y30.793 E.01849
G1 X42.448 Y30.524 F15000
;TYPE:External perimeter
G1 F1920
G1 X42.875 Y29.984 E.02159
G1 X43.356 Y29.491 E.0216
G1 X43.885 Y29.049 E.02161
G1 X44.456 Y28.665 E.02158
G1 X45.064 Y28.341 E.0216
G1 X45.702 Y28.082 E.02159
G1 X46.363 Y27.889 E.02159
G1 X47.041 Y27.766 E.02161
G1 X47.732 Y27.712 E.02173
G1 X172.311 Y27.718 E3.90608
G1 X172.958 Y27.775 E.02036
G1 X173.635 Y27.898 E.02157
G1 X174.295 Y28.09 E.02155
G1 X174.932 Y28.349 E.02156
G1 X175.539 Y28.673 E.02157
G1 X176.11 Y29.057 E.02158
G1 X176.638 Y29.497 E.02155
G1 X177.118 Y29.99 E.02157
G1 X177.545 Y30.529 E.02156
G1 X177.914 Y31.109 E.02155
G1 X178.222 Y31.725 E.02159
G1 X178.464 Y32.368 E.02154
G1 X178.639 Y33.034 E.02159
G1 X178.745 Y33.715 E.02161
G1 X178.781 Y34.401 E.02154
G1 X178.79 Y185.592 E4.74048
G1 X178.754 Y186.288 E.02185
G1 X178.648 Y186.968 E.02158
G1 X178.473 Y187.634 E.02159
G1 X178.23 Y188.279 E.02161
G1 X177.922 Y188.895 E.02159
G1 X177.552 Y189.476 E.0216
G1 X177.125 Y190.016 E.02159
G1 X176.644 Y190.509 E.0216
G1 X176.115 Y190.951 E.02161
G1 X175.544 Y191.335 E.02158
G1 X174.936 Y191.659 E.0216
G1 X174.298 Y191.918 E.02159
G1 X173.636 Y192.111 E.02162
G1 X172.96 Y192.234 E.02154
G1 X172.093 Y192.29 E.02724
G1 X48.038 Y192.29 E3.88965
G1 X47.689 Y192.282 E.01095
G1 X47.042 Y192.225 E.02036
G1 X46.366 Y192.102 E.02154
G1 X45.705 Y191.91 E.02158
G1 X45.068 Y191.651 E.02156
G1 X44.46 Y191.327 E.0216
G1 X43.891 Y190.944 E.02151
G1 X43.362 Y190.503 E.02159
G1 X42.882 Y190.01 E.02157
G1 X42.455 Y189.471 E.02156
G1 X42.086 Y188.891 E.02155
G1 X41.778 Y188.275 E.02159
G1 X41.536 Y187.632 E.02154
G1 X41.361 Y186.966 E.02159
G1 X41.245 Y186.198 E.02435
G1 X41.21 Y185.596 E.01891
G1 X41.21 Y34.408 E4.74039
G1 X41.246 Y33.712 E.02185
G1 X41.352 Y33.032 E.02158
G1 X41.527 Y32.366 E.02159
G1 X41.774 Y31.713 E.02189
G1 X42.078 Y31.105 E.02131
G1 X42.416 Y30.575 E.01971
G1 X42.66 Y30.258 F15000
G10 ; retract
G1 Z.6
G1 X177.56 Y32.413
G1 Z.2
G11 ; unretract
;TYPE:Solid infill
;WIDTH:0.420253
G1 F1920
G1 X174.401 Y29.254 E.14017
G1 X174.226 Y29.172 E.00606
G1 X173.569 Y28.956 E.0217
G1 X177.549 Y32.935 E.17658
G1 X177.684 Y33.604 E.02141
G1 X172.9 Y28.82 E.21227
G1 X172.31 Y28.764 E.01859
G1 X177.736 Y34.19 E.24076
G1 X177.736 Y34.724 E.01675
G1 X171.772 Y28.759 E.26465
G1 X171.238 Y28.759 E.01675
G1 X177.736 Y35.257 E.28833
G1 X177.736 Y35.791 E.01675
G1 X170.705 Y28.759 E.312
G1 X170.171 Y28.759 E.01675
G1 X177.736 Y36.325 E.33569
G1 X177.736 Y36.858 E.01672
G1 X169.637 Y28.759 E.35936
G1 X169.104 Y28.759 E.01672
G1 X177.737 Y37.392 E.38306
G1 X177.737 Y37.926 E.01675
G1 X168.57 Y28.759 E.40675
G1 X168.036 Y28.759 E.01675
G1 X177.737 Y38.459 E.43043
G1 X177.737 Y38.993 E.01675
G1 X167.503 Y28.759 E.4541
G1 X166.969 Y28.759 E.01675
G1 X177.737 Y39.527 E.47779
G1 X177.737 Y40.06 E.01672
G1 X166.436 Y28.759 E.50144
G1 X165.902 Y28.759 E.01675
G1 X177.737 Y40.594 E.52514
G1 X177.737 Y41.128 E.01675
G1 X165.368 Y28.759 E.54883
G1 X164.835 Y28.759 E.01672
G1 X177.737 Y41.661 E.57248
G1 X177.737 Y42.195 E.01675
G1 X164.301 Y28.759 E.59618
G1 X163.767 Y28.759 E.01675
G1 X177.737 Y42.729 E.61987
G1 X177.737 Y43.262 E.01672
G1 X163.234 Y28.759 E.64352
G1 X162.7 Y28.759 E.01675
G1 X177.737 Y43.796 E.66721
G1 X177.737 Y44.33 E.01675
G1 X162.166 Y28.759 E.69091
G1 X161.633 Y28.759 E.01672
G1 X177.737 Y44.863 E.71456
G1 X177.737 Y45.397 E.01675
G1 X161.099 Y28.759 E.73825
G1 X160.565 Y28.759 E.01675
G1 X177.737 Y45.931 E.76195
G1 X177.737 Y46.464 E.01672
G1 X160.032 Y28.759 E.7856
G1 X159.498 Y28.759 E.01675
G1 X177.737 Y46.998 E.80929
G1 X177.737 Y47.532 E.01675
G1 X158.965 Y28.759 E.83296
G1 X158.431 Y28.759 E.01675
G1 X177.737 Y48.065 E.85664
G1 X177.737 Y48.599 E.01675
G1 X157.897 Y28.759 E.88033
G1 X157.364 Y28.759 E.01672
G1 X177.737 Y49.133 E.904
G1 X177.737 Y49.666 E.01672
G1 X156.83 Y28.759 E.92767
G1 X156.296 Y28.759 E.01675
G1 X177.737 Y50.2 E.95137
G1 X177.737 Y50.734 E.01675
G1 X155.763 Y28.759 E.97504
G1 X155.229 Y28.759 E.01675
M73 P0 R207
G1 X177.737 Y51.267 E.99871
G1 X177.737 Y51.801 E.01675
G1 X154.695 Y28.759 E1.02241
G1 X154.162 Y28.759 E.01672
G1 X177.737 Y52.335 E1.04608
G1 X177.737 Y52.868 E.01672
G1 X153.628 Y28.759 E1.06975
G1 X153.095 Y28.759 E.01672
G1 X177.737 Y53.402 E1.09342
G1 X177.738 Y53.935 E.01672
G1 X152.561 Y28.759 E1.11712
G1 X152.027 Y28.759 E.01675
G1 X177.738 Y54.469 E1.14081
G1 X177.738 Y55.003 E.01675
G1 X151.494 Y28.759 E1.16448
G1 X150.96 Y28.759 E.01675
G1 X177.738 Y55.536 E1.18816
G1 X177.738 Y56.07 E.01675
G1 X150.426 Y28.759 E1.21185
G1 X149.893 Y28.759 E.01672
G1 X177.738 Y56.604 E1.23552
G1 X177.738 Y57.137 E.01672
G1 X149.359 Y28.759 E1.2592
G1 X148.825 Y28.759 E.01675
G1 X177.738 Y57.671 E1.28289
G1 X177.738 Y58.205 E.01675
G1 X148.292 Y28.759 E1.30656
G1 X147.758 Y28.759 E.01675
G1 X177.738 Y58.738 E1.33023
G1 X177.738 Y59.272 E.01675
G1 X147.224 Y28.759 E1.35393
G1 X146.691 Y28.759 E.01672
G1 X177.738 Y59.806 E1.3776
G1 X177.738 Y60.339 E.01672
G1 X146.157 Y28.759 E1.40127
G1 X145.624 Y28.759 E.01672
G1 X177.738 Y60.873 E1.42495
G1 X177.738 Y61.407 E.01675
G1 X145.09 Y28.759 E1.44864
G1 X144.556 Y28.759 E.01675
G1 X177.738 Y61.94 E1.47231
G1 X177.738 Y62.474 E.01675
G1 X144.023 Y28.759 E1.49598
G1 X143.489 Y28.759 E.01675
G1 X177.738 Y63.008 E1.51968
G1 X177.738 Y63.541 E.01672
G1 X142.955 Y28.759 E1.54335
G1 X142.422 Y28.759 E.01672
G1 X177.738 Y64.075 E1.56702
G1 X177.738 Y64.609 E.01675
G1 X141.888 Y28.759 E1.59072
G1 X141.354 Y28.759 E.01675
G1 X177.738 Y65.142 E1.61439
G1 X177.738 Y65.676 E.01675
G1 X140.821 Y28.759 E1.63806
G1 X140.287 Y28.759 E.01675
M73 P1 R207
G1 X177.738 Y66.21 E1.66176
G1 X177.738 Y66.743 E.01672
G1 X139.754 Y28.759 E1.68541
G1 X139.22 Y28.759 E.01675
G1 X177.738 Y67.277 E1.7091
G1 X177.738 Y67.811 E.01675
G1 X138.686 Y28.759 E1.73279
G1 X138.153 Y28.759 E.01672
G1 X177.738 Y68.344 E1.75644
G1 X177.738 Y68.878 E.01675
G1 X137.619 Y28.759 E1.78014
G1 X137.085 Y28.759 E.01675
G1 X177.738 Y69.412 E1.80383
G1 X177.738 Y69.945 E.01672
G1 X136.552 Y28.759 E1.82748
G1 X136.018 Y28.759 E.01675
G1 X177.739 Y70.479 E1.8512
G1 X177.739 Y71.013 E.01675
G1 X135.484 Y28.759 E1.87489
G1 X134.951 Y28.758 E.01672
G1 X177.739 Y71.546 E1.89857
G1 X177.739 Y72.08 E.01675
G1 X134.417 Y28.758 E1.92226
G1 X133.883 Y28.758 E.01675
M73 P1 R206
G1 X177.739 Y72.614 E1.94596
G1 X177.739 Y73.147 E.01672
G1 X133.35 Y28.758 E1.96961
G1 X132.816 Y28.758 E.01675
G1 X177.739 Y73.681 E1.9933
G1 X177.739 Y74.215 E.01675
G1 X132.283 Y28.758 E2.01697
G1 X131.749 Y28.758 E.01675
G1 X177.739 Y74.748 E2.04064
G1 X177.739 Y75.282 E.01675
G1 X131.215 Y28.758 E2.06434
G1 X130.682 Y28.758 E.01672
G1 X177.739 Y75.816 E2.08801
G1 X177.739 Y76.349 E.01672
G1 X130.148 Y28.758 E2.11168
G1 X129.614 Y28.758 E.01675
G1 X177.739 Y76.883 E2.13538
G1 X177.739 Y77.417 E.01675
G1 X129.081 Y28.758 E2.15905
G1 X128.547 Y28.758 E.01675
G1 X177.739 Y77.95 E2.18272
G1 X177.739 Y78.484 E.01675
G1 X128.013 Y28.758 E2.20642
G1 X127.48 Y28.758 E.01672
G1 X177.739 Y79.018 E2.23009
G1 X177.739 Y79.551 E.01672
G1 X126.946 Y28.758 E2.25376
G1 X126.413 Y28.758 E.01672
G1 X177.739 Y80.085 E2.27743
G1 X177.739 Y80.619 E.01675
G1 X125.879 Y28.758 E2.30113
G1 X125.345 Y28.758 E.01675
G1 X177.739 Y81.152 E2.3248
G1 X177.739 Y81.686 E.01675
G1 X124.812 Y28.758 E2.34847
G1 X124.278 Y28.758 E.01675
G1 X177.739 Y82.22 E2.37217
G1 X177.739 Y82.753 E.01672
G1 X123.744 Y28.758 E2.39584
G1 X123.211 Y28.758 E.01672
G1 X177.739 Y83.287 E2.41951
G1 X177.739 Y83.821 E.01675
G1 X122.677 Y28.758 E2.4432
G1 X122.143 Y28.758 E.01675
G1 X177.739 Y84.354 E2.46688
G1 X177.739 Y84.888 E.01675
G1 X121.61 Y28.758 E2.49055
G1 X121.076 Y28.758 E.01675
G1 X177.739 Y85.422 E2.51424
G1 X177.739 Y85.955 E.01672
G1 X120.542 Y28.758 E2.53791
G1 X120.009 Y28.758 E.01672
M73 P1 R205
G1 X177.74 Y86.489 E2.56161
G1 X177.74 Y87.023 E.01675
G1 X119.475 Y28.758 E2.5853
G1 X118.942 Y28.758 E.01672
G1 X177.74 Y87.556 E2.60895
G1 X177.74 Y88.09 E.01675
G1 X118.408 Y28.758 E2.63265
G1 X117.874 Y28.758 E.01675
G1 X177.74 Y88.624 E2.65634
G1 X177.74 Y89.157 E.01672
G1 X117.341 Y28.758 E2.67999
G1 X116.807 Y28.758 E.01675
G1 X177.74 Y89.691 E2.70369
G1 X177.74 Y90.224 E.01672
G1 X116.273 Y28.758 E2.72736
G1 X115.74 Y28.758 E.01672
G1 X177.74 Y90.758 E2.75103
G1 X177.74 Y91.292 E.01675
G1 X115.206 Y28.758 E2.77473
G1 X114.672 Y28.758 E.01675
G1 X177.74 Y91.825 E2.7984
G1 X177.74 Y92.359 E.01675
G1 X114.139 Y28.758 E2.82207
G1 X113.605 Y28.758 E.01675
G1 X177.74 Y92.893 E2.84576
G1 X177.74 Y93.426 E.01672
G1 X113.072 Y28.758 E2.86941
G1 X112.538 Y28.758 E.01675
G1 X177.74 Y93.96 E2.89311
G1 X177.74 Y94.494 E.01675
G1 X112.004 Y28.758 E2.9168
G1 X111.471 Y28.758 E.01672
M73 P2 R205
G1 X177.74 Y95.027 E2.94045
G1 X177.74 Y95.561 E.01675
G1 X110.937 Y28.758 E2.96415
G1 X110.403 Y28.758 E.01675
G1 X177.74 Y96.095 E2.98784
G1 X177.74 Y96.628 E.01672
