; HEADER_BLOCK_START
; generated by OrcaSlicer 1.9.0 on 2024-02-16 at 17:16:08
; total layer number: 54
; filament_density: 1.24
; filament_diameter: 1.75
; max_z_height: 10.80
; HEADER_BLOCK_END

; THUMBNAIL_BLOCK_START

;
; THUMBNAIL_BLOCK_END

; THUMBNAIL_BLOCK_START

;
; THUMBNAIL_BLOCK_END

; external perimeters extrusion width = 0.40mm
; perimeters extrusion width = 0.45mm
; infill extrusion width = 0.45mm
; solid infill extrusion width = 0.40mm
; top infill extrusion width = 0.40mm
; support material extrusion width = 0.40mm
; first layer extrusion width = 0.50mm

; external perimeters extrusion width = 0.40mm
; perimeters extrusion width = 0.45mm
; infill extrusion width = 0.45mm
; solid infill extrusion width = 0.40mm
; top infill extrusion width = 0.40mm
; support material extrusion width = 0.40mm
; first layer extrusion width = 0.50mm

; EXECUTABLE_BLOCK_START
EXCLUDE_OBJECT_DEFINE NAME=Left_Bracket.stl_id_0_copy_0 CENTER=87.5416,108.564 POLYGON=[[77.1416,49.364],[89.9416,36.564],[97.9416,28.564],[97.9416,188.564],[83.5416,188.564],[77.1416,182.164],[77.1416,49.364]]
EXCLUDE_OBJECT_DEFINE NAME=Right_Bracket.stl_id_1_copy_0 CENTER=125,115 POLYGON=[[114.6,35],[122.6,43],[135.4,55.8],[135.4,188.6],[129,195],[114.6,195],[114.6,35]]
M73 P0 R166
;TYPE:Custom
M117 ; clear display for KAMP meshing
START_PRINT BED_TEMP=60 EXTRUDER_TEMP=220
G90
G21
M83 ; use relative distances for extrusion
; filament start gcode
M106 S0
;LAYER_CHANGE
;Z:0.2
;HEIGHT:0.2
;BEFORE_LAYER_CHANGE
;0.2
G92 E0

G10 ; retract
;_SET_FAN_SPEED_CHANGING_LAYER
SET_VELOCITY_LIMIT ACCEL=500 ACCEL_TO_DECEL=250
G1 Z.4 F9000
G1 X82.606 Y40.88
G1 Z.2
G11 ; unretract
;TYPE:Skirt
;WIDTH:0.5
G1 F3000
G1 X83.238 Y39.793 E.04682
G1 X96.184 Y26.847 E.68193
G1 X97.402 Y26.183 E.05169
G1 X98.805 Y26.292 E.0524
G1 X115.504 Y32.728 E.66658
G1 X116.358 Y33.283 E.03792
G1 X129.304 Y46.229 E.68195
G1 X129.94 Y47.329 E.04732
G1 X141.898 Y91.844 E1.71678
G1 X142.736 Y96.189 E.16483
G1 X142.865 Y97.621 E.05356
G1 X142.446 Y150.291 E1.96181
G1 X142.349 Y151.446 E.04318
G1 X129.932 Y195.667 E1.71074
G1 X129.193 Y196.842 E.05169
G1 X127.567 Y197.457 E.06478
G1 X114.621 Y197.457 E.48218
G1 X114.1 Y197.401 E.01953
G1 X84.454 Y190.965 E1.12992
G1 X74.551 Y187.628 E.38921
G1 X73.169 Y186.96 E.05716
G1 X71.97 Y186.079 E.05544
G1 X70.823 Y184.752 E.06532
G1 X70.227 Y183.74 E.04376
G1 X69.885 Y182.965 E.03152
G1 X69.597 Y181.902 E.04105
G1 X69.489 Y180.577 E.0495
G1 X69.465 Y145.936 E1.29023
G1 X70.146 Y86.853 E2.20078
G1 X70.357 Y85.5 E.05102
G1 X82.595 Y40.918 E1.72191
; printing object Left Bracket.stl id:0 copy 0
G10 ; retract
EXCLUDE_OBJECT_START NAME=Left_Bracket.stl_id_0_copy_0
G1 Z.6 F9000
G1 X78.261 Y82.074 Z.6
G1 Z.2
G11 ; unretract
;TYPE:Support
G1 F900
G1 X78.623 Y82.09 E.0135
G1 X79.553 Y82.303 E.03551
G1 X80.429 Y82.678 E.03549
G1 X80.546 Y82.755 E.00522
G1 X81.501 Y82.751 E.03558
G1 X82.467 Y82.942 E.03668
G1 X82.973 Y83.143 E.02029
G1 X83.589 Y82.898 E.0247
G1 X84.375 Y82.778 E.02961
G1 X84.375 Y84.339 E.05812
G1 X84.636 Y84.667 E.0156
G1 X84.993 Y84.749 E.01368
G1 X85.541 Y84.92 E.02136
G1 X86.05 Y85.135 E.0206
G1 X86.559 Y85.412 E.02159
G1 X87.018 Y85.722 E.02061
G1 X87.454 Y86.083 E.0211
G1 X87.853 Y86.485 E.02109
G1 X88.211 Y86.924 E.02109
G1 X88.524 Y87.396 E.02109
G1 X88.789 Y87.896 E.02107
G1 X89.009 Y88.432 E.02158
G1 X89.169 Y88.962 E.02062
G1 X89.279 Y89.517 E.02109
G1 X89.334 Y90.081 E.02109
G1 X89.334 Y90.647 E.02109
G1 X89.279 Y91.211 E.02109
G1 X89.171 Y91.754 E.02062
G1 X89.005 Y92.309 E.02158
G1 X88.79 Y92.832 E.02107
G1 X88.524 Y93.332 E.02109
G1 X88.211 Y93.804 E.02109
G1 X87.861 Y94.233 E.02062
G1 X87.454 Y94.645 E.02158
G1 X87.018 Y95.006 E.02107
G1 X86.549 Y95.323 E.02109
G1 X86.051 Y95.592 E.0211
G1 X85.541 Y95.808 E.02062
G1 X84.993 Y95.979 E.02136
G1 X84.636 Y96.062 E.01368
G1 X84.375 Y96.389 E.0156
G1 X84.375 Y135.139 E1.44326
G1 X84.636 Y135.467 E.0156
G1 X84.993 Y135.549 E.01368
G1 X85.541 Y135.72 E.02136
G1 X86.05 Y135.935 E.0206
G1 X86.559 Y136.212 E.02159
G1 X87.018 Y136.522 E.02061
G1 X87.454 Y136.883 E.0211
G1 X87.853 Y137.285 E.02109
G1 X88.211 Y137.724 E.02109
G1 X88.524 Y138.196 E.02109
G1 X88.789 Y138.696 E.02107
G1 X89.009 Y139.232 E.02158
G1 X89.169 Y139.762 E.02062
G1 X89.279 Y140.317 E.02109
G1 X89.334 Y140.881 E.02109
G1 X89.334 Y141.447 E.02109
G1 X89.279 Y142.011 E.02109
G1 X89.171 Y142.554 E.02062
G1 X89.005 Y143.109 E.02158
G1 X88.79 Y143.632 E.02107
G1 X88.524 Y144.132 E.02109
G1 X88.211 Y144.604 E.02109
G1 X87.861 Y145.033 E.02062
G1 X87.454 Y145.445 E.02158
G1 X87.018 Y145.806 E.02107
G1 X86.549 Y146.123 E.02109
G1 X86.051 Y146.392 E.0211
G1 X85.541 Y146.608 E.02062
G1 X84.993 Y146.779 E.02136
G1 X84.636 Y146.862 E.01368
G1 X84.375 Y147.189 E.0156
G1 X84.375 Y148.214 E.03816
G1 X84.113 Y148.341 E.01085
G1 X83.227 Y148.569 E.03408
G1 X82.427 Y148.61 E.02984
G1 X82.585 Y149.172 E.02174
G1 X82.673 Y150.137 E.0361
G1 X82.585 Y151.098 E.03593
G1 X82.309 Y152.079 E.03796
G1 X82.352 Y152.349 E.0102
G1 X82.423 Y152.608 E.00998
G1 X82.512 Y153.568 E.03592
G1 X82.423 Y154.533 E.03609
G1 X82.216 Y155.268 E.02843
G1 X82.445 Y156.081 E.03148
G1 X82.533 Y157.046 E.03609
G1 X82.444 Y158.011 E.0361
G1 X82.187 Y158.924 E.0353
G1 X82.44 Y159.825 E.03488
G1 X82.529 Y160.79 E.0361
G1 X82.441 Y161.755 E.03609
G1 X82.411 Y161.86 E.00406
G1 X82.477 Y162.367 E.01906
G1 X82.543 Y162.608 E.00929
G1 X82.631 Y163.568 E.03592
G1 X82.543 Y164.533 E.0361
G1 X82.394 Y165.065 E.02059
G1 X82.445 Y165.248 E.00707
G1 X82.533 Y166.213 E.03608
G1 X82.444 Y167.178 E.0361
G1 X82.344 Y167.531 E.01366
G1 X82.585 Y168.385 E.03306
G1 X82.674 Y169.35 E.0361
G1 X82.585 Y170.316 E.0361
G1 X82.435 Y170.849 E.02063
G1 X82.464 Y170.952 E.004
G1 X82.553 Y171.916 E.03607
G1 X82.464 Y172.882 E.03609
G1 X82.245 Y173.663 E.03022
G1 X82.32 Y173.816 E.00636
G1 X82.585 Y174.756 E.03636
G1 X82.673 Y175.716 E.03593
G1 X82.584 Y176.681 E.0361
G1 X82.322 Y177.614 E.0361
G1 X82.178 Y177.907 E.01213
G1 X82.477 Y178.717 E.03218
G1 X82.581 Y179.252 E.02028
G1 X82.607 Y180.256 E.03742
G1 X82.55 Y180.667 E.01544
G1 X82.536 Y181.137 E.01753
G1 X82.347 Y182.113 E.03703
G1 X82.162 Y182.606 E.01961
G1 X81.79 Y183.263 E.02811
G1 X81.15 Y184.049 E.03776
G1 X80.391 Y184.709 E.03746
G1 X79.458 Y185.219 E.03962
G1 X78.539 Y185.524 E.03605
G1 X77.629 Y185.659 E.03426
G1 X77.196 Y185.659 E.01614
G1 X76.691 Y185.637 E.01882
G1 X75.8 Y185.462 E.03384
G1 X74.958 Y185.145 E.03349
G1 X74.184 Y184.699 E.03327
G1 X73.497 Y184.154 E.03268
G1 X72.916 Y183.465 E.03356
G1 X72.475 Y182.748 E.03135
G1 X72.133 Y181.974 E.03152
G1 X72.037 Y181.612 E.01394
G1 X71.956 Y180.925 E.02578
G1 X71.947 Y180.574 E.01307
G1 X72.01 Y179.552 E.03814
G1 X72.119 Y178.765 E.02959
G1 X72.306 Y178.113 E.02527
G1 X72.472 Y177.745 E.01501
G1 X72.351 Y177.423 E.01281
G1 X72.194 Y176.871 E.02139
G1 X72.124 Y176.485 E.01462
G1 X72.072 Y175.912 E.02142
G1 X72.072 Y175.521 E.01458
G1 X72.125 Y174.947 E.02146
G1 X72.195 Y174.563 E.01455
G1 X72.363 Y173.971 E.02289
G1 X72.229 Y173.615 E.01417
G1 X72.077 Y173.081 E.02068
G1 X72.003 Y172.675 E.01538
G1 X71.952 Y172.123 E.02065
G1 X71.952 Y171.71 E.01539
G1 X72.004 Y171.158 E.02066
G1 X72.077 Y170.752 E.01537
G1 X72.177 Y170.403 E.01352
G1 X72.125 Y170.119 E.01072
G1 X72.072 Y169.546 E.02145
G1 X72.072 Y169.155 E.01455
G1 X72.126 Y168.581 E.02149
G1 X72.196 Y168.197 E.01452
G1 X72.248 Y168.014 E.00711
G1 X72.057 Y167.376 E.02477
G1 X71.984 Y166.973 E.01528
G1 X71.932 Y166.419 E.02072
G1 X71.932 Y166.007 E.01536
G1 X71.985 Y165.434 E.02142
G1 X72.143 Y164.665 E.02923
G1 X72.082 Y164.329 E.01273
G1 X72.03 Y163.773 E.02082
G1 X72.031 Y163.364 E.0152
G1 X72.082 Y162.807 E.02085
G1 X72.168 Y162.334 E.0179
G1 X72.057 Y161.977 E.01393
G1 X71.979 Y161.549 E.01618
G1 X71.928 Y160.996 E.02071
G1 X71.928 Y160.584 E.01533
G1 X71.98 Y160.03 E.02072
G1 X72.053 Y159.626 E.0153
G1 X72.273 Y158.912 E.02782
G1 X72.057 Y158.21 E.02736
G1 X71.984 Y157.806 E.01528
G1 X71.932 Y157.252 E.02071
G1 X71.932 Y156.84 E.01536
G1 X71.983 Y156.288 E.02065
G1 X72.057 Y155.881 E.01541
G1 X72.21 Y155.343 E.02083
G1 X72.036 Y154.735 E.02356
G1 X71.962 Y154.325 E.01549
G1 X71.911 Y153.776 E.02054
G1 X71.911 Y153.36 E.01551
G1 X71.962 Y152.811 E.02053
G1 X72.036 Y152.401 E.0155
G1 X72.187 Y151.871 E.02055
G1 X72.289 Y151.601 E.01075
G1 X72.199 Y151.314 E.0112
G1 X72.125 Y150.906 E.01543
G1 X72.072 Y150.333 E.02145
G1 X72.072 Y149.941 E.01457
G1 X72.125 Y149.368 E.02145
G1 X72.195 Y148.983 E.01457
G1 X72.353 Y148.429 E.02146
G1 X72.506 Y148.021 E.01623
G1 X72.113 Y147.161 E.03522
G1 X72.02 Y146.808 E.01358
G1 X71.922 Y145.965 E.03163
G1 X71.971 Y144.977 E.03685
G1 X72.011 Y144.791 E.00708
G1 X72.057 Y144.267 E.0196
G1 X72.125 Y143.913 E.01343
G1 X72.333 Y143.181 E.02831
G1 X72.51 Y142.826 E.01477
G1 X72.931 Y142.191 E.02838
G1 X73.243 Y141.819 E.01811
G1 X73.648 Y141.384 E.02212
G1 X73.148 Y140.547 E.03631
G1 X72.813 Y139.653 E.03557
G1 X72.643 Y138.713 E.03557
G1 X72.644 Y137.758 E.03556
G1 X72.815 Y136.819 E.03556
G1 X73.151 Y135.926 E.03555
G1 X73.641 Y135.107 E.03555
G1 X74.269 Y134.388 E.03554
G1 X75.016 Y133.794 E.03554
G1 X75.856 Y133.342 E.03553
G1 X76.763 Y133.048 E.03553
G1 X77.709 Y132.92 E.03553
G1 X78.661 Y132.963 E.03552
G1 X79.591 Y133.176 E.03553
G1 X80.48 Y133.556 E.036
G1 X80.641 Y133.526 E.00611
G1 X81.082 Y133.526 E.01642
G1 X81.021 Y133.262 E.01012
G1 X81.222 Y132.395 E.03314
G1 X81.021 Y131.528 E.03314
G1 X81.222 Y130.662 E.03314
G1 X81.021 Y129.795 E.03314
G1 X81.222 Y128.928 E.03314
G1 X81.021 Y128.062 E.03314
G1 X81.222 Y127.195 E.03314
G1 X81.021 Y126.328 E.03314
G1 X81.222 Y125.462 E.03314
G1 X81.021 Y124.595 E.03314
G1 X81.222 Y123.728 E.03314
G1 X81.021 Y122.862 E.03314
G1 X81.222 Y121.995 E.03314
G1 X81.021 Y121.129 E.03314
G1 X81.222 Y120.262 E.03314
G1 X81.021 Y119.395 E.03314
G1 X81.222 Y118.528 E.03314
G1 X81.021 Y117.662 E.03314
G1 X81.222 Y116.795 E.03314
G1 X81.021 Y115.929 E.03314
G1 X81.222 Y115.062 E.03314
G1 X81.021 Y114.195 E.03314
G1 X81.222 Y113.328 E.03314
G1 X81.021 Y112.462 E.03314
G1 X81.222 Y111.595 E.03314
G1 X81.021 Y110.729 E.03314
G1 X81.222 Y109.862 E.03314
G1 X81.021 Y108.995 E.03314
G1 X81.222 Y108.129 E.03314
G1 X81.021 Y107.262 E.03314
G1 X81.222 Y106.395 E.03314
G1 X81.021 Y105.529 E.03314
G1 X81.222 Y104.662 E.03314
G1 X81.021 Y103.795 E.03314
G1 X81.222 Y102.929 E.03314
G1 X81.021 Y102.062 E.03314
G1 X81.222 Y101.195 E.03314
G1 X81.021 Y100.329 E.03314
G1 X81.222 Y99.462 E.03314
G1 X81.021 Y98.595 E.03314
G1 X81.12 Y98.166 E.01639
G1 X80.377 Y98.039 E.02808
G1 X79.638 Y97.767 E.02936
G1 X79.515 Y97.819 E.00497
G1 X78.588 Y98.032 E.03544
G1 X77.637 Y98.076 E.03545
G1 X76.693 Y97.95 E.03546
G1 X75.787 Y97.658 E.03548
G1 X74.946 Y97.209 E.0355
G1 X74.199 Y96.617 E.03552
G1 X73.569 Y95.9 E.03554
G1 X73.077 Y95.082 E.03556
G1 X72.739 Y94.189 E.03558
G1 X72.566 Y93.249 E.0356
G1 X72.563 Y92.293 E.03561
G1 X72.732 Y91.351 E.03562
G1 X73.067 Y90.455 E.03564
G1 X73.32 Y90.03 E.01843
G1 X73.107 Y89.672 E.01552
G1 X72.771 Y88.777 E.0356
G1 X72.602 Y87.837 E.03559
G1 X72.603 Y86.881 E.03559
G1 X72.774 Y85.942 E.03558
G1 X73.111 Y85.048 E.03557
G1 X73.602 Y84.229 E.03556
G1 X74.231 Y83.511 E.03555
G1 X74.978 Y82.918 E.03554
G1 X75.819 Y82.467 E.03553
G1 X76.726 Y82.173 E.03552
G1 X77.671 Y82.046 E.03552
G1 X78.193 Y82.07 E.01943
G10 ; retract
G1 Z.6 F9000
G1 X88.557 Y143.631 Z.6
G1 Z.2
G11 ; unretract
G1 F900
G1 X88.557 Y139.215 E.16448
G1 X88.416 Y138.871 E.01385
G1 X88.17 Y138.407 E.01956
G1 X88.049 Y138.225 E.00812
G1 X88.049 Y144.103 E.21891
G1 X87.879 Y144.36 E.01148
G1 X87.542 Y144.771 E.01982
G1 X87.542 Y137.556 E.26874
G1 X87.176 Y137.187 E.01932
G1 X87.034 Y137.069 E.00689
G1 X87.034 Y145.259 E.30502
G1 X86.771 Y145.476 E.0127
G1 X86.526 Y145.642 E.01102
G1 X86.526 Y136.686 E.33356
G1 X86.345 Y136.564 E.00811
G1 X86.018 Y136.386 E.01388
G1 X86.018 Y145.942 E.35593
G1 X85.51 Y146.174 E.02079
G1 X85.51 Y136.154 E.3732
G1 X85.002 Y135.983 E.01996
G1 X85.002 Y146.345 E.38593
G1 X84.494 Y146.472 E.0195
G1 X84.494 Y135.62 E.40421
G10 ; retract
G1 Z.6 F9000
G1 X88.557 Y92.831 Z.6
G1 Z.2
G11 ; unretract
G1 F900
G1 X88.557 Y88.415 E.16448
G1 X88.416 Y88.071 E.01385
G1 X88.17 Y87.607 E.01956
G1 X88.049 Y87.425 E.00812
G1 X88.049 Y93.303 E.21891
G1 X87.879 Y93.56 E.01148
G1 X87.542 Y93.971 E.01982
G1 X87.542 Y86.756 E.26874
G1 X87.176 Y86.387 E.01932
G1 X87.034 Y86.269 E.00689
G1 X87.034 Y94.459 E.30502
G1 X86.771 Y94.676 E.0127
G1 X86.526 Y94.842 E.01102
G1 X86.526 Y85.886 E.33356
G1 X86.345 Y85.764 E.00811
G1 X86.018 Y85.586 E.01388
G1 X86.018 Y95.142 E.35593
G1 X85.51 Y95.374 E.02079
G1 X85.51 Y85.354 E.3732
G1 X85.002 Y85.183 E.01996
G1 X85.002 Y95.545 E.38593
G1 X84.494 Y95.672 E.0195
G1 X84.494 Y85.056 E.3954
G1 X84.403 Y85.035 E.0035
G1 X83.987 Y84.511 E.02492
G1 X83.987 Y147.017 E2.3281
G1 X83.964 Y147.046 E.00138
G1 X83.964 Y147.955 E.03387
G1 X83.479 Y148.08 E.01865
G1 X83.479 Y83.384 E2.40966
G1 X82.971 Y83.585 E.02033
G1 X82.971 Y148.17 E2.40558
G1 X82.463 Y148.196 E.01894
G1 X82.463 Y83.383 E2.41405
G1 X82.35 Y83.338 E.00453
G1 X81.955 Y83.26 E.01499
G1 X81.955 Y177.4 E3.50637
M73 P0 R165
G1 X81.732 Y177.883 E.01983
G1 X81.955 Y178.491 E.02413
G1 X81.955 Y181.971 E.12962
G1 X81.788 Y182.431 E.01823
G1 X81.447 Y183.032 E.02571
G1 X81.447 Y83.162 E3.71975
G1 X80.939 Y83.165 E.01892
G1 X80.939 Y97.718 E.54206
G1 X80.431 Y97.62 E.01926
G1 X80.431 Y83.167 E.53834
G1 X80.233 Y83.041 E.00875
G1 X79.924 Y82.909 E.01253
G1 X79.924 Y97.434 E.54098
G1 X79.626 Y97.324 E.01179
G1 X79.416 Y97.414 E.00854
G1 X79.416 Y82.694 E.54829
G1 X78.908 Y82.577 E.01941
G1 X78.908 Y97.536 E.55717
G1 X78.532 Y97.623 E.01437
G1 X78.4 Y97.629 E.00491
G1 X78.4 Y82.492 E.5638
G1 X77.892 Y82.468 E.01894
G1 X77.892 Y97.652 E.56555
G1 X77.655 Y97.663 E.00885
G1 X77.384 Y97.627 E.01017
G1 X77.384 Y82.5 E.56344
G1 X76.876 Y82.568 E.01909
G1 X76.876 Y97.56 E.55838
G1 X76.784 Y97.547 E.00346
G1 X76.369 Y97.413 E.01627
G1 X76.369 Y82.721 E.54723
G1 X75.981 Y82.847 E.01518
G1 X75.861 Y82.911 E.00507
G1 X75.861 Y97.231 E.53337
G1 X75.353 Y96.96 E.02145
G1 X75.353 Y83.183 E.51312
G1 X75.205 Y83.263 E.00624
G1 X74.845 Y83.549 E.01714
G1 X74.845 Y96.604 E.48624
G1 X74.484 Y96.317 E.01718
G1 X74.337 Y96.151 E.00826
G1 X74.337 Y84.015 E.45202
G1 X73.936 Y84.472 E.02267
G1 X73.829 Y84.65 E.00773
G1 X73.829 Y95.534 E.40539
G1 X73.449 Y94.902 E.02751
G1 X73.321 Y94.566 E.01338
G1 X73.321 Y90.949 E.1347
G1 X73.439 Y90.634 E.01255
G1 X73.799 Y90.03 E.02618
G1 X73.479 Y89.493 E.02328
G1 X73.321 Y89.073 E.01672
G1 X73.321 Y85.098 E.14806
G10 ; retract
G1 Z.6 F9000
G1 X80.939 Y183.96 Z.6
G1 Z.2
G11 ; unretract
G1 F900
G1 X80.939 Y133.938 E1.86315
G1 X80.679 Y133.937 E.0097
G1 X80.431 Y133.982 E.00937
G1 X80.431 Y184.129 E1.86777
G1 X80.155 Y184.369 E.01365
G1 X79.924 Y184.496 E.00982
G1 X79.924 Y133.765 E1.88951
G1 X79.416 Y133.558 E.02043
G1 X79.416 Y184.773 E1.90758
M73 P1 R165
G1 X79.293 Y184.84 E.00521
G1 X78.908 Y184.968 E.01511
G1 X78.908 Y133.442 E1.91916
G1 X78.606 Y133.373 E.01154
G1 X78.4 Y133.363 E.00768
G1 X78.4 Y185.129 E1.92805
G1 X77.892 Y185.204 E.01912
G1 X77.892 Y133.341 E1.93172
G1 X77.727 Y133.333 E.00615
G1 X77.384 Y133.379 E.01289
G1 X77.384 Y185.248 E1.9319
G1 X76.876 Y185.233 E.01892
G1 X76.876 Y133.448 E1.92881
G1 X76.369 Y133.609 E.01984
G1 X76.369 Y185.165 E1.92027
M73 P1 R164
G1 X75.861 Y185.047 E.01941
G1 X75.861 Y133.807 E1.90851
G1 X75.353 Y134.08 E.02147
G1 X75.353 Y184.861 E1.8914
G1 X75.136 Y184.773 E.00873
G1 X74.845 Y184.612 E.01236
G1 X74.845 Y134.456 E1.86814
G1 X74.554 Y134.687 E.01383
G1 X74.337 Y134.936 E.01229
G1 X74.337 Y184.295 E1.83846
G1 X73.829 Y183.892 E.02414
G1 X73.829 Y141.793 E1.56806
G1 X73.321 Y142.366 E.02852
G1 X73.321 Y183.307 E1.52492
G1 X73.25 Y183.223 E.0041
G1 X72.813 Y182.496 E.0316
G1 X72.813 Y142.74 E1.48074
G1 X73.829 Y141.287 F9000
G1 F900
G1 X73.829 Y135.593 E.21207
G1 X73.523 Y136.105 E.02223
G1 X73.321 Y136.64 E.02131
G1 X73.321 Y140.423 E.14089
G10 ; retract
G1 Z.6 F9000
G1 X96.757 Y187.4 Z.6
G1 Z.2
G11 ; unretract
