; generated by PrusaSlicer 2.7.1 on 2023-12-30 at 14:29:29 UTC
;FLAVOR:Marlin
;TIME:2561
;Filament used: 4.856190
;Layer height: 0.20
;MINX:0.000
;MINY:0.000
;MINZ:0.000
;MAXX:0.000
;MAXY:0.000
;MAXZ:0.000
;POSTPROCESSED
;Header generated for The Ender3v2 Professional Firmware
;https://github.com/mriscoc/Marlin_Ender3v2



;
;

;
;
; 

; external perimeters extrusion width = 0.42mm
; perimeters extrusion width = 0.44mm
; infill extrusion width = 0.44mm
; solid infill extrusion width = 0.44mm
; top infill extrusion width = 0.40mm
; first layer extrusion width = 0.42mm

M73 P0 R42

EXCLUDE_OBJECT_DEFINE NAME=gnom2024unterteil_stl CENTER=110.000,110.003 POLYGON=[[111.187,50.049],[112.941,50.289],[114.402,50.649],[116.864,51.592],[118.709,52.584],[119.887,53.351],[121.481,54.567],[122.583,55.533],[124.209,57.155],[125.423,58.536],[127.094,60.693],[128.375,62.570],[129.559,64.504],[131.669,68.504],[133.475,72.639],[135.013,76.871],[136.458,81.716],[137.856,87.724],[138.708,92.583],[139.474,98.811],[139.856,104.119],[140.000,109.998],[139.856,115.881],[139.475,121.181],[138.708,127.417],[137.861,132.273],[136.458,138.284],[135.013,143.128],[133.477,147.361],[132.611,149.443],[131.213,152.426],[129.032,156.381],[127.871,158.192],[126.667,159.888],[125.423,161.464],[124.210,162.843],[122.827,164.239],[121.481,165.433],[120.107,166.493],[118.709,167.416],[117.290,168.202],[115.853,168.847],[114.402,169.351],[112.941,169.711],[111.472,169.928],[110.000,170.000],[108.528,169.928],[107.060,169.711],[105.598,169.351],[104.147,168.847],[102.711,168.202],[101.292,167.416],[99.893,166.493],[98.520,165.433],[97.173,164.239],[95.791,162.844],[94.577,161.464],[93.333,159.888],[92.129,158.192],[90.968,156.381],[88.787,152.426],[86.810,148.064],[84.987,143.128],[83.542,138.284],[82.284,132.961],[81.292,127.417],[80.577,121.705],[80.145,115.881],[80.000,110.003],[80.145,104.119],[80.336,101.052],[80.757,96.590],[81.725,89.933],[82.606,85.534],[83.542,81.716],[84.268,79.154],[85.724,74.749],[87.391,70.562],[89.343,66.489],[91.623,62.574],[92.904,60.696],[94.289,58.885],[96.585,56.332],[99.175,54.042],[101.080,52.714],[102.088,52.124],[104.147,51.153],[105.324,50.733],[107.060,50.289],[108.528,50.072],[110.000,50.000]]

M190 S60 ; set bed temperature and wait for it to be reached
M104 S215 ; set temperature
;TYPE:Custom
M117 ;fix for KAMP meshing
START_PRINT BED_TEMP=60 EXTRUDER_TEMP=215
M109 S215 ; set temperature and wait for it to be reached
G21 ; set units to millimeters
G90 ; use absolute coordinates
M83 ; use relative distances for extrusion
; Filament gcode
M107
;LAYER_CHANGE
;Z:0.2
;HEIGHT:0.2
;BEFORE_LAYER_CHANGE
G92 E0
;0.2


G10 ; retract
G1 Z.2 F15000
;AFTER_LAYER_CHANGE
;0.2
G1 X89.277 Y59.998
G11 ; unretract
M204 S500
;TYPE:Skirt/Brim
;WIDTH:0.42
G1 F2400
G1 X90.583 Y58.152 E.0709
G1 X91.953 Y56.41 E.06949
G1 X93.409 Y54.76 E.069
G1 X94.849 Y53.311 E.06405
G1 X96.334 Y51.992 E.06228
G1 X97.734 Y50.905 E.05557
G1 X99.481 Y49.733 E.06596
G1 X101.139 Y48.809 E.05951
G1 X102.813 Y48.051 E.05762
G1 X104.436 Y47.476 E.05399
G1 X106.297 Y46.999 E.06024
G1 X107.856 Y46.755 E.04948
G1 X110.204 Y46.629 E.07373
G1 X111.845 Y46.716 E.05152
G1 X113.636 Y46.985 E.05679
G1 X115.419 Y47.429 E.05761
G1 X117.16 Y48.04 E.05785
G1 X118.79 Y48.773 E.05604
G1 X120.488 Y49.713 E.06085
G1 X122.045 Y50.742 E.05852
G1 X123.548 Y51.897 E.05943
G1 X125.117 Y53.279 E.06556
G1 X126.577 Y54.745 E.06487
G1 X128.046 Y56.409 E.0696
G1 X129.378 Y58.099 E.06747
G1 X130.694 Y59.955 E.07134
G1 X131.868 Y61.786 E.0682
G1 X134.091 Y65.786 E.14348
G1 X135.325 Y68.359 E.08947
G1 X136.327 Y70.685 E.07941
G1 X138.152 Y75.61 E.16468
G1 X139.709 Y80.801 E.16992
G1 X141.03 Y86.386 E.17995
G1 X142.042 Y92.042 E.18016
G1 X142.788 Y98 E.18827
G1 X143.226 Y103.905 E.18566
G1 X143.377 Y110.041 E.19245
G1 X143.234 Y115.934 E.18483
G1 X142.786 Y122.022 E.1914
G1 X142.035 Y128.004 E.18903
G1 X140.95 Y133.993 E.19084
G1 X140.347 Y136.678 E.08628
G1 X139.097 Y141.363 E.15203
G1 X137.318 Y146.766 E.17835
G1 X135.385 Y151.509 E.16059
G1 X133.239 Y155.839 E.15152
G1 X131.947 Y158.085 E.08124
G1 X130.724 Y160.001 E.07127
G1 X129.417 Y161.849 E.07097
G1 X128.049 Y163.588 E.06937
G1 X126.591 Y165.241 E.06911
G1 X125.151 Y166.689 E.06403
G1 X123.667 Y168.007 E.06223
G1 X122.266 Y169.095 E.05562
G1 X120.514 Y170.271 E.06616
G1 X118.86 Y171.191 E.05934
G1 X117.186 Y171.95 E.05763
G1 X115.564 Y172.524 E.05395
G1 X113.319 Y173.072 E.07246
G1 X111.738 Y173.294 E.05006
G1 X109.864 Y173.374 E.05881
G1 X108.146 Y173.283 E.05394
G1 X106.366 Y173.016 E.05644
G1 X104.589 Y172.573 E.05742
G1 X102.833 Y171.958 E.05834
G1 X101.209 Y171.226 E.05585
G1 X99.508 Y170.284 E.06097
G1 X97.959 Y169.261 E.0582
G1 X96.54 Y168.174 E.05605
G1 X94.909 Y166.745 E.06799
G1 X93.422 Y165.254 E.06602
G1 X91.952 Y163.588 E.06966
G1 X90.623 Y161.902 E.06731
G1 X89.305 Y160.044 E.07143
G1 X88.132 Y158.214 E.06815
G1 X85.909 Y154.214 E.14348
G1 X84.674 Y151.639 E.08954
G1 X83.673 Y149.315 E.07934
G1 X81.849 Y144.393 E.16458
G1 X80.292 Y139.202 E.16992
G1 X78.97 Y133.614 E.18004
G1 X77.959 Y127.96 E.18009
G1 X77.212 Y122.002 E.18827
G1 X76.767 Y115.934 E.19077
G1 X76.623 Y109.959 E.1874
G1 X76.767 Y104.066 E.18483
G1 X77.214 Y97.979 E.19137
G1 X77.963 Y92.005 E.18878
G1 X79.051 Y86.007 E.19113
G1 X79.654 Y83.323 E.08625
G1 X80.903 Y78.638 E.15203
G1 X82.683 Y73.235 E.17836
G1 X84.661 Y68.39 E.16408
G1 X86.761 Y64.162 E.14802
G1 X88.053 Y61.915 E.08127
G1 X89.245 Y60.049 E.06943
EXCLUDE_OBJECT_START NAME=gnom2024unterteil_stl
G10 ; retract
G1 X89.245 Y60.049 Z.6 F15000
G1 X92.979 Y62.452
G1 Z.2
G11 ; unretract
;TYPE:Perimeter
;WIDTH:0.419999
G1 F2400
G1 X94.158 Y60.787 E.06397
G1 X95.376 Y59.241 E.06171
G1 X96.631 Y57.817 E.05951
G1 X97.92 Y56.52 E.05733
G1 X99.183 Y55.4 E.05293
G1 X100.526 Y54.364 E.05318
G1 X101.83 Y53.503 E.04899
G1 X103.213 Y52.738 E.04955
G1 X104.544 Y52.141 E.04574
G1 X105.883 Y51.676 E.04444
G1 X107.3 Y51.328 E.04575
G1 X108.646 Y51.132 E.04265
G1 X110.073 Y51.068 E.04479
G1 X111.35 Y51.131 E.04009
G1 X112.771 Y51.342 E.04504
G1 X114.115 Y51.676 E.04342
G1 X115.456 Y52.141 E.0445
G1 X116.787 Y52.738 E.04574
G1 X118.17 Y53.502 E.04954
G1 X119.474 Y54.364 E.04901
G1 X120.817 Y55.4 E.05318
G1 X122.08 Y56.52 E.05293
G1 X123.369 Y57.816 E.05731
G1 X124.624 Y59.241 E.05954
G1 X125.843 Y60.787 E.06173
G1 X127.021 Y62.452 E.06395
G1 X128.157 Y64.23 E.06616
G1 X129.248 Y66.118 E.06837
G1 X130.291 Y68.11 E.0705
G1 X131.284 Y70.201 E.07258
G1 X132.224 Y72.386 E.07458
G1 X133.11 Y74.66 E.07652
G1 X133.939 Y77.017 E.07834
G1 X134.71 Y79.451 E.08005
G1 X135.42 Y81.956 E.08164
G1 X136.068 Y84.526 E.0831
G1 X136.684 Y87.3 E.0891
G1 X137.2 Y89.983 E.08567
G1 X137.652 Y92.714 E.08679
G1 X138.036 Y95.483 E.08765
G1 X138.368 Y98.434 E.09311
G1 X138.613 Y101.265 E.0891
G1 X138.79 Y104.116 E.08956
G1 X138.899 Y107.144 E.095
G1 X138.936 Y110 E.08956
G1 X138.897 Y113.019 E.09467
G1 X138.797 Y115.736 E.08525
G1 X138.613 Y118.735 E.09421
G1 X138.368 Y121.565 E.08906
G1 X138.036 Y124.516 E.09311
G1 X137.652 Y127.286 E.08768
G1 X137.201 Y130.016 E.08676
G1 X136.684 Y132.7 E.0857
G1 X136.068 Y135.474 E.0891
G1 X135.42 Y138.044 E.0831
G1 X134.71 Y140.549 E.08164
G1 X133.939 Y142.983 E.08005
G1 X133.11 Y145.34 E.07834
G1 X132.225 Y147.614 E.07651
G1 X131.284 Y149.799 E.07459
G1 X130.291 Y151.89 E.07258
G1 X129.248 Y153.882 E.0705
G1 X128.157 Y155.769 E.06834
G1 X127.021 Y157.548 E.06618
G1 X125.843 Y159.213 E.06395
G1 X124.624 Y160.759 E.06173
G1 X123.369 Y162.183 E.05951
G1 X122.08 Y163.48 E.05733
G1 X120.817 Y164.6 E.05293
G1 X119.474 Y165.636 E.05318
G1 X118.17 Y166.498 E.04901
G1 X116.787 Y167.262 E.04954
G1 X115.456 Y167.859 E.04574
G1 X114.117 Y168.324 E.04444
G1 X112.7 Y168.672 E.04575
G1 X111.351 Y168.869 E.04275
G1 X110 Y168.935 E.04241
G1 X108.649 Y168.869 E.04241
G1 X107.3 Y168.672 E.04275
G1 X105.884 Y168.324 E.04572
G1 X104.544 Y167.859 E.04447
G1 X103.213 Y167.262 E.04574
G1 X101.83 Y166.497 E.04955
G1 X100.526 Y165.636 E.04899
G1 X99.183 Y164.6 E.05318
G1 X97.92 Y163.48 E.05293
G1 X96.631 Y162.183 E.05733
G1 X95.376 Y160.759 E.05951
G1 X94.158 Y159.213 E.06171
G1 X92.979 Y157.548 E.06397
G1 X91.843 Y155.769 E.06618
G1 X90.752 Y153.882 E.06834
G1 X89.709 Y151.89 E.0705
G1 X88.716 Y149.798 E.07261
G1 X87.776 Y147.613 E.07458
G1 X86.89 Y145.34 E.07649
G1 X86.061 Y142.983 E.07834
G1 X85.29 Y140.55 E.08002
G1 X84.58 Y138.044 E.08167
G1 X83.932 Y135.474 E.0831
G1 X83.317 Y132.7 E.08909
G1 X82.8 Y130.017 E.08567
G1 X82.349 Y127.286 E.08679
G1 X81.964 Y124.517 E.08766
G1 X81.632 Y121.566 E.09311
G1 X81.387 Y118.736 E.08906
G1 X81.204 Y115.736 E.09424
G1 X81.103 Y113.02 E.08522
G1 X81.064 Y110 E.0947
G1 X81.103 Y106.981 E.09467
G1 X81.203 Y104.265 E.08522
G1 X81.387 Y101.265 E.09424
G1 X81.632 Y98.435 E.08906
G1 X81.964 Y95.484 E.09311
G1 X82.348 Y92.714 E.08768
G1 X82.799 Y89.984 E.08676
G1 X83.316 Y87.301 E.08567
G1 X83.932 Y84.526 E.08913
G1 X84.58 Y81.956 E.0831
G1 X85.29 Y79.451 E.08164
G1 X86.061 Y77.017 E.08005
G1 X86.89 Y74.66 E.07834
G1 X87.776 Y72.387 E.07649
G1 X88.716 Y70.202 E.07458
G1 X89.709 Y68.11 E.07261
G1 X90.752 Y66.118 E.0705
G1 X91.843 Y64.231 E.06834
G1 X92.947 Y62.503 E.06429
G1 X92.666 Y62.242 F15000
G1 F2400
G1 X93.855 Y60.562 E.06453
G1 X95.086 Y58.999 E.06238
G1 X96.356 Y57.559 E.0602
G1 X97.661 Y56.246 E.05804
G1 X98.943 Y55.11 E.05371
G1 X100.307 Y54.057 E.05403
G1 X101.635 Y53.18 E.0499
G1 X103.045 Y52.4 E.05052
G1 X104.405 Y51.791 E.04672
G1 X105.776 Y51.314 E.04551
G1 X107.227 Y50.958 E.04684
G1 X108.611 Y50.756 E.04385
G1 X110.074 Y50.691 E.04592
G1 X111.387 Y50.755 E.04122
G1 X112.844 Y50.972 E.04619
G1 X114.223 Y51.314 E.04455
G1 X115.595 Y51.79 E.04553
G1 X116.955 Y52.4 E.04673
G1 X118.365 Y53.18 E.05052
G1 X119.693 Y54.057 E.0499
G1 X121.057 Y55.109 E.05401
G1 X122.339 Y56.246 E.05373
G1 X123.644 Y57.559 E.05804
G1 X124.914 Y58.999 E.0602
G1 X126.145 Y60.561 E.06236
G1 X127.334 Y62.241 E.06453
G1 X128.479 Y64.035 E.06673
G1 X129.578 Y65.936 E.06885
G1 X130.628 Y67.942 E.07099
G1 X131.628 Y70.046 E.07304
G1 X132.573 Y72.243 E.07499
G1 X133.464 Y74.529 E.07693
G1 X134.297 Y76.897 E.07871
G1 X135.071 Y79.342 E.08041
G1 X135.784 Y81.858 E.08199
G1 X136.435 Y84.439 E.08346
G1 X137.053 Y87.224 E.08945
G1 X137.572 Y89.917 E.08599
G1 X138.025 Y92.657 E.08708
G1 X138.41 Y95.436 E.08797
G1 X138.743 Y98.397 E.09343
G1 X138.989 Y101.237 E.08938
G1 X139.167 Y104.098 E.08988
G1 X139.276 Y107.14 E.09544
G1 X139.313 Y110 E.08968
G1 X139.274 Y113.029 E.09498
G1 X139.173 Y115.754 E.0855
G1 X138.989 Y118.763 E.09452
G1 X138.743 Y121.603 E.08938
G1 X138.41 Y124.563 E.09339
G1 X138.025 Y127.343 E.088
G1 X137.572 Y130.083 E.08708
G1 X137.053 Y132.776 E.08599
G1 X136.435 Y135.561 E.08945
G1 X135.784 Y138.142 E.08346
G1 X135.071 Y140.658 E.08199
G1 X134.297 Y143.103 E.08041
G1 X133.464 Y145.471 E.07871
G1 X132.573 Y147.757 E.07693
G1 X131.628 Y149.954 E.07499
G1 X130.629 Y152.058 E.07303
G1 X129.578 Y154.064 E.07101
G1 X128.479 Y155.965 E.06885
G1 X127.334 Y157.759 E.06673
G1 X126.145 Y159.439 E.06453
G1 X124.914 Y161.001 E.06236
G1 X123.644 Y162.441 E.0602
G1 X122.339 Y163.754 E.05804
G1 X121.057 Y164.89 E.05371
G1 X119.693 Y165.943 E.05403
G1 X118.365 Y166.82 E.0499
G1 X116.956 Y167.6 E.0505
G1 X115.595 Y168.21 E.04676
G1 X114.224 Y168.686 E.0455
G1 X112.773 Y169.042 E.04684
G1 X111.388 Y169.245 E.04389
G1 X110 Y169.312 E.04357
G1 X108.612 Y169.245 E.04357
G1 X107.227 Y169.042 E.04389
G1 X105.776 Y168.686 E.04684
G1 X104.405 Y168.21 E.0455
G1 X103.045 Y167.6 E.04673
G1 X101.635 Y166.82 E.05052
G1 X100.307 Y165.943 E.0499
G1 X98.943 Y164.89 E.05403
G1 X97.661 Y163.754 E.05371
G1 X96.356 Y162.441 E.05804
G1 X95.086 Y161.001 E.0602
G1 X93.856 Y159.439 E.06234
G1 X92.666 Y157.759 E.06455
G1 X91.521 Y155.965 E.06673
G1 X90.422 Y154.064 E.06885
G1 X89.372 Y152.058 E.07099
G1 X88.373 Y149.954 E.07303
G1 X87.427 Y147.756 E.07503
G1 X86.536 Y145.471 E.0769
G1 X85.703 Y143.103 E.07871
G1 X84.929 Y140.658 E.08041
G1 X84.216 Y138.142 E.08199
G1 X83.565 Y135.561 E.08346
G1 X82.947 Y132.777 E.08942
G1 X82.429 Y130.083 E.08602
G1 X81.976 Y127.343 E.08708
G1 X81.59 Y124.564 E.08797
G1 X81.257 Y121.603 E.09343
G1 X81.011 Y118.763 E.08938
G1 X80.827 Y115.754 E.09452
G1 X80.726 Y113.029 E.0855
G1 X80.687 Y110 E.09498
G1 X80.726 Y106.971 E.09498
G1 X80.827 Y104.246 E.0855
G1 X81.011 Y101.237 E.09452
G1 X81.257 Y98.397 E.08938
G1 X81.59 Y95.437 E.09339
G1 X81.975 Y92.657 E.088
G1 X82.428 Y89.917 E.08708
G1 X82.947 Y87.224 E.08599
G1 X83.565 Y84.439 E.08945
G1 X84.216 Y81.858 E.08346
G1 X84.929 Y79.342 E.08199
G1 X85.703 Y76.897 E.08041
G1 X86.536 Y74.529 E.07871
G1 X87.427 Y72.244 E.0769
G1 X88.373 Y70.046 E.07503
G1 X89.372 Y67.942 E.07303
G1 X90.422 Y65.937 E.07096
G1 X91.521 Y64.035 E.06888
G1 X92.634 Y62.292 E.06484
G1 X92.353 Y62.031 F15000
;TYPE:External perimeter
G1 F1920
G1 X93.553 Y60.336 E.06512
G1 X94.796 Y58.758 E.06298
G1 X96.081 Y57.301 E.06091
G1 X97.402 Y55.972 E.05875
G1 X98.702 Y54.819 E.05448
G1 X100.087 Y53.75 E.05486
G1 X101.439 Y52.857 E.0508
G1 X102.876 Y52.063 E.05148
G1 X104.266 Y51.44 E.04776
G1 X105.669 Y50.952 E.04658
G1 X107.155 Y50.587 E.04798
G1 X108.575 Y50.38 E.04499
G1 X110.074 Y50.313 E.04705
G1 X111.424 Y50.38 E.04238
G1 X112.918 Y50.601 E.04735
G1 X114.33 Y50.952 E.04562
G1 X115.734 Y51.44 E.0466
G1 X117.124 Y52.063 E.04776
G1 X118.561 Y52.857 E.05148
G1 X119.913 Y53.75 E.0508
G1 X121.298 Y54.819 E.05486
G1 X122.598 Y55.972 E.05448
G1 X123.92 Y57.301 E.05877
G1 X125.204 Y58.758 E.06089
G1 X126.447 Y60.336 E.06298
G1 X127.647 Y62.031 E.06512
G1 X128.802 Y63.839 E.06727
G1 X129.909 Y65.754 E.06935
G1 X130.966 Y67.773 E.07145
G1 X131.971 Y69.89 E.07348
G1 X132.922 Y72.1 E.07544
G1 X133.817 Y74.398 E.07732
G1 X134.655 Y76.778 E.07911
G1 X135.432 Y79.234 E.08077
G1 X136.149 Y81.761 E.08236
G1 X136.802 Y84.352 E.08378
G1 X137.422 Y87.147 E.08977
G1 X137.943 Y89.85 E.08631
G1 X138.397 Y92.6 E.08739
G1 X138.784 Y95.389 E.08828
G1 X139.119 Y98.359 E.09371
M73 P1 R42
G1 X139.366 Y101.209 E.08969
G1 X139.543 Y104.079 E.09016
G1 X139.653 Y107.135 E.09588
G1 X139.69 Y110 E.08984
G1 X139.651 Y113.038 E.09526
G1 X139.55 Y115.772 E.08578
G1 X139.366 Y118.791 E.09483
G1 X139.119 Y121.64 E.08966
G1 X138.784 Y124.61 E.09371
G1 X138.398 Y127.399 E.08828
G1 X137.943 Y130.149 E.0874
G1 X137.422 Y132.853 E.08634
G1 X136.802 Y135.648 E.08977
G1 X136.149 Y138.239 E.08378
G1 X135.432 Y140.766 E.08236
G1 X134.655 Y143.222 E.08077
G1 X133.817 Y145.602 E.07911
G1 X132.922 Y147.9 E.07732
G1 X131.971 Y150.11 E.07544
G1 X130.966 Y152.227 E.07348
G1 X129.909 Y154.245 E.07143
G1 X128.802 Y156.161 E.06938
G1 X127.647 Y157.969 E.06727
G1 X126.447 Y159.664 E.06512
G1 X125.204 Y161.242 E.06298
G1 X123.92 Y162.699 E.06089
G1 X122.599 Y164.028 E.05875
G1 X121.298 Y165.181 E.05451
G1 X119.913 Y166.25 E.05486
G1 X118.561 Y167.143 E.0508
G1 X117.124 Y167.937 E.05148
G1 X115.734 Y168.56 E.04776
G1 X114.331 Y169.048 E.04658
G1 X112.845 Y169.413 E.04798
G1 X111.424 Y169.62 E.04502
G1 X110 Y169.69 E.0447
G1 X108.576 Y169.62 E.0447
G1 X107.155 Y169.413 E.04502
G1 X105.669 Y169.048 E.04798
G1 X104.266 Y168.56 E.04658
G1 X102.876 Y167.937 E.04776
G1 X101.439 Y167.143 E.05148
G1 X100.087 Y166.25 E.0508
G1 X98.702 Y165.181 E.05486
G1 X97.402 Y164.028 E.05448
G1 X96.081 Y162.699 E.05875
G1 X94.796 Y161.242 E.06091
G1 X93.553 Y159.664 E.06298
G1 X92.353 Y157.969 E.06512
G1 X91.199 Y156.161 E.06725
G1 X90.091 Y154.245 E.0694
G1 X89.034 Y152.226 E.07145
G1 X88.029 Y150.109 E.07348
G1 X87.078 Y147.899 E.07544
G1 X86.183 Y145.602 E.07729
G1 X85.346 Y143.222 E.0791
G1 X84.568 Y140.766 E.08078
G1 X83.852 Y138.24 E.08232
G1 X83.198 Y135.648 E.08382
G1 X82.578 Y132.853 E.08977
G1 X82.057 Y130.15 E.08631
G1 X81.603 Y127.4 E.08739
G1 X81.216 Y124.611 E.08828
G1 X80.882 Y121.641 E.09371
G1 X80.635 Y118.791 E.08969
G1 X80.45 Y115.773 E.0948
G1 X80.349 Y113.038 E.08581
G1 X80.31 Y110 E.09526
G1 X80.349 Y106.962 E.09526
G1 X80.45 Y104.228 E.08578
G1 X80.635 Y101.209 E.09484
G1 X80.882 Y98.36 E.08966
G1 X81.216 Y95.39 E.09371
