; HEADER_BLOCK_START
; generated by OrcaSlicer 1.9.0 on 2024-02-08 at 18:09:24
; total layer number: 230
; filament_density: 1.24
; filament_diameter: 1.75
; max_z_height: 46.00
; HEADER_BLOCK_END

; THUMBNAIL_BLOCK_START

;
; THUMBNAIL_BLOCK_END

; THUMBNAIL_BLOCK_START

;
; THUMBNAIL_BLOCK_END

; external perimeters extrusion width = 0.40mm
; perimeters extrusion width = 0.45mm
; infill extrusion width = 0.45mm
; solid infill extrusion width = 0.40mm
; top infill extrusion width = 0.40mm
; support material extrusion width = 0.40mm
; first layer extrusion width = 0.50mm

; EXECUTABLE_BLOCK_START
EXCLUDE_OBJECT_DEFINE NAME=Cube_id_0_copy_0 CENTER=108.849,131.549 POLYGON=[[86.3491,121.549],[131.349,121.549],[131.349,141.549],[86.3491,141.549],[86.3491,121.549]]
M73 P0 R85
;TYPE:Custom
M117 ; clear display for KAMP meshing
START_PRINT BED_TEMP=60 EXTRUDER_TEMP=220
G90
G21
M83 ; use relative distances for extrusion
; filament start gcode
M106 S0
;LAYER_CHANGE
;Z:0.2
;HEIGHT:0.2
;BEFORE_LAYER_CHANGE
;0.2
G92 E0

G10 ; retract
;_SET_FAN_SPEED_CHANGING_LAYER
SET_VELOCITY_LIMIT ACCEL=500 ACCEL_TO_DECEL=250
G1 Z.4 F9000
G1 X85.334 Y119.311
G1 Z.2
G11 ; unretract
;TYPE:Skirt
;WIDTH:0.5
G1 F3000
G1 X86.349 Y119.092 E.03866
G1 X131.349 Y119.092 E1.67608
G1 X132.68 Y119.484 E.05169
G1 X133.587 Y120.534 E.05169
G1 X133.806 Y121.549 E.03866
G1 X133.806 Y141.549 E.74492
G1 X133.414 Y142.88 E.05169
G1 X132.364 Y143.787 E.05169
G1 X131.349 Y144.006 E.03866
G1 X86.349 Y144.006 E1.67608
G1 X85.018 Y143.614 E.05169
G1 X84.111 Y142.564 E.05169
G1 X83.892 Y141.549 E.03866
G1 X83.892 Y121.549 E.74492
G1 X84.284 Y120.218 E.05169
G1 X85.304 Y119.337 E.0502
; printing object Cube id:0 copy 0
G10 ; retract
EXCLUDE_OBJECT_START NAME=Cube_id_0_copy_0
G1 Z.6 F9000
G1 X87.513 Y122.713 Z.6
G1 Z.2
G11 ; unretract
;TYPE:Inner wall
;WIDTH:0.499999
G1 F900
G1 X130.185 Y122.713 E1.58936
G1 X130.185 Y131.549 E.3291
G1 X130.185 Y140.385 E.3291
G1 X87.513 Y140.385 E1.58936
G1 X87.513 Y122.753 E.65671
G1 X87.056 Y122.256 F9000
G1 F900
G1 X130.642 Y122.256 E1.6234
G1 X130.642 Y131.549 E.34613
G1 X130.642 Y140.842 E.34613
G1 X87.056 Y140.842 E1.6234
G1 X87.056 Y122.296 E.69076
G1 X86.599 Y121.799 F9000
;TYPE:Outer wall
G1 F900
G1 X131.099 Y121.799 E1.65745
G1 X131.099 Y131.549 E.36315
G1 X131.099 Y141.299 E.36315
G1 X86.599 Y141.299 E1.65745
G1 X86.599 Y121.839 E.72481
G10 ; retract
G1 Z.6 F9000
G1 X130.039 Y123.79 Z.6
G1 Z.2
G11 ; unretract
;TYPE:Bottom surface
;WIDTH:0.502921
G1 F1200
G1 X129.314 Y123.065 E.03841
G1 X128.664 Y123.065 E.02439
G1 X129.833 Y124.235 E.06199
G1 X129.833 Y124.885 E.02439
G1 X128.013 Y123.065 E.09647
G1 X127.363 Y123.065 E.02438
G1 X129.833 Y125.536 E.13096
G1 X129.833 Y126.186 E.02438
G1 X126.712 Y123.065 E.16544
G1 X126.062 Y123.065 E.02439
G1 X129.833 Y126.837 E.19993
G1 X129.833 Y127.487 E.02439
G1 X125.411 Y123.065 E.23442
G1 X124.76 Y123.065 E.02439
G1 X129.833 Y128.138 E.2689
G1 X129.833 Y128.788 E.02439
G1 X124.11 Y123.065 E.30339
G1 X123.459 Y123.065 E.02438
G1 X129.833 Y129.439 E.33787
G1 X129.833 Y130.089 E.02438
G1 X122.809 Y123.065 E.37236
G1 X122.158 Y123.065 E.02438
G1 X129.833 Y130.74 E.40684
G1 X129.833 Y131.39 E.02439
G1 X121.508 Y123.065 E.44133
G1 X120.857 Y123.065 E.02439
G1 X129.833 Y132.041 E.47581
G1 X129.833 Y132.692 E.02439
G1 X120.207 Y123.065 E.5103
G1 X119.556 Y123.065 E.02439
G1 X129.833 Y133.342 E.54479
G1 X129.833 Y133.993 E.02438
G1 X118.906 Y123.065 E.57927
G1 X118.255 Y123.065 E.02438
G1 X129.833 Y134.643 E.61376
G1 X129.833 Y135.294 E.02439
G1 X117.604 Y123.065 E.64824
G1 X116.954 Y123.065 E.02439
G1 X129.833 Y135.944 E.68273
G1 X129.833 Y136.595 E.02439
G1 X116.303 Y123.065 E.71721
G1 X115.653 Y123.065 E.02439
G1 X129.833 Y137.245 E.7517
G1 X129.833 Y137.896 E.02438
G1 X115.002 Y123.065 E.78618
G1 X114.352 Y123.065 E.02438
G1 X129.833 Y138.546 E.82067
G1 X129.833 Y139.197 E.02438
G1 X113.701 Y123.065 E.85516
G1 X113.051 Y123.065 E.02439
G1 X129.833 Y139.847 E.88964
G1 X129.833 Y140.033 E.00695
G1 X129.368 Y140.033 E.01743
G1 X112.4 Y123.065 E.89947
G1 X111.75 Y123.065 E.02439
G1 X128.717 Y140.033 E.89947
M73 P0 R84
G1 X128.067 Y140.033 E.02439
G1 X111.099 Y123.065 E.89947
M73 P1 R84
G1 X110.449 Y123.065 E.02438
G1 X127.416 Y140.033 E.89947
G1 X126.766 Y140.033 E.02438
G1 X109.798 Y123.065 E.89947
G1 X109.147 Y123.065 E.02439
G1 X126.115 Y140.033 E.89947
G1 X125.465 Y140.033 E.02439
G1 X108.497 Y123.065 E.89947
G1 X107.846 Y123.065 E.02439
G1 X124.814 Y140.033 E.89947
G1 X124.164 Y140.033 E.02439
G1 X107.196 Y123.065 E.89947
G1 X106.545 Y123.065 E.02439
G1 X123.513 Y140.033 E.89947
G1 X122.863 Y140.033 E.02438
G1 X105.895 Y123.065 E.89947
G1 X105.244 Y123.065 E.02438
G1 X122.212 Y140.033 E.89947
G1 X121.561 Y140.033 E.02439
G1 X104.594 Y123.065 E.89947
G1 X103.943 Y123.065 E.02439
G1 X120.911 Y140.033 E.89947
G1 X120.26 Y140.033 E.02439
G1 X103.293 Y123.065 E.89947
G1 X102.642 Y123.065 E.02439
G1 X119.61 Y140.033 E.89947
G1 X118.959 Y140.033 E.02438
G1 X101.992 Y123.065 E.89947
G1 X101.341 Y123.065 E.02438
G1 X118.309 Y140.033 E.89947
G1 X117.658 Y140.033 E.02438
G1 X100.69 Y123.065 E.89947
G1 X100.04 Y123.065 E.02439
G1 X117.008 Y140.033 E.89947
G1 X116.357 Y140.033 E.02439
G1 X99.389 Y123.065 E.89947
G1 X98.739 Y123.065 E.02439
G1 X115.707 Y140.033 E.89947
G1 X115.056 Y140.033 E.02439
G1 X98.088 Y123.065 E.89947
G1 X97.438 Y123.065 E.02438
G1 X114.406 Y140.033 E.89947
G1 X113.755 Y140.033 E.02438
G1 X96.787 Y123.065 E.89947
G1 X96.137 Y123.065 E.02439
G1 X113.104 Y140.033 E.89947
G1 X112.454 Y140.033 E.02439
G1 X95.486 Y123.065 E.89947
G1 X94.836 Y123.065 E.02439
G1 X111.803 Y140.033 E.89947
G1 X111.153 Y140.033 E.02439
G1 X94.185 Y123.065 E.89947
G1 X93.535 Y123.065 E.02438
G1 X110.502 Y140.033 E.89947
G1 X109.852 Y140.033 E.02438
G1 X92.884 Y123.065 E.89947
G1 X92.233 Y123.065 E.02439
G1 X109.201 Y140.033 E.89947
G1 X108.551 Y140.033 E.02439
G1 X91.583 Y123.065 E.89947
G1 X90.932 Y123.065 E.02439
G1 X107.9 Y140.033 E.89947
G1 X107.25 Y140.033 E.02439
G1 X90.282 Y123.065 E.89947
G1 X89.631 Y123.065 E.02439
G1 X106.599 Y140.033 E.89947
G1 X105.949 Y140.033 E.02438
G1 X88.981 Y123.065 E.89947
G1 X88.33 Y123.065 E.02438
G1 X105.298 Y140.033 E.89947
G1 X104.647 Y140.033 E.02439
G1 X87.865 Y123.251 E.88964
G1 X87.865 Y123.901 E.02439
G1 X103.997 Y140.033 E.85515
G1 X103.346 Y140.033 E.02439
G1 X87.865 Y124.552 E.82067
G1 X87.865 Y125.202 E.02439
G1 X102.696 Y140.033 E.78618
G1 X102.045 Y140.033 E.02439
G1 X87.865 Y125.853 E.7517
G1 X87.865 Y126.503 E.02438
G1 X101.395 Y140.033 E.71721
G1 X100.744 Y140.033 E.02438
G1 X87.865 Y127.154 E.68273
M73 P2 R84
G1 X87.865 Y127.804 E.02439
G1 X100.094 Y140.033 E.64824
G1 X99.443 Y140.033 E.02439
G1 X87.865 Y128.455 E.61375
G1 X87.865 Y129.106 E.02439
G1 X98.793 Y140.033 E.57927
G1 X98.142 Y140.033 E.02439
G1 X87.865 Y129.756 E.54478
G1 X87.865 Y130.407 E.02438
G1 X97.492 Y140.033 E.5103
G1 X96.841 Y140.033 E.02438
G1 X87.865 Y131.057 E.47581
G1 X87.865 Y131.708 E.02439
G1 X96.19 Y140.033 E.44133
G1 X95.54 Y140.033 E.02439
G1 X87.865 Y132.358 E.40684
G1 X87.865 Y133.009 E.02439
G1 X94.889 Y140.033 E.37235
G1 X94.239 Y140.033 E.02439
G1 X87.865 Y133.659 E.33787
M73 P2 R83
G1 X87.865 Y134.31 E.02439
G1 X93.588 Y140.033 E.30338
G1 X92.938 Y140.033 E.02438
G1 X87.865 Y134.96 E.2689
G1 X87.865 Y135.611 E.02438
G1 X92.287 Y140.033 E.23441
G1 X91.637 Y140.033 E.02439
G1 X87.865 Y136.262 E.19993
G1 X87.865 Y136.912 E.02439
G1 X90.986 Y140.033 E.16544
G1 X90.336 Y140.033 E.02439
G1 X87.865 Y137.563 E.13096
G1 X87.865 Y138.213 E.02439
G1 X89.685 Y140.033 E.09647
G1 X89.034 Y140.033 E.02438
G1 X87.865 Y138.864 E.06198
G1 X87.865 Y139.514 E.02438
G1 X88.59 Y140.239 E.0384
; stop printing object Cube id:0 copy 0
M106 S255
;LAYER_CHANGE
;Z:0.4
;HEIGHT:0.2
;BEFORE_LAYER_CHANGE
;0.4
G92 E0

G10 ; retract
EXCLUDE_OBJECT_END NAME=Cube_id_0_copy_0
;_SET_FAN_SPEED_CHANGING_LAYER
M140 S60 ; set bed temperature
; printing object Cube id:0 copy 0
EXCLUDE_OBJECT_START NAME=Cube_id_0_copy_0
G1 Z.6 F9000
G1 X87.338 Y122.538 Z.6
G1 Z.4
G11 ; unretract
;TYPE:Inner wall
;WIDTH:0.449999
G1 F2400
G1 X130.36 Y122.538 E1.42711
G1 X130.36 Y131.549 E.29891
G1 X130.36 Y140.56 E.29891
G1 X87.338 Y140.56 E1.42711
G1 X87.338 Y122.578 E.59648
G1 X86.931 Y122.131 F9000
G1 F2400
G1 X130.767 Y122.131 E1.45411
G1 X130.767 Y131.549 E.31241
G1 X130.767 Y140.967 E.31241
G1 X86.931 Y140.967 E1.45411
G1 X86.931 Y122.171 E.62349
G1 X86.549 Y121.749 F9000
;TYPE:Outer wall
;WIDTH:0.399999
G1 F1500
G1 X131.149 Y121.749 E1.29774
G1 X131.149 Y131.549 E.28515
G1 X131.149 Y141.349 E.28515
G1 X86.549 Y141.349 E1.29774
G1 X86.549 Y121.789 E.56915
G1 X87.73 Y122.872 F9000
;TYPE:Internal solid infill
;WIDTH:0.38292
G1 F2400
G1 X87.666 Y122.909 E.00204
G1 X87.731 Y122.943 E.00204
G1 X129.303 Y140.432 F9000
;WIDTH:0.400609
G1 F2400
G1 X130.072 Y139.663 E.0317
G1 X130.072 Y139.157 E.01474
G1 X128.957 Y140.271 E.04593
G1 X128.452 Y140.271 E.01474
G1 X130.072 Y138.651 E.06678
G1 X130.072 Y138.146 E.01474
G1 X127.946 Y140.271 E.08763
G1 X127.44 Y140.271 E.01474
G1 X130.072 Y137.64 E.10848
G1 X130.072 Y137.134 E.01474
G1 X126.934 Y140.271 E.12933
G1 X126.428 Y140.271 E.01474
G1 X130.072 Y136.628 E.15018
G1 X130.072 Y136.122 E.01474
G1 X125.922 Y140.271 E.17103
G1 X125.416 Y140.271 E.01474
G1 X130.072 Y135.616 E.19188
G1 X130.072 Y135.111 E.01474
G1 X124.911 Y140.271 E.21274
G1 X124.405 Y140.271 E.01474
G1 X130.072 Y134.605 E.23359
G1 X130.072 Y134.099 E.01474
G1 X123.899 Y140.271 E.25444
G1 X123.393 Y140.271 E.01474
G1 X130.072 Y133.593 E.27529
G1 X130.072 Y133.087 E.01474
G1 X122.887 Y140.271 E.29614
G1 X122.381 Y140.271 E.01474
G1 X130.072 Y132.581 E.31699
G1 X130.072 Y132.075 E.01474
G1 X121.875 Y140.271 E.33784
G1 X121.37 Y140.271 E.01474
G1 X130.072 Y131.57 E.35869
G1 X130.072 Y131.064 E.01474
G1 X120.864 Y140.271 E.37954
G1 X120.358 Y140.271 E.01474
G1 X130.072 Y130.558 E.4004
G1 X130.072 Y130.052 E.01474
G1 X119.852 Y140.271 E.42125
G1 X119.346 Y140.271 E.01474
G1 X130.072 Y129.546 E.4421
G1 X130.072 Y129.04 E.01474
G1 X118.84 Y140.271 E.46295
G1 X118.335 Y140.271 E.01474
G1 X130.072 Y128.534 E.4838
G1 X130.072 Y128.029 E.01474
G1 X117.829 Y140.271 E.50465
G1 X117.323 Y140.271 E.01474
G1 X130.072 Y127.523 E.5255
G1 X130.072 Y127.017 E.01474
G1 X116.817 Y140.271 E.54635
G1 X116.311 Y140.271 E.01474
G1 X130.072 Y126.511 E.56721
G1 X130.072 Y126.005 E.01474
G1 X115.805 Y140.271 E.58806
G1 X115.299 Y140.271 E.01474
G1 X130.072 Y125.499 E.60891
G1 X130.072 Y124.994 E.01474
G1 X114.794 Y140.271 E.62976
G1 X114.288 Y140.271 E.01474
G1 X130.071 Y124.488 E.65061
G1 X130.072 Y123.982 E.01474
G1 X113.782 Y140.271 E.67146
G1 X113.276 Y140.271 E.01474
G1 X130.072 Y123.476 E.69231
G1 X130.072 Y122.97 E.01474
G1 X112.77 Y140.271 E.71316
G1 X112.264 Y140.271 E.01474
G1 X129.709 Y122.827 E.71908
G1 X129.203 Y122.827 E.01474
G1 X111.758 Y140.271 E.71908
G1 X111.253 Y140.271 E.01474
G1 X128.697 Y122.827 E.71908
G1 X128.192 Y122.827 E.01474
G1 X110.747 Y140.271 E.71908
G1 X110.241 Y140.271 E.01474
G1 X127.686 Y122.827 E.71908
G1 X127.18 Y122.827 E.01474
G1 X109.735 Y140.271 E.71908
G1 X109.229 Y140.271 E.01474
G1 X126.674 Y122.827 E.71908
G1 X126.168 Y122.827 E.01474
G1 X108.723 Y140.271 E.71908
G1 X108.218 Y140.271 E.01474
G1 X125.662 Y122.827 E.71908
G1 X125.157 Y122.827 E.01474
G1 X107.712 Y140.271 E.71908
G1 X107.206 Y140.271 E.01474
G1 X124.651 Y122.827 E.71908
G1 X124.145 Y122.827 E.01474
G1 X106.7 Y140.271 E.71908
G1 X106.194 Y140.271 E.01474
G1 X123.639 Y122.827 E.71908
G1 X123.133 Y122.827 E.01474
G1 X105.688 Y140.271 E.71908
G1 X105.182 Y140.271 E.01474
G1 X122.627 Y122.827 E.71908
G1 X122.121 Y122.827 E.01474
G1 X104.677 Y140.271 E.71908
G1 X104.171 Y140.271 E.01474
G1 X121.616 Y122.827 E.71908
G1 X121.11 Y122.827 E.01474
G1 X103.665 Y140.271 E.71908
G1 X103.159 Y140.271 E.01474
G1 X120.604 Y122.827 E.71908
G1 X120.098 Y122.827 E.01474
G1 X102.653 Y140.271 E.71908
G1 X102.147 Y140.271 E.01474
G1 X119.592 Y122.827 E.71908
G1 X119.086 Y122.827 E.01474
G1 X101.642 Y140.271 E.71908
M73 P3 R83
G1 X101.136 Y140.271 E.01474
G1 X118.58 Y122.827 E.71908
G1 X118.075 Y122.827 E.01474
G1 X100.63 Y140.271 E.71908
G1 X100.124 Y140.271 E.01474
G1 X117.569 Y122.827 E.71908
G1 X117.063 Y122.827 E.01474
G1 X99.618 Y140.271 E.71908
G1 X99.112 Y140.271 E.01474
G1 X116.557 Y122.827 E.71908
G1 X116.051 Y122.827 E.01474
G1 X98.606 Y140.271 E.71908
G1 X98.101 Y140.271 E.01474
G1 X115.545 Y122.827 E.71908
G1 X115.04 Y122.827 E.01474
G1 X97.595 Y140.271 E.71908
G1 X97.089 Y140.271 E.01474
G1 X114.534 Y122.827 E.71908
G1 X114.028 Y122.827 E.01474
G1 X96.583 Y140.271 E.71908
G1 X96.077 Y140.271 E.01474
G1 X113.522 Y122.827 E.71908
G1 X113.016 Y122.827 E.01474
G1 X95.571 Y140.271 E.71908
G1 X95.065 Y140.271 E.01474
G1 X112.51 Y122.827 E.71908
G1 X112.004 Y122.827 E.01474
G1 X94.56 Y140.271 E.71908
G1 X94.054 Y140.271 E.01474
G1 X111.499 Y122.827 E.71908
G1 X110.993 Y122.827 E.01474
G1 X93.548 Y140.271 E.71908
G1 X93.042 Y140.271 E.01474
G1 X110.487 Y122.827 E.71908
G1 X109.981 Y122.827 E.01474
G1 X92.536 Y140.271 E.71908
G1 X92.03 Y140.271 E.01474
G1 X109.475 Y122.827 E.71908
G1 X108.969 Y122.827 E.01474
G1 X91.525 Y140.271 E.71908
G1 X91.019 Y140.271 E.01474
G1 X108.463 Y122.827 E.71908
G1 X107.958 Y122.827 E.01474
G1 X90.513 Y140.271 E.71908
G1 X90.007 Y140.271 E.01474
G1 X107.452 Y122.827 E.71908
M73 P3 R82
G1 X106.946 Y122.827 E.01474
G1 X89.501 Y140.271 E.71908
G1 X88.995 Y140.271 E.01474
G1 X106.44 Y122.827 E.71908
G1 X105.934 Y122.827 E.01474
G1 X88.489 Y140.271 E.71908
G1 X87.984 Y140.271 E.01474
G1 X105.428 Y122.827 E.71908
G1 X104.923 Y122.827 E.01474
G1 X87.627 Y140.122 E.71294
G1 X87.627 Y139.617 E.01474
G1 X104.417 Y122.827 E.69209
G1 X103.911 Y122.827 E.01474
G1 X87.627 Y139.111 E.67124
G1 X87.627 Y138.605 E.01474
G1 X103.405 Y122.827 E.65039
G1 X102.899 Y122.827 E.01474
G1 X87.627 Y138.099 E.62953
G1 X87.627 Y137.593 E.01474
G1 X102.393 Y122.827 E.60868
G1 X101.887 Y122.827 E.01474
G1 X87.627 Y137.087 E.58783
G1 X87.627 Y136.582 E.01474
G1 X101.382 Y122.827 E.56698
G1 X100.876 Y122.827 E.01474
G1 X87.627 Y136.076 E.54613
G1 X87.627 Y135.57 E.01474
G1 X100.37 Y122.827 E.52528
G1 X99.864 Y122.827 E.01474
G1 X87.627 Y135.064 E.50443
G1 X87.627 Y134.558 E.01474
G1 X99.358 Y122.827 E.48358
G1 X98.852 Y122.827 E.01474
G1 X87.627 Y134.052 E.46272
G1 X87.627 Y133.546 E.01474
G1 X98.347 Y122.827 E.44187
G1 X97.841 Y122.827 E.01474
G1 X87.627 Y133.041 E.42102
G1 X87.627 Y132.535 E.01474
G1 X97.335 Y122.827 E.40017
G1 X96.829 Y122.827 E.01474
G1 X87.627 Y132.029 E.37932
G1 X87.627 Y131.523 E.01474
G1 X96.323 Y122.827 E.35847
G1 X95.817 Y122.827 E.01474
G1 X87.627 Y131.017 E.33762
G1 X87.627 Y130.511 E.01474
G1 X95.311 Y122.827 E.31677
G1 X94.806 Y122.827 E.01474
G1 X87.627 Y130.006 E.29591
G1 X87.627 Y129.5 E.01474
G1 X94.3 Y122.827 E.27506
G1 X93.794 Y122.827 E.01474
G1 X87.627 Y128.994 E.25421
G1 X87.627 Y128.488 E.01474
G1 X93.288 Y122.827 E.23336
G1 X92.782 Y122.827 E.01474
G1 X87.627 Y127.982 E.21251
G1 X87.627 Y127.476 E.01474
G1 X92.276 Y122.827 E.19166
G1 X91.77 Y122.827 E.01474
G1 X87.627 Y126.97 E.17081
G1 X87.627 Y126.465 E.01474
G1 X91.265 Y122.827 E.14996
G1 X90.759 Y122.827 E.01474
G1 X87.627 Y125.959 E.1291
G1 X87.627 Y125.453 E.01474
G1 X90.253 Y122.827 E.10825
G1 X89.747 Y122.827 E.01474
G1 X87.627 Y124.947 E.0874
G1 X87.627 Y124.441 E.01474
G1 X89.241 Y122.827 E.06655
G1 X88.735 Y122.827 E.01474
G1 X87.627 Y123.935 E.0457
G1 X87.627 Y123.429 E.01474
G1 X88.39 Y122.666 E.03147
G1 X130.009 Y140.151 F9000
;WIDTH:0.38292
G1 F2400
G1 X129.945 Y140.188 E.00204
G1 X130.01 Y140.222 E.00204
; stop printing object Cube id:0 copy 0
;LAYER_CHANGE
;Z:0.6
;HEIGHT:0.2
;BEFORE_LAYER_CHANGE
;0.6
G92 E0

G10 ; retract
EXCLUDE_OBJECT_END NAME=Cube_id_0_copy_0
;_SET_FAN_SPEED_CHANGING_LAYER
; printing object Cube id:0 copy 0
EXCLUDE_OBJECT_START NAME=Cube_id_0_copy_0
G1 Z.8 F9000
G1 X87.338 Y122.538 Z.8
G1 Z.6
G11 ; unretract
;TYPE:Inner wall
;WIDTH:0.449999
G1 F2400
G1 X130.36 Y122.538 E1.42711
G1 X130.36 Y131.549 E.29891
