; generated by PrusaSlicer 2.7.1 on 2024-01-09 at 21:34:52 UTC
;FLAVOR:Marlin
;TIME:2895
;Filament used: 2.157510
;Layer height: 0.20
;MINX:0.000
;MINY:0.000
;MINZ:0.000
;MAXX:0.000
;MAXY:0.000
;MAXZ:0.000
;POSTPROCESSED
;Header generated for The Ender3v2 Professional Firmware
;https://github.com/mriscoc/Marlin_Ender3v2



;
;

;
;
; 

; external perimeters extrusion width = 0.42mm
; perimeters extrusion width = 0.44mm
; infill extrusion width = 0.44mm
; solid infill extrusion width = 0.44mm
; top infill extrusion width = 0.40mm
; first layer extrusion width = 0.42mm

M73 P0 R48

EXCLUDE_OBJECT_DEFINE NAME=trophy(1)_stl CENTER=118.265,107.193 POLYGON=[[119.739,92.220],[121.200,92.436],[122.632,92.795],[124.023,93.293],[125.358,93.923],[126.624,94.683],[127.810,95.562],[128.904,96.554],[129.895,97.648],[130.775,98.834],[131.534,100.101],[132.165,101.435],[132.663,102.825],[133.116,104.892],[136.642,104.882],[137.501,104.945],[138.384,105.372],[139.035,106.175],[139.272,107.193],[139.035,108.210],[138.384,109.014],[137.501,109.440],[136.642,109.504],[133.116,109.494],[132.663,111.561],[132.165,112.951],[131.534,114.285],[130.775,115.552],[129.895,116.738],[128.904,117.832],[127.810,118.824],[126.624,119.703],[125.358,120.463],[124.023,121.093],[122.632,121.591],[121.200,121.950],[119.739,122.166],[118.265,122.239],[116.790,122.166],[115.330,121.950],[113.897,121.591],[112.507,121.093],[111.172,120.463],[109.906,119.703],[108.720,118.824],[107.626,117.832],[106.634,116.738],[105.754,115.552],[104.996,114.285],[104.364,112.951],[103.867,111.561],[103.414,109.494],[99.888,109.504],[99.028,109.440],[98.146,109.014],[97.494,108.210],[97.258,107.193],[97.494,106.175],[98.146,105.372],[99.028,104.945],[99.888,104.882],[103.414,104.892],[103.867,102.825],[104.364,101.435],[104.996,100.101],[105.754,98.834],[106.634,97.648],[107.626,96.554],[108.720,95.562],[109.906,94.683],[111.172,93.923],[112.507,93.293],[113.897,92.795],[115.330,92.436],[116.790,92.220],[118.265,92.147]]

M190 S60 ; set bed temperature and wait for it to be reached
M104 S215 ; set temperature
;TYPE:Custom
M117 ; clear display for KAMP meshing
START_PRINT BED_TEMP=60 EXTRUDER_TEMP=215
M109 S215 ; set temperature and wait for it to be reached
G21 ; set units to millimeters
G90 ; use absolute coordinates
M83 ; use relative distances for extrusion
; Filament gcode
M107
;LAYER_CHANGE
;Z:0.2
;HEIGHT:0.2
;BEFORE_LAYER_CHANGE
G92 E0
;0.2


G10 ; retract
G1 Z.2 F15000
;AFTER_LAYER_CHANGE
;0.2
G1 X104.843 Y94.034
G11 ; unretract
M204 S500
;TYPE:Skirt/Brim
;WIDTH:0.42
G1 F2400
G1 X106.198 Y92.781 E.05787
G1 X107.67 Y91.667 E.05788
G1 X109.241 Y90.704 E.05778
G1 X110.903 Y89.898 E.05792
G1 X112.632 Y89.26 E.05778
G1 X114.418 Y88.795 E.05787
G1 X116.24 Y88.506 E.05784
G1 X118.08 Y88.397 E.05779
G1 X119.9 Y88.469 E.05711
G1 X121.751 Y88.723 E.05858
G1 X123.544 Y89.153 E.05781
G1 X125.288 Y89.758 E.05788
G1 X126.961 Y90.529 E.05776
G1 X128.555 Y91.463 E.05793
G1 X130.046 Y92.546 E.05778
G1 X131.425 Y93.773 E.05788
G1 X132.678 Y95.128 E.05787
G1 X133.79 Y96.597 E.05777
G1 X134.755 Y98.171 E.05789
G1 X135.559 Y99.829 E.05778
G1 X136.198 Y101.56 E.05785
G1 X136.664 Y103.346 E.05787
G1 X136.952 Y105.167 E.05781
G1 X137.06 Y107.009 E.05785
G1 X136.988 Y108.851 E.0578
G1 X136.735 Y110.679 E.05786
G1 X136.305 Y112.473 E.05784
G1 X135.7 Y114.216 E.05785
G1 X134.928 Y115.891 E.05783
G1 X133.996 Y117.481 E.05779
G1 X132.91 Y118.975 E.05791
G1 X131.686 Y120.353 E.05779
G1 X130.331 Y121.605 E.05784
G1 X128.859 Y122.719 E.05788
G1 X127.289 Y123.682 E.05775
G1 X125.626 Y124.488 E.05794
G1 X123.898 Y125.126 E.05776
G1 X122.112 Y125.591 E.05787
G1 X120.29 Y125.88 E.05784
G1 X118.45 Y125.989 E.05779
G1 X116.605 Y125.916 E.05789
G1 X114.779 Y125.663 E.0578
G1 X112.985 Y125.233 E.05784
G1 X111.242 Y124.628 E.05785
G1 X109.568 Y123.857 E.05779
G1 X107.975 Y122.923 E.0579
G1 X106.484 Y121.84 E.05778
G1 X105.104 Y120.613 E.0579
G1 X103.852 Y119.258 E.05784
G1 X102.74 Y117.79 E.05774
G1 X101.775 Y116.215 E.05792
G1 X100.971 Y114.557 E.05778
G1 X100.332 Y112.826 E.05785
G1 X99.866 Y111.04 E.05787
G1 X99.578 Y109.219 E.05781
G1 X99.469 Y107.376 E.05789
G1 X99.541 Y105.535 E.05777
G1 X99.794 Y103.707 E.05786
G1 X100.225 Y101.913 E.05785
G1 X100.83 Y100.169 E.05788
G1 X101.602 Y98.495 E.0578
G1 X102.534 Y96.905 E.05779
G1 X103.62 Y95.411 E.05791
G1 X104.804 Y94.078 E.0559
G1 X105.085 Y94.329 F15000
G1 F2400
G1 X105.123 Y94.287 E.00178
G1 X106.452 Y93.06 E.05671
G1 X107.895 Y91.97 E.0567
G1 X109.435 Y91.027 E.05662
G1 X111.064 Y90.239 E.05674
G1 X112.759 Y89.615 E.05663
G1 X114.509 Y89.16 E.05669
G1 X116.295 Y88.879 E.05669
G1 X118.098 Y88.774 E.05663
G1 X119.881 Y88.845 E.05595
G1 X121.696 Y89.096 E.05745
G1 X123.453 Y89.519 E.05666
G1 X125.161 Y90.113 E.0567
G1 X126.8 Y90.87 E.05661
G1 X128.361 Y91.787 E.05676
G1 X129.821 Y92.849 E.05661
G1 X131.172 Y94.052 E.05672
G1 X132.398 Y95.381 E.05669
G1 X133.487 Y96.821 E.05661
G1 X134.431 Y98.365 E.05674
G1 X135.218 Y99.991 E.05664
G1 X135.843 Y101.687 E.05667
G1 X136.298 Y103.437 E.05669
G1 X136.579 Y105.223 E.05669
G1 X136.684 Y107.027 E.05666
G1 X136.612 Y108.833 E.05667
G1 X136.362 Y110.624 E.0567
G1 X135.939 Y112.381 E.05666
G1 X135.345 Y114.089 E.0567
G1 X134.587 Y115.73 E.05668
G1 X133.672 Y117.288 E.05665
G1 X132.607 Y118.75 E.05671
G1 X131.407 Y120.099 E.05661
G1 X130.078 Y121.326 E.05671
G1 X128.635 Y122.416 E.0567
G1 X127.095 Y123.359 E.05662
G1 X125.465 Y124.147 E.05677
G1 X123.771 Y124.771 E.0566
G1 X122.02 Y125.226 E.05672
G1 X120.235 Y125.507 E.05666
G1 X118.431 Y125.612 E.05666
G1 X116.624 Y125.539 E.0567
G1 X114.834 Y125.29 E.05666
G1 X113.077 Y124.867 E.05666
G1 X111.369 Y124.273 E.0567
G1 X109.729 Y123.516 E.05663
G1 X108.169 Y122.599 E.05674
G1 X106.709 Y121.537 E.05661
G1 X105.357 Y120.334 E.05674
G1 X104.132 Y119.005 E.05667
G1 X103.043 Y117.565 E.05661
G1 X102.099 Y116.021 E.05674
G1 X101.312 Y114.395 E.05664
G1 X100.687 Y112.699 E.05667
G1 X100.232 Y110.949 E.05669
G1 X99.951 Y109.163 E.05669
G1 X99.846 Y107.358 E.05669
G1 X99.918 Y105.553 E.05664
G1 X100.167 Y103.762 E.0567
G1 X100.591 Y102.005 E.05667
G1 X101.185 Y100.296 E.05673
G1 X101.943 Y98.656 E.05665
G1 X102.857 Y97.098 E.05664
G1 X103.922 Y95.636 E.05671
G1 X105.045 Y94.374 E.05297
EXCLUDE_OBJECT_START NAME=trophy(1)_stl
G10 ; retract
G1 X105.045 Y94.374 Z.6 F15000
G1 X108.379 Y97.307
G1 Z.2
G11 ; unretract
;TYPE:Perimeter
;WIDTH:0.419999
G1 F2400
G1 X109.396 Y96.386 E.04302
G1 X110.498 Y95.569 E.04301
G1 X111.674 Y94.863 E.04301
G1 X112.915 Y94.277 E.04303
G1 X114.207 Y93.815 E.04302
G1 X115.538 Y93.481 E.04303
G1 X116.895 Y93.28 E.04301
G1 X118.265 Y93.212 E.04301
G1 X119.616 Y93.279 E.04241
G1 X120.993 Y93.481 E.04364
G1 X122.323 Y93.815 E.043
G1 X123.615 Y94.277 E.04302
G1 X124.855 Y94.863 E.043
G1 X126.032 Y95.569 E.04303
G1 X127.134 Y96.386 E.04301
G1 X128.151 Y97.307 E.04302
G1 X129.072 Y98.324 E.04302
G1 X129.889 Y99.426 E.04301
G1 X130.595 Y100.603 E.04303
G1 X131.181 Y101.843 E.043
G1 X131.644 Y103.135 E.04303
G1 X131.977 Y104.465 E.04299
G1 X132.178 Y105.823 E.04304
G1 X132.212 Y106.508 E.0215
G1 X132.245 Y107.193 E.0215
G1 X132.178 Y108.563 E.04301
G1 X131.977 Y109.921 E.04304
G1 X131.644 Y111.252 E.04302
G1 X131.181 Y112.543 E.043
G1 X130.595 Y113.783 E.043
G1 X129.889 Y114.96 E.04303
G1 X129.072 Y116.062 E.04301
G1 X128.151 Y117.079 E.04302
G1 X127.134 Y118 E.04302
G1 X126.032 Y118.817 E.04301
G1 X124.855 Y119.523 E.04303
G1 X123.615 Y120.109 E.043
G1 X122.323 Y120.572 E.04303
G1 X120.992 Y120.905 E.04302
G1 X119.635 Y121.106 E.04301
G1 X118.265 Y121.174 E.04301
G1 X116.895 Y121.106 E.04301
G1 X115.538 Y120.905 E.04301
G1 X114.207 Y120.572 E.04302
G1 X112.915 Y120.109 E.04303
G1 X111.674 Y119.523 E.04303
G1 X110.498 Y118.817 E.04301
G1 X109.396 Y118 E.04301
G1 X108.379 Y117.079 E.04302
G1 X107.458 Y116.062 E.04302
G1 X106.64 Y114.96 E.04303
G1 X105.935 Y113.783 E.04302
G1 X105.348 Y112.543 E.04302
G1 X104.886 Y111.252 E.04299
G1 X104.553 Y109.921 E.04302
G1 X104.351 Y108.563 E.04305
G1 X104.284 Y107.193 E.04301
G1 X104.351 Y105.823 E.04301
G1 X104.553 Y104.465 E.04305
G1 X104.886 Y103.135 E.04299
G1 X105.348 Y101.843 E.04302
G1 X105.935 Y100.603 E.04302
G1 X106.64 Y99.426 E.04302
G1 X107.458 Y98.324 E.04303
G1 X108.339 Y97.352 E.04113
G1 X108.112 Y97.04 F15000
G1 F2400
G1 X109.156 Y96.094 E.04417
G1 X110.288 Y95.255 E.04418
G1 X111.496 Y94.53 E.04417
G1 X112.77 Y93.928 E.04418
G1 X114.097 Y93.453 E.04419
G1 X115.464 Y93.111 E.04418
G1 X116.858 Y92.904 E.04419
G1 X118.265 Y92.835 E.04417
G1 X119.653 Y92.903 E.04357
G1 X121.066 Y93.111 E.04478
G1 X122.433 Y93.453 E.04418
G1 X123.759 Y93.928 E.04416
G1 X125.033 Y94.53 E.04418
G1 X126.242 Y95.255 E.0442
G1 X127.374 Y96.094 E.04418
G1 X128.418 Y97.04 E.04417
G1 X129.364 Y98.085 E.0442
G1 X130.203 Y99.216 E.04415
G1 X130.927 Y100.425 E.04418
G1 X131.53 Y101.698 E.04417
G1 X132.005 Y103.025 E.04419
G1 X132.347 Y104.392 E.04418
G1 X132.554 Y105.786 E.04419
G1 X132.588 Y106.49 E.0221
G1 X132.623 Y107.193 E.02207
G1 X132.554 Y108.6 E.04417
G1 X132.347 Y109.994 E.04419
G1 X132.005 Y111.361 E.04418
G1 X131.53 Y112.688 E.04419
G1 X130.927 Y113.961 E.04417
G1 X130.203 Y115.17 E.04418
G1 X129.364 Y116.301 E.04415
G1 X128.418 Y117.346 E.0442
G1 X127.374 Y118.292 E.04417
G1 X126.242 Y119.131 E.04418
G1 X125.033 Y119.856 E.0442
G1 X123.759 Y120.458 E.04418
G1 X122.433 Y120.933 E.04416
G1 X121.066 Y121.275 E.04418
G1 X119.672 Y121.482 E.04419
G1 X118.265 Y121.551 E.04417
G1 X116.858 Y121.482 E.04417
G1 X115.464 Y121.275 E.04419
G1 X114.097 Y120.933 E.04418
G1 X112.77 Y120.458 E.04419
G1 X111.496 Y119.856 E.04418
G1 X110.288 Y119.131 E.04417
G1 X109.156 Y118.292 E.04418
G1 X108.112 Y117.346 E.04417
G1 X107.166 Y116.301 E.0442
G1 X106.326 Y115.17 E.04417
G1 X105.602 Y113.961 E.04418
G1 X105 Y112.688 E.04415
G1 X104.525 Y111.361 E.04419
G1 X104.183 Y109.994 E.04418
G1 X103.976 Y108.6 E.04419
G1 X103.907 Y107.193 E.04417
G1 X103.976 Y105.786 E.04417
G1 X104.183 Y104.392 E.04419
G1 X104.525 Y103.025 E.04418
G1 X105 Y101.698 E.04419
G1 X105.602 Y100.425 E.04415
G1 X106.326 Y99.216 E.04418
G1 X107.166 Y98.085 E.04417
G1 X108.072 Y97.085 E.04231
G1 X107.845 Y96.773 F15000
;TYPE:External perimeter
G1 F1920
G1 X108.917 Y95.802 E.04535
G1 X110.078 Y94.941 E.04532
G1 X111.319 Y94.197 E.04537
G1 X112.626 Y93.579 E.04533
G1 X113.987 Y93.092 E.04532
G1 X115.39 Y92.741 E.04535
G1 X116.821 Y92.528 E.04536
G1 X118.265 Y92.457 E.04533
G1 X119.689 Y92.528 E.0447
G1 X121.14 Y92.741 E.04598
G1 X122.542 Y93.092 E.04532
G1 X123.904 Y93.579 E.04535
G1 X125.211 Y94.197 E.04533
G1 X126.451 Y94.941 E.04534
G1 X127.613 Y95.802 E.04535
G1 X128.685 Y96.773 E.04535
G1 X129.655 Y97.845 E.04533
G1 X130.517 Y99.006 E.04534
G1 X131.26 Y100.247 E.04535
G1 X131.879 Y101.554 E.04534
G1 X132.366 Y102.915 E.04532
G1 X132.717 Y104.318 E.04535
G1 X132.93 Y105.749 E.04536
G1 X132.965 Y106.471 E.02266
G1 X133 Y107.193 E.02266
G1 X132.93 Y108.637 E.04533
G1 X132.717 Y110.068 E.04536
G1 X132.366 Y111.471 E.04535
G1 X131.879 Y112.832 E.04532
G1 X131.26 Y114.139 E.04534
G1 X130.517 Y115.38 E.04535
G1 X129.655 Y116.541 E.04534
G1 X128.685 Y117.613 E.04533
G1 X127.613 Y118.584 E.04535
G1 X126.451 Y119.445 E.04535
G1 X125.211 Y120.189 E.04534
G1 X123.904 Y120.807 E.04533
G1 X122.542 Y121.294 E.04535
G1 X121.139 Y121.645 E.04535
G1 X119.709 Y121.858 E.04533
G1 X118.265 Y121.929 E.04533
G1 X116.821 Y121.858 E.04533
G1 X115.39 Y121.645 E.04536
G1 X113.987 Y121.294 E.04535
G1 X112.626 Y120.807 E.04532
G1 X111.319 Y120.189 E.04533
G1 X110.078 Y119.445 E.04537
G1 X108.917 Y118.584 E.04532
G1 X107.845 Y117.613 E.04535
G1 X106.874 Y116.541 E.04535
G1 X106.013 Y115.38 E.04532
G1 X105.269 Y114.139 E.04537
G1 X104.651 Y112.832 E.04533
G1 X104.164 Y111.471 E.04532
G1 X103.812 Y110.068 E.04535
G1 X103.6 Y108.637 E.04536
G1 X103.529 Y107.193 E.04533
G1 X103.6 Y105.749 E.04533
G1 X103.812 Y104.318 E.04536
G1 X104.164 Y102.915 E.04535
G1 X104.651 Y101.554 E.04532
G1 X105.269 Y100.247 E.04533
G1 X106.013 Y99.006 E.04537
G1 X106.874 Y97.845 E.04532
G1 X107.805 Y96.818 E.04346
G1 X108.098 Y96.546 F15000
G10 ; retract
G1 Z.6
G1 X129.403 Y98.972
G1 Z.2
G11 ; unretract
;TYPE:Solid infill
;WIDTH:0.423156
G1 F1920
G1 X127.924 Y97.494 E.06611
G1 X126.95 Y96.611 E.04157
M73 P0 R47
G1 X125.87 Y95.81 E.04251
G1 X125.452 Y95.56 E.0154
G1 X129.899 Y100.006 E.19882
G1 X130.338 Y100.74 E.02704
G1 X130.557 Y101.202 E.01616
G1 X124.256 Y94.901 E.28174
G1 X123.504 Y94.546 E.02629
G1 X123.284 Y94.467 E.00739
G1 X130.992 Y102.175 E.34465
G1 X131.291 Y103.012 E.0281
G1 X122.446 Y94.167 E.39549
G1 X122.239 Y94.093 E.00695
G1 X121.699 Y93.958 E.0176
G1 X131.501 Y103.759 E.43825
G1 X131.68 Y104.477 E.0234
G1 X120.982 Y93.778 E.47836
G1 X120.346 Y93.68 E.02035
G1 X131.78 Y105.113 E.51122
G1 X131.873 Y105.745 E.0202
G1 X119.715 Y93.587 E.54362
G1 X119.137 Y93.546 E.01832
G1 X131.912 Y106.321 E.57121
G1 X131.94 Y106.887 E.01792
G1 X118.571 Y93.518 E.59777
G1 X118.265 Y93.503 E.00969
G1 X118.03 Y93.515 E.00744
G1 X131.943 Y107.428 E.62209
G1 X131.918 Y107.941 E.01624
G1 X117.517 Y93.54 E.64391
G1 X117.005 Y93.565 E.01621
G1 X131.893 Y108.453 E.66568
G1 X131.831 Y108.929 E.01518
G1 X116.53 Y93.628 E.68415
G1 X116.061 Y93.697 E.01499
G1 X131.761 Y109.397 E.70199
G1 X131.692 Y109.865 E.01496
G1 X115.593 Y93.767 E.71981
G1 X115.163 Y93.874 E.01401
G1 X131.584 Y110.295 E.73423
G1 X131.476 Y110.725 E.01402
G1 X114.733 Y93.982 E.74863
G1 X114.303 Y94.09 E.01402
G1 X131.368 Y111.155 E.76302
G1 X131.228 Y111.552 E.01331
G1 X113.906 Y94.231 E.77449
G1 X113.51 Y94.372 E.01329
G1 X131.086 Y111.948 E.78587
G1 X130.944 Y112.344 E.0133
M73 P1 R47
G1 X113.114 Y94.514 E.79723
G1 X112.742 Y94.68 E.01288
G1 X130.778 Y112.716 E.80644
G1 X130.606 Y113.081 E.01276
G1 X112.377 Y94.852 E.81507
G1 X112.012 Y95.025 E.01277
G1 X130.433 Y113.446 E.82366
G1 X130.247 Y113.798 E.01259
G1 X111.66 Y95.211 E.83108
G1 X111.324 Y95.412 E.01238
G1 X130.046 Y114.134 E.83711
G1 X129.844 Y114.471 E.01242
G1 X110.987 Y95.614 E.84315
G1 X110.659 Y95.81 E.01208
G1 X129.642 Y114.806 E.84907
G1 X129.413 Y115.115 E.01216
G1 X110.343 Y96.045 E.85267
G1 X110.034 Y96.274 E.01216
G1 X129.184 Y115.424 E.85625
G1 X128.955 Y115.732 E.01213
G1 X109.725 Y96.503 E.85981
G1 X109.431 Y96.746 E.01206
G1 X128.712 Y116.027 E.86211
G1 X128.456 Y116.309 E.01204
G1 X109.149 Y97.001 E.86329
G1 X108.867 Y97.257 E.01204
G1 X128.201 Y116.591 E.86448
G1 X127.945 Y116.873 E.01204
G1 X108.585 Y97.513 E.86564
G1 X108.329 Y97.795 E.01204
G1 X127.663 Y117.129 E.86448
G1 X127.381 Y117.385 E.01204
G1 X108.073 Y98.077 E.86332
G1 X107.818 Y98.359 E.01202
G1 X127.099 Y117.64 E.86211
G1 X126.804 Y117.883 E.01208
G1 X107.575 Y98.654 E.85978
G1 X107.346 Y98.963 E.01216
G1 X126.495 Y118.112 E.85621
G1 X126.187 Y118.341 E.01213
G1 X107.117 Y99.271 E.85267
G1 X106.888 Y99.58 E.01216
G1 X125.878 Y118.57 E.8491
G1 X125.542 Y118.772 E.0124
G1 X106.685 Y99.916 E.84313
G1 X106.484 Y100.252 E.01238
G1 X125.206 Y118.974 E.83711
G1 X124.87 Y119.176 E.0124
G1 X106.283 Y100.588 E.8311
G1 X106.097 Y100.94 E.01259
G1 X124.518 Y119.361 E.82366
G1 X124.153 Y119.534 E.01277
G1 X105.924 Y101.305 E.81507
G1 X105.751 Y101.67 E.01277
G1 X123.788 Y119.706 E.80646
G1 X123.416 Y119.872 E.01288
G1 X105.586 Y102.042 E.79723
G1 X105.444 Y102.438 E.0133
G1 X123.02 Y120.014 E.78587
G1 X122.624 Y120.156 E.0133
G1 X105.302 Y102.834 E.77452
G1 X105.161 Y103.231 E.01332
G1 X122.227 Y120.296 E.76305
G1 X121.797 Y120.404 E.01402
G1 X105.054 Y103.661 E.74863
G1 X104.946 Y104.091 E.01402
M73 P2 R47
G1 X121.367 Y120.512 E.73423
G1 X120.936 Y120.619 E.01404
G1 X104.838 Y104.521 E.71979
G1 X104.769 Y104.989 E.01496
G1 X120.468 Y120.689 E.70197
G1 X120 Y120.758 E.01496
G1 X104.699 Y105.458 E.68413
G1 X104.637 Y105.933 E.01515
G1 X119.525 Y120.821 E.66568
G1 X119.012 Y120.846 E.01624
G1 X104.612 Y106.446 E.64386
G1 X104.587 Y106.958 E.01621
G1 X118.5 Y120.871 E.62209
G1 X118.265 Y120.883 E.00744
G1 X117.959 Y120.868 E.00969
G1 X104.59 Y107.499 E.59777
G1 X104.618 Y108.065 E.01792
G1 X117.393 Y120.84 E.57121
