; generated by PrusaSlicer 2.7.1 on 2024-01-11 at 13:02:05 UTC
;FLAVOR:Marlin
;TIME:3076
;Filament used: 4.398240
;Layer height: 0.20
;MINX:0.000
;MINY:0.000
;MINZ:0.000
;MAXX:0.000
;MAXY:0.000
;MAXZ:0.000
;POSTPROCESSED
;Header generated for The Ender3v2 Professional Firmware
;https://github.com/mriscoc/Marlin_Ender3v2



;
;

;
;
; 

; external perimeters extrusion width = 0.42mm
; perimeters extrusion width = 0.44mm
; infill extrusion width = 0.44mm
; solid infill extrusion width = 0.44mm
; top infill extrusion width = 0.40mm
; first layer extrusion width = 0.42mm

M73 P0 R51
M73 C49

EXCLUDE_OBJECT_DEFINE NAME=Shape_Box_single CENTER=118.097,109.300 POLYGON=[[138.097,119.300],[98.097,119.300],[98.097,99.300],[138.097,99.300]]

M190 S60 ; set bed temperature and wait for it to be reached
M104 S215 ; set temperature
;TYPE:Custom
M117 ; clear display for KAMP meshing
START_PRINT BED_TEMP=60 EXTRUDER_TEMP=215
M109 S215 ; set temperature and wait for it to be reached
G21 ; set units to millimeters
G90 ; use absolute coordinates
M83 ; use relative distances for extrusion
; Filament gcode
M107
;LAYER_CHANGE
;Z:0.2
;HEIGHT:0.2
;BEFORE_LAYER_CHANGE
G92 E0
;0.2


G10 ; retract
G1 Z.2 F15000
;AFTER_LAYER_CHANGE
;0.2
G1 X96.205 Y96.504
G11 ; unretract
M204 S500
;TYPE:Skirt/Brim
;WIDTH:0.42
G1 F2400
G1 X98.097 Y95.923 E.06206
G1 X138.097 Y95.923 E1.25417
G1 X139.681 Y96.317 E.05118
G1 X140.894 Y97.408 E.05115
G1 X141.474 Y99.3 E.06205
G1 X141.474 Y119.3 E.62709
G1 X141.08 Y120.883 E.05115
G1 X139.99 Y122.097 E.05116
G1 X138.097 Y122.677 E.06208
G1 X98.097 Y122.677 E1.25417
G1 X96.514 Y122.283 E.05115
G1 X95.301 Y121.193 E.05113
G1 X94.72 Y119.3 E.06209
G1 X94.72 Y99.3 E.62709
G1 X95.114 Y97.717 E.05115
G1 X96.165 Y96.548 E.04929
EXCLUDE_OBJECT_START NAME=Shape_Box_single
G10 ; retract
G1 X96.165 Y96.548 Z.6 F15000
G1 X99.162 Y100.364
G1 Z.2
G11 ; unretract
;TYPE:Perimeter
;WIDTH:0.419999
G1 F2400
G1 X137.033 Y100.364 E1.18742
G1 X137.033 Y109.3 E.28018
G1 X137.033 Y118.236 E.28018
G1 X99.162 Y118.236 E1.18742
G1 X99.162 Y100.424 E.55848
G1 X98.784 Y99.987 F15000
G1 F2400
G1 X137.41 Y99.987 E1.21109
G1 X137.41 Y109.3 E.292
G1 X137.41 Y118.613 E.292
G1 X98.784 Y118.613 E1.21109
G1 X98.784 Y100.047 E.58212
G1 X98.407 Y99.61 F15000
;TYPE:External perimeter
G1 F1920
G1 X137.787 Y99.61 E1.23473
G1 X137.787 Y109.3 E.30382
G1 X137.787 Y118.99 E.30382
G1 X98.407 Y118.99 E1.23473
G1 X98.407 Y99.67 E.60576
G1 X98.803 Y99.611 F15000
G10 ; retract
G1 Z.6
G1 X136.913 Y101.253
G1 Z.2
G11 ; unretract
;TYPE:Solid infill
;WIDTH:0.422808
G1 F1920
G1 X136.314 Y100.655 E.02674
G1 X135.777 Y100.655 E.01696
G1 X136.743 Y101.621 E.04315
G1 X136.743 Y102.158 E.01696
G1 X135.24 Y100.655 E.06714
G1 X134.702 Y100.655 E.01699
G1 X136.743 Y102.695 E.09115
G1 X136.743 Y103.233 E.01699
G1 X134.165 Y100.655 E.11516
G1 X133.628 Y100.655 E.01696
G1 X136.743 Y103.77 E.13915
G1 X136.743 Y104.307 E.01696
M73 P0 R50
G1 X133.091 Y100.655 E.16314
G1 X132.553 Y100.655 E.01699
G1 X136.743 Y104.844 E.18715
G1 X136.743 Y105.382 E.01699
G1 X132.016 Y100.655 E.21116
G1 X131.479 Y100.655 E.01696
G1 X136.743 Y105.919 E.23515
G1 X136.743 Y106.456 E.01696
G1 X130.942 Y100.655 E.25914
G1 X130.404 Y100.655 E.01699
G1 X136.743 Y106.993 E.28315
G1 X136.743 Y107.531 E.01699
G1 X129.867 Y100.655 E.30716
G1 X129.33 Y100.655 E.01696
G1 X136.743 Y108.068 E.33115
G1 X136.743 Y108.605 E.01696
G1 X128.793 Y100.655 E.35514
G1 X128.255 Y100.655 E.01699
G1 X136.743 Y109.142 E.37915
G1 X136.743 Y109.68 E.01699
G1 X127.718 Y100.655 E.40316
G1 X127.181 Y100.655 E.01696
G1 X136.743 Y110.217 E.42715
G1 X136.743 Y110.754 E.01696
G1 X126.644 Y100.655 E.45114
G1 X126.106 Y100.655 E.01699
G1 X136.743 Y111.291 E.47515
G1 X136.743 Y111.829 E.01699
G1 X125.569 Y100.655 E.49916
G1 X125.032 Y100.655 E.01696
G1 X136.743 Y112.366 E.52315
G1 X136.743 Y112.903 E.01696
G1 X124.495 Y100.655 E.54714
G1 X123.957 Y100.655 E.01699
G1 X136.743 Y113.44 E.57115
G1 X136.743 Y113.978 E.01699
G1 X123.42 Y100.655 E.59516
G1 X122.883 Y100.655 E.01696
G1 X136.743 Y114.515 E.61915
G1 X136.743 Y115.052 E.01696
G1 X122.346 Y100.655 E.64314
G1 X121.808 Y100.655 E.01699
G1 X136.743 Y115.589 E.66715
G1 X136.743 Y116.126 E.01696
G1 X121.271 Y100.655 E.69114
G1 X120.734 Y100.655 E.01696
G1 X136.743 Y116.664 E.71515
G1 X136.743 Y117.201 E.01696
G1 X120.197 Y100.655 E.73914
G1 X119.659 Y100.655 E.01699
G1 X136.743 Y117.738 E.76315
G1 X136.743 Y117.946 E.00657
G1 X136.413 Y117.946 E.01042
G1 X119.122 Y100.655 E.77242
G1 X118.585 Y100.655 E.01696
M73 P1 R50
G1 X135.876 Y117.946 E.77242
G1 X135.339 Y117.946 E.01696
G1 X118.048 Y100.655 E.77242
G1 X117.511 Y100.655 E.01696
G1 X134.801 Y117.946 E.7724
G1 X134.264 Y117.946 E.01696
G1 X116.973 Y100.655 E.77242
G1 X116.436 Y100.655 E.01696
G1 X133.727 Y117.946 E.77242
G1 X133.19 Y117.946 E.01696
G1 X115.899 Y100.655 E.77242
G1 X115.362 Y100.655 E.01696
G1 X132.653 Y117.946 E.77242
G1 X132.115 Y117.946 E.01699
G1 X114.824 Y100.655 E.77242
G1 X114.287 Y100.655 E.01696
M73 C48
G1 X131.578 Y117.946 E.77242
G1 X131.041 Y117.946 E.01696
G1 X113.75 Y100.655 E.77242
G1 X113.213 Y100.655 E.01696
G1 X130.504 Y117.946 E.77242
G1 X129.966 Y117.946 E.01699
G1 X112.675 Y100.655 E.77242
G1 X112.138 Y100.655 E.01696
G1 X129.429 Y117.946 E.77242
G1 X128.892 Y117.946 E.01696
G1 X111.601 Y100.655 E.77242
G1 X111.064 Y100.655 E.01696
G1 X128.355 Y117.946 E.77242
G1 X127.817 Y117.946 E.01699
G1 X110.526 Y100.655 E.77242
G1 X109.989 Y100.655 E.01696
G1 X127.28 Y117.946 E.77242
G1 X126.743 Y117.946 E.01696
G1 X109.452 Y100.655 E.77242
G1 X108.915 Y100.655 E.01696
G1 X126.206 Y117.946 E.77242
G1 X125.668 Y117.946 E.01699
G1 X108.377 Y100.655 E.77242
G1 X107.84 Y100.655 E.01696
G1 X125.131 Y117.946 E.77242
G1 X124.594 Y117.946 E.01696
G1 X107.303 Y100.655 E.77242
G1 X106.766 Y100.655 E.01696
G1 X124.057 Y117.946 E.77242
G1 X123.519 Y117.946 E.01699
G1 X106.228 Y100.655 E.77242
G1 X105.691 Y100.655 E.01696
G1 X122.982 Y117.946 E.77242
G1 X122.445 Y117.946 E.01696
G1 X105.154 Y100.655 E.77242
G1 X104.617 Y100.655 E.01696
G1 X121.908 Y117.946 E.77242
G1 X121.37 Y117.946 E.01699
G1 X104.079 Y100.655 E.77242
G1 X103.542 Y100.655 E.01696
G1 X120.833 Y117.946 E.77242
G1 X120.296 Y117.946 E.01696
G1 X103.005 Y100.655 E.77242
G1 X102.468 Y100.655 E.01696
G1 X119.759 Y117.946 E.77242
G1 X119.221 Y117.946 E.01699
G1 X101.93 Y100.655 E.77242
G1 X101.393 Y100.655 E.01696
G1 X118.684 Y117.946 E.77242
G1 X118.147 Y117.946 E.01696
G1 X100.856 Y100.655 E.77242
G1 X100.319 Y100.655 E.01696
G1 X117.61 Y117.946 E.77242
G1 X117.072 Y117.946 E.01699
G1 X99.781 Y100.655 E.77242
G1 X99.452 Y100.655 E.01039
G1 X99.452 Y100.862 E.00654
G1 X116.535 Y117.946 E.76315
G1 X115.998 Y117.946 E.01696
M73 P2 R50
G1 X99.452 Y101.4 E.73914
G1 X99.452 Y101.937 E.01696
G1 X115.461 Y117.946 E.71515
G1 X114.924 Y117.946 E.01696
G1 X99.452 Y102.474 E.69116
G1 X99.452 Y103.011 E.01696
G1 X114.386 Y117.946 E.66715
G1 X113.849 Y117.946 E.01696
G1 X99.452 Y103.549 E.64314
G1 X99.452 Y104.086 E.01696
G1 X113.312 Y117.946 E.61915
G1 X112.775 Y117.946 E.01696
G1 X99.452 Y104.623 E.59516
G1 X99.452 Y105.16 E.01696
G1 X112.237 Y117.946 E.57115
G1 X111.7 Y117.946 E.01696
G1 X99.452 Y105.698 E.54714
G1 X99.452 Y106.235 E.01696
G1 X111.163 Y117.946 E.52315
G1 X110.626 Y117.946 E.01696
G1 X99.452 Y106.772 E.49916
G1 X99.452 Y107.309 E.01696
G1 X110.088 Y117.946 E.47515
G1 X109.551 Y117.946 E.01696
G1 X99.452 Y107.847 E.45114
G1 X99.452 Y108.384 E.01696
G1 X109.014 Y117.946 E.42715
G1 X108.477 Y117.946 E.01696
G1 X99.452 Y108.921 E.40316
G1 X99.452 Y109.458 E.01696
G1 X107.939 Y117.946 E.37915
G1 X107.402 Y117.946 E.01696
G1 X99.452 Y109.996 E.35514
G1 X99.452 Y110.533 E.01696
G1 X106.865 Y117.946 E.33115
G1 X106.328 Y117.946 E.01696
G1 X99.452 Y111.07 E.30716
G1 X99.452 Y111.607 E.01696
G1 X105.79 Y117.946 E.28315
G1 X105.253 Y117.946 E.01696
G1 X99.452 Y112.145 E.25914
G1 X99.452 Y112.682 E.01696
G1 X104.716 Y117.946 E.23515
G1 X104.179 Y117.946 E.01696
G1 X99.452 Y113.219 E.21116
G1 X99.452 Y113.756 E.01696
G1 X103.641 Y117.946 E.18715
G1 X103.104 Y117.946 E.01696
G1 X99.452 Y114.294 E.16314
G1 X99.452 Y114.831 E.01696
G1 X102.567 Y117.946 E.13915
G1 X102.03 Y117.946 E.01696
G1 X99.452 Y115.368 E.11516
G1 X99.452 Y115.905 E.01696
G1 X101.492 Y117.946 E.09115
G1 X100.955 Y117.946 E.01696
G1 X99.452 Y116.442 E.06716
G1 X99.452 Y116.98 E.01699
G1 X100.418 Y117.946 E.04315
G1 X99.881 Y117.946 E.01696
G1 X99.282 Y117.347 E.02676
EXCLUDE_OBJECT_END NAME=Shape_Box_single
M106 S127.5
;LAYER_CHANGE
;Z:0.4
;HEIGHT:0.2
;BEFORE_LAYER_CHANGE
G92 E0
;0.4


G10 ; retract
G1 Z.4 F15000
;AFTER_LAYER_CHANGE
;0.4
M104 S210 ; set temperature
G1 X99.282 Y117.347 Z.8
G1 X94.72 Y117.347
G1 Z.4
G11 ; unretract
;TYPE:Skirt/Brim
;WIDTH:0.42
G1 F6000
G1 X94.72 Y99.3 E.56585
G1 X95.114 Y97.717 E.05115
G1 X96.205 Y96.504 E.05115
M73 P2 R49
G1 X98.097 Y95.923 E.06206
G1 X138.097 Y95.923 E1.25417
G1 X139.681 Y96.317 E.05118
G1 X140.894 Y97.408 E.05115
G1 X141.474 Y99.3 E.06205
G1 X141.474 Y119.3 E.62709
G1 X141.08 Y120.883 E.05115
G1 X139.99 Y122.097 E.05116
G1 X138.097 Y122.677 E.06208
G1 X98.097 Y122.677 E1.25417
G1 X96.514 Y122.283 E.05115
G1 X95.301 Y121.193 E.05113
G1 X94.72 Y119.3 E.06209
G1 X94.72 Y117.407 E.05935
EXCLUDE_OBJECT_START NAME=Shape_Box_single
G10 ; retract
G1 X94.72 Y117.407 Z.8 F15000
G1 X99.092 Y118.306
G1 Z.4
G11 ; unretract
;TYPE:Perimeter
;WIDTH:0.439999
G1 F6000
G1 X99.092 Y100.294 E.59471
G1 X137.103 Y100.294 E1.25502
G1 X137.103 Y109.3 E.29735
G1 X137.103 Y118.306 E.29735
G1 X99.152 Y118.306 E1.25304
G1 X98.694 Y118.703 F15000
G1 F6000
G1 X98.694 Y99.897 E.62092
G1 X137.5 Y99.897 E1.28127
G1 X137.5 Y109.3 E.31046
G1 X137.5 Y118.703 E.31046
G1 X98.754 Y118.703 E1.27929
G1 X98.307 Y119.09 F15000
;TYPE:External perimeter
;WIDTH:0.419999
G1 F4800
G1 X98.307 Y99.51 E.61392
G1 X137.887 Y99.51 E1.241
G1 X137.887 Y109.3 E.30696
G1 X137.887 Y119.09 E.30696
G1 X98.367 Y119.09 E1.23912
G1 X98.308 Y118.695 F15000
G10 ; retract
G1 Z.8
G1 X99.505 Y100.632
G1 Z.4
G11 ; unretract
;TYPE:Solid infill
;WIDTH:0.53634
G1 F4800
G1 X99.461 Y100.589 E.00252
G1 X99.402 Y100.605 E.00251
G1 X99.386 Y100.664 E.00251
G1 X99.429 Y100.708 E.00252
G1 X99.489 Y100.692 E.00255
;WIDTH:0.439999
G1 X99.397 Y101.326 E.02115
G1 X100.123 Y100.6 E.0339
G1 X100.215 Y100.531 E.0038
;WIDTH:0.41146
G1 X100.306 Y100.461 E.00352
;WIDTH:0.38292
G1 X100.265 Y100.472 E.0012
G1 X100.246 Y100.401 E.00208
G1 X100.317 Y100.42 E.00208
;WIDTH:0.439999
G1 X100.685 Y100.6 E.01353
G1 X99.397 Y101.888 E.06014
G1 X99.397 Y102.449 E.01852
G1 X101.246 Y100.6 E.08634
G1 X101.808 Y100.6 E.01856
G1 X99.397 Y103.011 E.11258
G1 X99.397 Y103.572 E.01852
G1 X102.37 Y100.6 E.1388
G1 X102.931 Y100.6 E.01852
G1 X99.397 Y104.134 E.16501
G1 X99.397 Y104.696 E.01856
G1 X103.493 Y100.6 E.19126
G1 X104.054 Y100.6 E.01852
G1 X99.397 Y105.257 E.21745
G1 X99.397 Y105.819 E.01856
G1 X104.616 Y100.6 E.24369
G1 X105.177 Y100.6 E.01852
G1 X99.397 Y106.38 E.26989
G1 X99.397 Y106.942 E.01856
G1 X105.739 Y100.6 E.29613
G1 X106.3 Y100.6 E.01852
G1 X99.397 Y107.503 E.32232
G1 X99.397 Y108.065 E.01856
G1 X106.862 Y100.6 E.34857
G1 X107.424 Y100.6 E.01856
G1 X99.397 Y108.626 E.37478
G1 X99.397 Y109.188 E.01856
G1 X107.985 Y100.6 E.401
G1 X108.547 Y100.6 E.01856
G1 X99.397 Y109.75 E.42725
G1 X99.397 Y110.311 E.01852
G1 X109.108 Y100.6 E.45344
G1 X109.67 Y100.6 E.01856
G1 X99.397 Y110.873 E.47968
G1 X99.397 Y111.434 E.01852
G1 X110.231 Y100.6 E.50588
G1 X110.793 Y100.6 E.01856
G1 X99.397 Y111.996 E.53212
G1 X99.397 Y112.557 E.01852
G1 X111.354 Y100.6 E.55831
G1 X111.916 Y100.6 E.01856
G1 X99.397 Y113.119 E.58456
G1 X99.397 Y113.68 E.01852
G1 X112.478 Y100.6 E.61077
G1 X113.039 Y100.6 E.01852
G1 X99.397 Y114.242 E.63699
G1 X99.397 Y114.804 E.01856
G1 X113.601 Y100.6 E.66323
G1 X114.162 Y100.6 E.01852
M73 P3 R49
G1 X99.397 Y115.365 E.68943
G1 X99.397 Y115.927 E.01856
G1 X114.724 Y100.6 E.71567
G1 X115.285 Y100.6 E.01852
G1 X99.397 Y116.488 E.74187
G1 X99.397 Y117.05 E.01856
G1 X115.847 Y100.6 E.76811
G1 X116.408 Y100.6 E.01852
G1 X99.397 Y117.611 E.7943
G1 X99.33 Y118.128 E.01721
;WIDTH:0.38292
G1 X99.289 Y118.139 E.0012
G1 X99.27 Y118.068 E.00208
G1 X99.341 Y118.087 E.00208
;WIDTH:0.41146
G1 X99.455 Y118.044 E.00373
;WIDTH:0.439999
G1 X99.57 Y118 E.00407
G1 X116.97 Y100.6 E.81247
G1 X117.531 Y100.6 E.01852
G1 X100.131 Y118 E.81247
G1 X100.693 Y118 E.01856
G1 X118.093 Y100.6 E.81247
G1 X118.655 Y100.6 E.01856
G1 X101.254 Y118 E.81249
G1 X101.816 Y118 E.01856
G1 X119.216 Y100.6 E.81247
G1 X119.778 Y100.6 E.01856
G1 X102.378 Y118 E.81247
G1 X102.939 Y118 E.01852
M73 C47
G1 X120.339 Y100.6 E.81247
G1 X120.901 Y100.6 E.01856
G1 X103.501 Y118 E.81247
G1 X104.062 Y118 E.01852
G1 X121.462 Y100.6 E.81247
G1 X122.024 Y100.6 E.01856
G1 X104.624 Y118 E.81247
G1 X105.185 Y118 E.01852
G1 X122.585 Y100.6 E.81247
G1 X123.147 Y100.6 E.01856
G1 X105.747 Y118 E.81247
G1 X106.308 Y118 E.01852
G1 X123.709 Y100.6 E.81249
G1 X124.27 Y100.6 E.01852
G1 X106.87 Y118 E.81247
G1 X107.432 Y118 E.01856
G1 X124.832 Y100.6 E.81247
G1 X125.393 Y100.6 E.01852
G1 X107.993 Y118 E.81247
G1 X108.555 Y118 E.01856
G1 X125.955 Y100.6 E.81247
G1 X126.516 Y100.6 E.01852
G1 X109.116 Y118 E.81247
G1 X109.678 Y118 E.01856
G1 X127.078 Y100.6 E.81247
G1 X127.639 Y100.6 E.01852
G1 X110.239 Y118 E.81247
G1 X110.801 Y118 E.01856
G1 X128.201 Y100.6 E.81247
G1 X128.763 Y100.6 E.01856
G1 X111.362 Y118 E.81249
G1 X111.924 Y118 E.01856
G1 X129.324 Y100.6 E.81247
G1 X129.886 Y100.6 E.01856
G1 X112.486 Y118 E.81247
G1 X113.047 Y118 E.01852
G1 X130.447 Y100.6 E.81247
G1 X131.009 Y100.6 E.01856
G1 X113.609 Y118 E.81247
G1 X114.17 Y118 E.01852
G1 X131.57 Y100.6 E.81247
G1 X132.132 Y100.6 E.01856
G1 X114.732 Y118 E.81247
G1 X115.293 Y118 E.01852
G1 X132.693 Y100.6 E.81247
G1 X133.255 Y100.6 E.01856
G1 X115.855 Y118 E.81247
G1 X116.416 Y118 E.01852
G1 X133.817 Y100.6 E.81249
G1 X134.378 Y100.6 E.01852
G1 X116.978 Y118 E.81247
G1 X117.539 Y118 E.01852
G1 X134.94 Y100.6 E.81249
G1 X135.501 Y100.6 E.01852
G1 X118.101 Y118 E.81247
G1 X118.663 Y118 E.01856
G1 X136.063 Y100.6 E.81247
G1 X136.624 Y100.6 E.01852
G1 X119.224 Y118 E.81247
G1 X119.786 Y118 E.01856
G1 X136.797 Y100.989 E.7943
G1 X136.797 Y101.55 E.01852
G1 X120.347 Y118 E.76811
G1 X120.909 Y118 E.01856
G1 X136.797 Y102.112 E.74187
G1 X136.797 Y102.673 E.01852
G1 X121.47 Y118 E.71567
G1 X122.032 Y118 E.01856
G1 X136.797 Y103.235 E.68943
G1 X136.797 Y103.796 E.01852
G1 X122.593 Y118 E.66323
G1 X123.155 Y118 E.01856
G1 X136.797 Y104.358 E.63699
G1 X136.797 Y104.92 E.01856
G1 X123.717 Y118 E.61075
G1 X124.278 Y118 E.01852
G1 X136.797 Y105.481 E.58456
G1 X136.797 Y106.043 E.01856
G1 X124.84 Y118 E.55831
G1 X125.401 Y118 E.01852
G1 X136.797 Y106.604 E.53212
G1 X136.797 Y107.166 E.01856
G1 X125.963 Y118 E.50588
G1 X126.524 Y118 E.01852
G1 X136.797 Y107.727 E.47968
G1 X136.797 Y108.289 E.01856
G1 X127.086 Y118 E.45344
G1 X127.647 Y118 E.01852
G1 X136.797 Y108.85 E.42725
G1 X136.797 Y109.412 E.01856
G1 X128.209 Y118 E.401
G1 X128.771 Y118 E.01856
G1 X136.797 Y109.974 E.37476
G1 X136.797 Y110.535 E.01852
G1 X129.332 Y118 E.34857
G1 X129.894 Y118 E.01856
G1 X136.797 Y111.097 E.32232
G1 X136.797 Y111.658 E.01852
G1 X130.455 Y118 E.29613
G1 X131.017 Y118 E.01856
G1 X136.797 Y112.22 E.26989
G1 X136.797 Y112.781 E.01852
G1 X131.578 Y118 E.24369
G1 X132.14 Y118 E.01856
G1 X136.797 Y113.343 E.21745
G1 X136.797 Y113.904 E.01852
G1 X132.701 Y118 E.19126
G1 X133.263 Y118 E.01856
G1 X136.797 Y114.466 E.16501
G1 X136.797 Y115.028 E.01856
G1 X133.825 Y118 E.13877
G1 X134.386 Y118 E.01852
G1 X136.797 Y115.589 E.11258
G1 X136.797 Y116.151 E.01856
G1 X134.948 Y118 E.08634
G1 X135.509 Y118 E.01852
G1 X136.797 Y116.712 E.06014
G1 X136.797 Y117.274 E.01856
G1 X136.071 Y118 E.0339
G1 X136.793 Y117.996 E.02384
;WIDTH:0.536708
G1 X136.733 Y118.012 E.00255
G1 X136.689 Y117.968 E.00255
G1 X136.705 Y117.908 E.00255
G1 X136.765 Y117.892 E.00255
G1 X136.809 Y117.936 E.00255
EXCLUDE_OBJECT_END NAME=Shape_Box_single
M106 S255
;LAYER_CHANGE
;Z:0.6
;HEIGHT:0.2
;BEFORE_LAYER_CHANGE
