; HEADER_BLOCK_START
; generated by OrcaSlicer 2.1.1 on 2024-07-17 at 12:46:34
; total layer number: 30
; filament_density: 1.27
; filament_diameter: 1.75
; max_z_height: 6.00
; HEADER_BLOCK_END

; THUMBNAIL_BLOCK_START

;
; THUMBNAIL_BLOCK_END

; THUMBNAIL_BLOCK_START

;
; THUMBNAIL_BLOCK_END

; external perimeters extrusion width = 0.40mm
; perimeters extrusion width = 0.45mm
; infill extrusion width = 0.45mm
; solid infill extrusion width = 0.40mm
; top infill extrusion width = 0.40mm
; support material extrusion width = 0.40mm
; first layer extrusion width = 0.50mm

; external perimeters extrusion width = 0.40mm
; perimeters extrusion width = 0.45mm
; infill extrusion width = 0.45mm
; solid infill extrusion width = 0.40mm
; top infill extrusion width = 0.40mm
; support material extrusion width = 0.40mm
; first layer extrusion width = 0.50mm

; EXECUTABLE_BLOCK_START
EXCLUDE_OBJECT_DEFINE NAME=PUÑOS_ELEVEN_TABLE_TENNIS_QUEST_3.stl_id_0_copy_0 CENTER=87.1925,122.492 POLYGON=[[71.3592,170.518],[71.3647,170.241],[75.99,79.4949],[76.1372,77.5248],[76.2688,75.9271],[76.3825,74.7623],[76.5378,73.2854],[76.5584,73.1027],[89.8238,73.1023],[92.4435,73.1023],[94.7816,73.1027],[95.1841,73.1027],[97.8314,73.1036],[97.8372,73.1591],[97.8596,73.3768],[97.8866,73.6396],[98.0397,75.3313],[98.3019,78.3553],[98.499,81.4932],[98.5182,81.8608],[103.026,170.307],[103.013,170.662],[103.01,170.674],[102.984,170.734],[102.809,171.117],[102.546,171.403],[102.494,171.457],[102.482,171.465],[102.217,171.617],[101.992,171.74],[101.867,171.771],[101.765,171.789],[101.249,171.869],[101.106,171.882],[73.2405,171.882],[73.0841,171.869],[72.657,171.819],[72.1185,171.605],[71.8569,171.402],[71.6758,171.225],[71.5234,170.988],[71.4691,170.884],[71.441,170.812],[71.3748,170.636],[71.3652,170.57],[71.3592,170.518]]
EXCLUDE_OBJECT_DEFINE NAME=PUÑOS_ELEVEN_TABLE_TENNIS_QUEST_3.stl_id_1_copy_0 CENTER=133.446,121.981 POLYGON=[[117.613,170.006],[117.618,169.73],[122.244,78.9837],[122.391,77.0136],[122.523,75.4159],[122.636,74.2512],[122.791,72.7742],[122.812,72.5915],[136.077,72.5911],[138.697,72.5911],[141.035,72.5915],[141.438,72.5916],[144.085,72.5924],[144.091,72.6479],[144.113,72.8656],[144.14,73.1285],[144.293,74.8201],[144.556,77.8442],[144.753,80.982],[144.772,81.3496],[149.28,169.796],[149.267,170.151],[149.264,170.163],[149.237,170.222],[149.062,170.606],[148.8,170.892],[148.747,170.946],[148.736,170.954],[148.471,171.106],[148.246,171.229],[148.121,171.26],[148.019,171.278],[147.502,171.358],[147.36,171.371],[119.494,171.371],[119.338,171.358],[118.911,171.308],[118.372,171.094],[118.111,170.891],[117.929,170.714],[117.777,170.477],[117.723,170.373],[117.695,170.301],[117.628,170.125],[117.619,170.059],[117.613,170.006]]
M73 P0 R70
;TYPE:Custom
M117 ; clear display for KAMP meshing
START_PRINT BED_TEMP=80 EXTRUDER_TEMP=255
G90
G21
M83 ; use relative distances for extrusion
; filament start gcode
M106 S0
;LAYER_CHANGE
;Z:0.2
;HEIGHT:0.2
;BEFORE_LAYER_CHANGE
;0.2
G92 E0

G1 E-5 F3600
;_SET_FAN_SPEED_CHANGING_LAYER
SET_VELOCITY_LIMIT ACCEL=500 ACCEL_TO_DECEL=250
; printing object PUÑOS ELEVEN TABLE TENNIS QUEST 3.stl id:0 copy 0
EXCLUDE_OBJECT_START NAME=PUÑOS_ELEVEN_TABLE_TENNIS_QUEST_3.stl_id_0_copy_0
G1 Z.4 F9000
G1 X96.746 Y74.607
G1 Z.4
G1 Z.2
G1 E5 F2400
;TYPE:Inner wall
;WIDTH:0.499999
G1 F900
G1 X97.077 Y78.39 E.13711
G1 X97.174 Y79.928 E.05564
G1 X97.338 Y83.366 E.12426
G1 X97.341 Y84.664 E.04688
G1 X97.498 Y89.803 E.18564
G1 X97.748 Y108.423 E.67232
G1 X98.121 Y120.97 E.45324
G1 X98.727 Y133.514 E.45343
G1 X99.556 Y146.05 E.45364
G1 X100.63 Y158.574 E.45383
G1 X101.805 Y170.295 E.42532
G1 X101.764 Y170.459 E.0061
G1 X101.515 Y170.633 E.01095
G1 X100.91 Y170.718 E.02207
G1 X73.401 Y170.718 E.99325
G1 X73.076 Y170.685 E.01179
G1 X72.761 Y170.577 E.01201
G1 X72.594 Y170.383 E.00925
G1 X72.621 Y169.855 E.01908
G1 X73.76 Y158.573 E.40941
G1 X74.803 Y146.055 E.45357
G1 X75.33 Y139.085 E.25238
G1 X75.694 Y133.515 E.20152
G1 X75.937 Y128.731 E.17295
G1 X76.026 Y126.169 E.09256
G1 X76.276 Y120.976 E.18773
G1 X76.396 Y117.898 E.11122
G1 X76.65 Y108.421 E.34229
G1 X76.902 Y89.623 E.67879
G1 X77.05 Y83.442 E.22324
G1 X77.12 Y82.946 E.01807
G1 X77.234 Y79.345 E.13008
G1 X77.541 Y75.489 E.13966
G1 X77.631 Y74.607 E.03203
G1 X96.706 Y74.607 E.68872
G1 X97.165 Y74.15 F9000
G1 F900
G1 X97.533 Y78.356 E.15244
G1 X97.63 Y79.903 E.05596
G1 X97.795 Y83.354 E.12476
G1 X97.798 Y84.657 E.04702
G1 X97.955 Y89.793 E.18555
G1 X98.205 Y108.413 E.67234
G1 X98.578 Y120.952 E.45294
G1 X99.184 Y133.488 E.45313
G1 X100.012 Y146.016 E.45333
G1 X101.085 Y158.531 E.45354
G1 X102.206 Y169.672 E.40428
G1 X102.259 Y170.355 E.02473
G1 X102.197 Y170.611 E.00954
G1 X101.985 Y170.894 E.01274
G1 X101.664 Y171.073 E.01328
G1 X100.942 Y171.175 E.02632
G1 X73.401 Y171.175 E.99441
G1 X72.886 Y171.123 E.01868
G1 X72.515 Y170.97 E.01449
G1 X72.286 Y170.766 E.01107
G1 X72.149 Y170.524 E.01005
G1 X72.13 Y170.328 E.00713
G1 X72.166 Y169.809 E.01876
G1 X73.305 Y158.531 E.40927
G1 X74.347 Y146.019 E.45336
G1 X74.874 Y139.052 E.25224
G1 X75.238 Y133.489 E.20131
G1 X75.48 Y128.712 E.1727
G1 X75.569 Y126.15 E.09254
G1 X75.819 Y120.956 E.18777
G1 X75.939 Y117.883 E.11104
G1 X76.193 Y108.412 E.34208
G1 X76.445 Y89.614 E.67876
G1 X76.585 Y83.788 E.21043
G1 X76.663 Y82.932 E.03104
G1 X76.778 Y79.32 E.13047
G1 X77.086 Y75.448 E.14023
G1 X77.218 Y74.15 E.04712
G1 X97.125 Y74.15 E.71875
G1 X97.583 Y73.693 F9000
;TYPE:Outer wall
G1 F900
G1 X97.989 Y78.322 E.16776
G1 X98.086 Y79.878 E.05629
G1 X98.252 Y83.343 E.12526
G1 X98.255 Y84.649 E.04717
G1 X98.412 Y89.783 E.18546
G1 X98.662 Y108.404 E.67239
G1 X99.035 Y120.934 E.45261
G1 X99.64 Y133.462 E.45283
G1 X100.468 Y145.981 E.45303
G1 X101.54 Y158.487 E.4532
G1 X102.66 Y169.626 E.40421
G1 X102.718 Y170.344 E.02598
G1 X102.704 Y170.6 E.00926
G1 X102.535 Y170.971 E.01472
G1 X102.272 Y171.257 E.01404
G1 X101.812 Y171.514 E.019
G1 X100.974 Y171.632 E.03057
G1 X73.301 Y171.632 E.99918
G1 X72.77 Y171.569 E.01929
G1 X72.269 Y171.363 E.01958
G1 X71.926 Y171.057 E.0166
G1 X71.703 Y170.665 E.01627
G1 X71.675 Y170.371 E.01066
M73 P1 R70
G1 X71.711 Y169.763 E.02199
G1 X72.85 Y158.49 E.40912
G1 X73.892 Y145.983 E.45312
G1 X74.418 Y139.021 E.25208
G1 X74.782 Y133.464 E.20109
G1 X75.024 Y128.694 E.17244
G1 X75.112 Y126.131 E.09259
G1 X75.363 Y120.938 E.18775
G1 X75.482 Y117.869 E.11088
G1 X75.736 Y108.404 E.34187
G1 X75.988 Y89.606 E.67879
G1 X76.138 Y83.359 E.22562
M73 P1 R69
G1 X76.206 Y82.917 E.01613
G1 X76.321 Y79.294 E.13086
G1 X76.63 Y75.407 E.14081
G1 X76.805 Y73.693 E.06221
G1 X97.543 Y73.693 E.74877
G1 E-3.5 F3600
;WIPE_START
G1 F900
G1 X97.639 Y74.688 E-1.5
;WIPE_END
G1 Z.6 F9000
G1 X95.689 Y74.744 Z.6
G1 Z.2
G1 E5 F2400
;TYPE:Bottom surface
;WIDTH:0.502455
G1 F1200
G1 X96.483 Y75.538 E.04077
G1 X96.546 Y76.251 E.02595
G1 X95.245 Y74.95 E.06678
G1 X94.595 Y74.95 E.02359
G1 X96.608 Y76.963 E.10334
G1 X96.67 Y77.675 E.02595
G1 X93.945 Y74.95 E.1399
G1 X93.295 Y74.95 E.02359
G1 X96.733 Y78.387 E.17647
G1 X96.777 Y79.082 E.02525
G1 X92.645 Y74.95 E.21211
G1 X91.995 Y74.95 E.02359
G1 X96.821 Y79.775 E.2477
G1 X96.856 Y80.46 E.02491
G1 X91.345 Y74.95 E.28288
G1 X90.696 Y74.95 E.02359
G1 X96.889 Y81.143 E.31792
G1 X96.921 Y81.825 E.0248
G1 X90.046 Y74.95 E.35296
G1 X89.396 Y74.95 E.02359
G1 X96.954 Y82.508 E.388
G1 X96.986 Y83.19 E.0248
G1 X88.746 Y74.95 E.42304
G1 X88.096 Y74.95 E.02359
G1 X96.996 Y83.85 E.45692
G1 X96.998 Y84.502 E.02365
G1 X87.446 Y74.95 E.49036
G1 X86.796 Y74.95 E.02359
G1 X97.013 Y85.167 E.5245
G1 X97.034 Y85.837 E.02435
G1 X86.146 Y74.95 E.55891
G1 X85.496 Y74.95 E.02359
G1 X97.054 Y86.507 E.59333
G1 X97.075 Y87.178 E.02435
G1 X84.846 Y74.95 E.62774
G1 X84.197 Y74.95 E.02359
G1 X97.095 Y87.848 E.66216
G1 X97.116 Y88.519 E.02435
G1 X83.547 Y74.95 E.69657
G1 X82.897 Y74.95 E.02359
G1 X97.136 Y89.189 E.73099
G1 X97.156 Y89.858 E.02431
G1 X82.247 Y74.95 E.76536
G1 X81.597 Y74.95 E.02359
G1 X97.165 Y90.517 E.79917
G1 X97.173 Y91.176 E.02391
G1 X80.947 Y74.95 E.83299
G1 X80.297 Y74.95 E.02359
G1 X97.182 Y91.835 E.86681
G1 X97.191 Y92.493 E.02391
G1 X79.647 Y74.95 E.90063
G1 X78.997 Y74.95 E.02359
G1 X97.2 Y93.152 E.93444
G1 X97.209 Y93.811 E.02391
G1 X78.348 Y74.95 E.96826
G1 X77.94 Y74.95 E.01478
G1 X77.918 Y75.17 E.00804
G1 X97.218 Y94.47 E.99077
G1 X97.226 Y95.128 E.02391
G1 X77.863 Y75.765 E.99405
G1 X77.815 Y76.367 E.02192
G1 X97.235 Y95.787 E.99696
G1 X97.244 Y96.446 E.02391
G1 X77.767 Y76.969 E.99987
G1 X77.719 Y77.571 E.02192
G1 X97.253 Y97.104 E1.00278
G1 X97.262 Y97.763 E.02391
G1 X77.671 Y78.173 E1.00569
G1 X77.624 Y78.775 E.02192
G1 X97.271 Y98.422 E1.00861
G1 X97.28 Y99.081 E.02391
G1 X77.576 Y79.377 E1.01149
G1 X77.556 Y80.007 E.02288
G1 X97.288 Y99.739 E1.01297
G1 X97.297 Y100.398 E.02391
G1 X77.536 Y80.637 E1.01445
M73 P2 R69
G1 X77.516 Y81.267 E.02288
G1 X97.306 Y101.057 E1.01593
G1 X97.315 Y101.716 E.02391
G1 X77.496 Y81.897 E1.01741
G1 X77.476 Y82.527 E.02288
G1 X97.324 Y102.374 E1.01889
G1 X97.333 Y103.033 E.02391
G1 X77.438 Y83.139 E1.0213
G1 X77.393 Y83.472 E.0122
G1 X77.386 Y83.736 E.00961
G1 X97.341 Y103.692 E1.02442
G1 X97.35 Y104.35 E.02391
G1 X77.371 Y84.371 E1.02566
G1 X77.356 Y85.006 E.02305
G1 X97.359 Y105.009 E1.02689
G1 X97.368 Y105.668 E.02391
G1 X77.341 Y85.64 E1.02812
G1 X77.325 Y86.275 E.02305
G1 X97.377 Y106.327 E1.02936
G1 X97.386 Y106.985 E.02391
G1 X77.31 Y86.91 E1.03059
G1 X77.295 Y87.544 E.02305
G1 X97.394 Y107.644 E1.03183
G1 X97.403 Y108.303 E.02391
G1 X77.28 Y88.179 E1.03306
G1 X77.265 Y88.814 E.02305
G1 X97.421 Y108.97 E1.03475
G1 X97.441 Y109.64 E.02433
G1 X77.249 Y89.449 E1.03655
G1 X77.239 Y90.088 E.02321
G1 X97.461 Y110.31 E1.03812
M73 P2 R68
G1 X97.481 Y110.98 E.02433
G1 X77.23 Y90.729 E1.03958
G1 X77.222 Y91.37 E.02328
G1 X97.501 Y111.65 E1.04105
G1 X97.521 Y112.319 E.02433
G1 X77.213 Y92.012 E1.04252
G1 X77.204 Y92.653 E.02328
G1 X97.541 Y112.989 E1.04398
G1 X97.561 Y113.659 E.02433
G1 X77.196 Y93.294 E1.04545
G1 X77.187 Y93.936 E.02328
G1 X97.581 Y114.329 E1.04692
G1 X97.601 Y114.999 E.02433
G1 X77.179 Y94.577 E1.04838
G1 X77.17 Y95.218 E.02328
G1 X97.621 Y115.669 E1.04985
G1 X97.64 Y116.338 E.02433
G1 X77.161 Y95.859 E1.05131
G1 X77.153 Y96.501 E.02328
G1 X97.66 Y117.008 E1.05278
G1 X97.68 Y117.678 E.02433
G1 X77.144 Y97.142 E1.05425
G1 X77.136 Y97.783 E.02328
G1 X97.7 Y118.348 E1.05571
G1 X97.72 Y119.018 E.02433
G1 X77.127 Y98.424 E1.05718
M73 P3 R68
G1 X77.118 Y99.066 E.02328
G1 X97.74 Y119.688 E1.05865
G1 X97.76 Y120.357 E.02433
G1 X77.11 Y99.707 E1.06011
G1 X77.101 Y100.348 E.02328
G1 X97.781 Y121.028 E1.06162
G1 X97.814 Y121.711 E.02482
G1 X77.092 Y100.989 E1.06376
G1 X77.084 Y101.631 E.02328
G1 X97.847 Y122.394 E1.06589
G1 X97.88 Y123.077 E.02482
G1 X77.075 Y102.272 E1.06803
G1 X77.067 Y102.913 E.02328
G1 X97.913 Y123.76 E1.07016
G1 X97.946 Y124.442 E.02482
G1 X77.058 Y103.555 E1.0723
G1 X77.049 Y104.196 E.02328
G1 X97.979 Y125.125 E1.07443
G1 X98.012 Y125.808 E.02482
G1 X77.041 Y104.837 E1.07657
G1 X77.032 Y105.478 E.02328
G1 X98.045 Y126.491 E1.0787
G1 X98.078 Y127.174 E.02482
G1 X77.024 Y106.12 E1.08084
G1 X77.015 Y106.761 E.02328
G1 X98.111 Y127.857 E1.08297
G1 X98.144 Y128.54 E.02482
G1 X77.006 Y107.402 E1.08511
G1 X76.998 Y108.043 E.02328
G1 X98.177 Y129.222 E1.08724
G1 X98.21 Y129.905 E.02482
G1 X76.986 Y108.681 E1.08956
G1 X76.969 Y109.314 E.02298
G1 X98.243 Y130.588 E1.09212
G1 X98.276 Y131.271 E.02482
G1 X76.952 Y109.947 E1.09468
G1 X76.935 Y110.58 E.02298
G1 X98.309 Y131.954 E1.09725
G1 X98.342 Y132.637 E.02482
G1 X76.918 Y111.213 E1.09981
G1 X76.901 Y111.846 E.02298
G1 X98.375 Y133.32 E1.10237
G1 X98.417 Y134.012 E.02517
G1 X76.884 Y112.479 E1.10541
G1 X76.867 Y113.112 E.02298
G1 X98.463 Y134.707 E1.10864
G1 X98.509 Y135.403 E.02532
G1 X76.85 Y113.745 E1.11187
G1 X76.833 Y114.378 E.02298
G1 X98.555 Y136.099 E1.1151
G1 X98.601 Y136.795 E.02532
G1 X76.816 Y115.01 E1.11834
M73 P3 R67
G1 X76.799 Y115.643 E.02298
G1 X98.647 Y137.491 E1.12157
G1 X98.693 Y138.187 E.02532
G1 X76.782 Y116.276 E1.1248
M73 P4 R67
G1 X76.765 Y116.909 E.02298
G1 X98.739 Y138.883 E1.12804
G1 X98.785 Y139.579 E.02532
G1 X76.748 Y117.542 E1.13127
G1 X76.728 Y118.172 E.02287
G1 X98.831 Y140.275 E1.13466
G1 X98.877 Y140.971 E.02532
G1 X76.704 Y118.797 E1.13828
G1 X76.679 Y119.423 E.02272
G1 X98.923 Y141.666 E1.14189
G1 X98.969 Y142.362 E.02532
G1 X76.655 Y120.049 E1.1455
G1 X76.631 Y120.674 E.02272
G1 X99.015 Y143.058 E1.14911
G1 X99.061 Y143.754 E.02532
G1 X76.604 Y121.297 E1.15286
G1 X76.574 Y121.917 E.02253
G1 X99.107 Y144.45 E1.15676
G1 X99.153 Y145.146 E.02532
G1 X76.544 Y122.537 E1.16065
G1 X76.514 Y123.157 E.02253
G1 X99.199 Y145.842 E1.16455
G1 X99.255 Y146.547 E.02569
G1 X76.484 Y123.777 E1.16894
G1 X76.454 Y124.397 E.02253
G1 X99.316 Y147.258 E1.17361
G1 X99.377 Y147.969 E.0259
G1 X76.424 Y125.017 E1.17827
G1 X76.395 Y125.637 E.02253
G1 X99.438 Y148.68 E1.18293
G1 X99.498 Y149.391 E.0259
G1 X76.366 Y126.258 E1.18755
G1 X76.344 Y126.886 E.02281
G1 X99.559 Y150.102 E1.19179
G1 X99.62 Y150.812 E.0259
G1 X76.322 Y127.514 E1.19604
G1 X76.3 Y128.142 E.02281
G1 X99.681 Y151.523 E1.20029
G1 X99.742 Y152.234 E.0259
G1 X76.278 Y128.77 E1.20454
G1 X76.247 Y129.389 E.02248
G1 X99.803 Y152.945 E1.20928
G1 X99.864 Y153.656 E.0259
G1 X76.216 Y130.007 E1.21402
G1 X76.184 Y130.626 E.02248
G1 X99.925 Y154.367 E1.21876
G1 X99.986 Y155.077 E.0259
G1 X76.153 Y131.244 E1.22351
G1 X76.121 Y131.863 E.02248
G1 X100.047 Y155.788 E1.22825
M73 P5 R67
G1 X100.108 Y156.499 E.0259
G1 X76.09 Y132.481 E1.23299
G1 X76.059 Y133.099 E.02248
G1 X100.169 Y157.21 E1.23773
G1 X100.23 Y157.921 E.0259
G1 X76.025 Y133.716 E1.24259
G1 X75.985 Y134.326 E.02219
G1 X100.291 Y158.632 E1.2478
G1 X100.364 Y159.355 E.02636
G1 X75.945 Y134.936 E1.25357
G1 X75.905 Y135.546 E.02219
G1 X100.437 Y160.077 E1.25935
G1 X100.509 Y160.8 E.02636
G1 X75.865 Y136.156 E1.26513
G1 X75.825 Y136.766 E.02219
G1 X100.582 Y161.522 E1.2709
G1 X100.655 Y162.245 E.02636
G1 X75.786 Y137.376 E1.27668
M73 P5 R66
G1 X75.746 Y137.986 E.02219
G1 X100.727 Y162.967 E1.28246
G1 X100.8 Y163.69 E.02636
G1 X75.706 Y138.596 E1.28823
G1 X75.665 Y139.205 E.02216
G1 X100.873 Y164.412 E1.29405
G1 X100.945 Y165.135 E.02636
G1 X75.619 Y139.809 E1.30013
G1 X75.574 Y140.413 E.02199
G1 X101.018 Y165.858 E1.30621
G1 X101.091 Y166.58 E.02636
G1 X75.528 Y141.017 E1.31228
G1 X75.482 Y141.622 E.02199
G1 X101.163 Y167.303 E1.31836
G1 X101.236 Y168.025 E.02636
G1 X75.437 Y142.226 E1.32444
G1 X75.391 Y142.83 E.02199
G1 X101.309 Y168.748 E1.33052
G1 X101.381 Y169.47 E.02636
G1 X75.345 Y143.434 E1.33659
G1 X75.299 Y144.038 E.02199
G1 X101.454 Y170.193 E1.34267
G1 X101.462 Y170.27 E.00281
G1 X101.404 Y170.302 E.00241
G1 X100.974 Y170.363 E.01575
G1 X75.254 Y144.642 E1.32038
G1 X75.208 Y145.246 E.02199
G1 X100.337 Y170.375 E1.29
G1 X99.687 Y170.375 E.02359
G1 X75.162 Y145.851 E1.25899
M73 P6 R66
G1 X75.114 Y146.452 E.0219
G1 X99.037 Y170.375 E1.22811
G1 X98.387 Y170.375 E.02359
G1 X75.064 Y147.052 E1.19731
G1 X75.014 Y147.652 E.02185
G1 X97.737 Y170.375 E1.16652
G1 X97.087 Y170.375 E.02359
G1 X74.964 Y148.252 E1.13572
G1 X74.914 Y148.852 E.02185
G1 X96.437 Y170.375 E1.10492
G1 X95.787 Y170.375 E.02359
G1 X74.864 Y149.452 E1.07413
G1 X74.814 Y150.052 E.02185
G1 X95.138 Y170.375 E1.04333
G1 X94.488 Y170.375 E.02359
G1 X74.764 Y150.652 E1.01253
G1 X74.714 Y151.251 E.02185
G1 X93.838 Y170.375 E.98174
G1 X93.188 Y170.375 E.02359
G1 X74.664 Y151.851 E.95094
G1 X74.614 Y152.451 E.02185
G1 X92.538 Y170.375 E.92014
G1 X91.888 Y170.375 E.02359
G1 X74.564 Y153.051 E.88934
G1 X74.514 Y153.651 E.02185
G1 X91.238 Y170.375 E.85855
G1 X90.588 Y170.375 E.02359
G1 X74.464 Y154.251 E.82775
G1 X74.414 Y154.851 E.02185
G1 X89.939 Y170.375 E.79695
G1 X89.289 Y170.375 E.02359
G1 X74.364 Y155.451 E.76616
G1 X74.314 Y156.051 E.02185
G1 X88.639 Y170.375 E.73536
G1 X87.989 Y170.375 E.02359
G1 X74.264 Y156.651 E.70456
G1 X74.214 Y157.251 E.02185
G1 X87.339 Y170.375 E.67377
G1 X86.689 Y170.375 E.02359
G1 X74.164 Y157.85 E.64297
G1 X74.114 Y158.45 E.02185
G1 X86.039 Y170.375 E.61217
G1 X85.389 Y170.375 E.02359
