; HEADER_BLOCK_START
; generated by OrcaSlicer 2.1.1 on 2024-07-17 at 08:59:00
; total layer number: 215
; filament_density: 1.27
; filament_diameter: 1.75
; max_z_height: 43.00
; HEADER_BLOCK_END

; THUMBNAIL_BLOCK_START

;
; THUMBNAIL_BLOCK_END

; THUMBNAIL_BLOCK_START

;
; THUMBNAIL_BLOCK_END

; external perimeters extrusion width = 0.40mm
; perimeters extrusion width = 0.45mm
; infill extrusion width = 0.45mm
; solid infill extrusion width = 0.40mm
; top infill extrusion width = 0.40mm
; support material extrusion width = 0.40mm
; first layer extrusion width = 0.50mm

; EXECUTABLE_BLOCK_START
EXCLUDE_OBJECT_DEFINE NAME=Lens_cover_no_text_.stl_id_0_copy_0 CENTER=110,110 POLYGON=[[41.3988,104.886],[41.4515,103.499],[41.5611,102.124],[41.7285,100.764],[41.9545,99.4224],[42.2397,98.1023],[42.5844,96.8062],[42.9889,95.5364],[43.453,94.2951],[43.9764,93.084],[44.5587,91.9049],[45.1993,90.7591],[45.8974,89.6478],[46.6524,88.5721],[47.4634,87.533],[48.3296,86.5315],[49.2501,85.5683],[50.2241,84.6441],[51.2507,83.7596],[52.3289,82.9152],[53.458,82.1114],[54.6369,81.3484],[55.8647,80.6265],[57.1407,79.946],[58.464,79.3069],[59.8339,78.7094],[61.2497,78.1535],[62.7108,77.6393],[64.2167,77.1668],[65.7671,76.7361],[67.3615,76.3472],[69,76],[151,76],[152.638,76.3472],[154.233,76.7361],[155.783,77.1668],[157.289,77.6393],[158.75,78.1535],[160.166,78.7094],[161.536,79.3069],[162.859,79.946],[164.135,80.6265],[165.363,81.3484],[166.542,82.1114],[167.671,82.9152],[168.749,83.7596],[169.776,84.6441],[170.75,85.5683],[171.67,86.5315],[172.537,87.533],[173.348,88.5721],[174.103,89.6478],[174.801,90.7591],[175.441,91.9049],[176.024,93.084],[176.547,94.2951],[177.011,95.5364],[177.416,96.8062],[177.76,98.1023],[178.045,99.4224],[178.271,100.764],[178.439,102.124],[178.549,103.499],[178.601,104.886],[178.598,106.282],[178.54,107.683],[178.428,109.085],[178.263,110.486],[178.046,111.881],[177.778,113.268],[177.459,114.643],[177.091,116.004],[176.673,117.346],[176.206,118.668],[175.69,119.968],[175.125,121.241],[174.51,122.488],[173.846,123.704],[173.131,124.889],[172.365,126.04],[171.549,127.155],[170.681,128.233],[169.76,129.272],[168.787,130.27],[167.76,131.226],[166.678,132.138],[165.542,133.005],[164.35,133.827],[163.101,134.601],[161.795,135.327],[146,144],[74,144],[58.2046,135.327],[56.8986,134.601],[55.65,133.827],[54.4578,133.005],[53.3215,132.138],[52.2402,131.226],[51.2133,130.27],[50.2399,129.272],[49.3194,128.233],[48.4512,127.155],[47.6347,126.04],[46.8693,124.889],[46.1545,123.704],[45.4899,122.488],[44.8751,121.241],[44.3097,119.968],[43.7936,118.668],[43.3267,117.346],[42.9091,116.004],[42.5408,114.643],[42.2223,113.268],[41.9543,111.881],[41.7373,110.486],[41.5723,109.085],[41.4602,107.683],[41.4021,106.282],[41.3988,104.886]]
M73 P0 R193
;TYPE:Custom
M117 ; clear display for KAMP meshing
START_PRINT BED_TEMP=80 EXTRUDER_TEMP=255
G90
G21
M83 ; use relative distances for extrusion
; filament start gcode
M106 S0
;LAYER_CHANGE
;Z:0.2
;HEIGHT:0.2
;BEFORE_LAYER_CHANGE
;0.2
G92 E0

G1 E-5 F3600
;_SET_FAN_SPEED_CHANGING_LAYER
SET_VELOCITY_LIMIT ACCEL=500 ACCEL_TO_DECEL=250
; printing object Lens cover (no text).stl id:0 copy 0
EXCLUDE_OBJECT_START NAME=Lens_cover_no_text_.stl_id_0_copy_0
G1 Z.4 F9000
G1 X47.07 Y72.243
G1 Z.4
G1 Z.2
G1 E5 F2400
;TYPE:Brim
;WIDTH:0.5
G1 F900
G1 X48.678 Y71.215 E.06895
G1 X49.903 Y70.495 E.05128
G1 X51.605 Y69.576 E.06984
G1 X53.764 Y68.532 E.08659
G1 X55.537 Y67.767 E.06972
G1 X57.347 Y67.065 E.07011
G1 X58.805 Y66.552 E.0558
G1 X60.694 Y65.952 E.07158
G1 X62.981 Y65.316 E.08571
G1 X64.925 Y64.847 E.07218
G1 X66.558 Y64.501 E.06028
G1 X67.616 Y64.327 E.03873
G1 X68.986 Y64.247 E.04953
G1 X104.002 Y64.245 E1.26429
G1 X105.309 Y64.318 E.04728
G1 X105.968 Y64.392 E.02394
G1 X107.027 Y64.56 E.0387
G1 X108.496 Y64.963 E.055
G1 X109.139 Y65.186 E.0246
G1 X109.939 Y65.504 E.03109
G1 X110.114 Y65.502 E.00632
G1 X110.763 Y65.222 E.0255
G1 X111.405 Y64.995 E.0246
G1 X112.431 Y64.684 E.0387
G1 X113.96 Y64.403 E.05614
G1 X114.635 Y64.324 E.02455
G1 X115.996 Y64.245 E.04921
G1 X151.016 Y64.247 E1.26443
M73 P0 R192
G1 X152.088 Y64.296 E.03873
G1 X153.443 Y64.501 E.0495
G1 X155.424 Y64.926 E.07315
G1 X157.379 Y65.409 E.07272
G1 X159.302 Y65.95 E.07211
G1 X161.191 Y66.55 E.07159
G1 X162.649 Y67.063 E.05579
G1 X164.459 Y67.766 E.0701
G1 X166.232 Y68.53 E.06973
G1 X167.967 Y69.358 E.06942
G1 X170.092 Y70.492 E.08696
G1 X171.749 Y71.479 E.06962
G1 X173.359 Y72.535 E.06953
G1 X174.485 Y73.336 E.04988
G1 X175.994 Y74.501 E.06883
G1 X177.446 Y75.735 E.0688
G1 X178.838 Y77.037 E.06882
G1 X180.167 Y78.407 E.06892
G1 X180.559 Y78.839 E.02105
G1 X181.802 Y80.298 E.06923
G1 X182.969 Y81.818 E.06917
G1 X183.721 Y82.889 E.04728
G1 X184.753 Y84.503 E.06916
G1 X185.059 Y85.019 E.02167
G1 X185.98 Y86.698 E.06913
G1 X186.814 Y88.419 E.06904
G1 X187.336 Y89.627 E.04754
G1 X187.557 Y90.175 E.0213
G1 X188.211 Y91.967 E.06889
G1 X188.775 Y93.783 E.06866
G1 X189.25 Y95.618 E.06846
G1 X189.637 Y97.469 E.06825
G1 X189.863 Y98.806 E.04896
G1 X190.106 Y100.683 E.06835
G1 X190.266 Y102.561 E.06804
G1 X190.348 Y104.436 E.06776
G1 X190.353 Y106.305 E.0675
G1 X190.285 Y108.166 E.06725
G1 X190.146 Y110.018 E.06703
G1 X189.938 Y111.857 E.06684
G1 X189.662 Y113.683 E.06669
G1 X189.32 Y115.495 E.06657
G1 X188.916 Y117.275 E.06587
G1 X188.44 Y119.067 E.06695
G1 X187.899 Y120.835 E.06676
G1 X187.292 Y122.579 E.06669
G1 X186.617 Y124.303 E.06687
G1 X185.871 Y126.006 E.06711
G1 X185.054 Y127.685 E.0674
G1 X184.164 Y129.336 E.06775
G1 X183.199 Y130.958 E.06814
G1 X182.157 Y132.546 E.06857
G1 X181.037 Y134.096 E.06904
G1 X179.838 Y135.605 E.06961
G1 X179.481 Y136.027 E.01993
G1 X178.177 Y137.478 E.07046
G1 X176.797 Y138.874 E.07087
G1 X175.341 Y140.21 E.07137
G1 X174.262 Y141.121 E.05098
G1 X173.814 Y141.48 E.02074
G1 X172.212 Y142.685 E.07236
G1 X170.545 Y143.817 E.07276
G1 X168.814 Y144.875 E.07324
G1 X167.022 Y145.856 E.07377
G1 X165.663 Y146.531 E.05479
G1 X163.273 Y147.585 E.0943
G1 X161.322 Y148.333 E.07544
G1 X159.785 Y148.858 E.05865
G1 X157.725 Y149.478 E.07767
G1 X156.996 Y149.673 E.02726
G1 X156.893 Y149.732 E.00428
G1 X154.316 Y152.309 E.13158
G1 X153.523 Y153.033 E.03878
G1 X152.67 Y153.678 E.03859
G1 X151.764 Y154.241 E.03853
G1 X150.459 Y154.868 E.05228
G1 X149.455 Y155.231 E.03855
G1 X148.421 Y155.501 E.03859
G1 X147.368 Y155.675 E.03854
G1 X145.993 Y155.756 E.0497
G1 X74.005 Y155.756 E2.5992
G1 X72.932 Y155.706 E.03878
G1 X71.873 Y155.56 E.03859
G1 X70.834 Y155.317 E.03854
G1 X69.538 Y154.867 E.04953
G1 X68.501 Y154.385 E.0413
G1 X67.579 Y153.844 E.03858
G1 X66.712 Y153.222 E.03854
G1 X65.683 Y152.308 E.04971
G1 X63.107 Y149.732 E.13152
G1 X63.004 Y149.673 E.00428
G1 X62.279 Y149.479 E.02711
G1 X60.681 Y149.006 E.06018
G1 X58.682 Y148.335 E.07612
G1 X56.731 Y147.587 E.07543
G1 X54.831 Y146.762 E.07482
G1 X52.983 Y145.859 E.07426
G1 X51.192 Y144.878 E.07374
G1 X49.461 Y143.821 E.07323
G1 X47.793 Y142.689 E.07276
G1 X46.193 Y141.486 E.07228
G1 X44.664 Y140.214 E.07181
G1 X43.206 Y138.877 E.07141
G1 X42.8 Y138.481 E.0205
G1 X41.443 Y137.07 E.07069
G1 X40.165 Y135.608 E.0701
G1 X39.299 Y134.534 E.04981
G1 X38.152 Y132.988 E.06951
G1 X37.083 Y131.403 E.06902
G1 X35.839 Y129.341 E.08696
G1 X34.948 Y127.69 E.06773
G1 X34.131 Y126.011 E.06741
G1 X33.385 Y124.308 E.06712
G1 X32.709 Y122.583 E.0669
G1 X32.244 Y121.265 E.05049
G1 X31.686 Y119.5 E.06683
G1 X31.089 Y117.296 E.08244
G1 X30.681 Y115.5 E.06649
G1 X30.343 Y113.71 E.06576
G1 X30.123 Y112.302 E.05147
G1 X29.854 Y110.022 E.08287
G1 X29.715 Y108.172 E.06701
G1 X29.647 Y106.31 E.06724
G1 X29.652 Y104.44 E.06752
G1 X29.704 Y103.057 E.04997
G1 X29.842 Y101.194 E.06746
G1 X30.061 Y99.332 E.06769
G1 X30.362 Y97.474 E.06796
G1 X30.748 Y95.625 E.06822
G1 X31.223 Y93.787 E.06852
G1 X31.382 Y93.242 E.02051
G1 X31.977 Y91.422 E.06915
G1 X32.662 Y89.633 E.06914
G1 X33.435 Y87.881 E.06916
G1 X34.297 Y86.171 E.06914
G1 X35.244 Y84.508 E.0691
G1 X36.274 Y82.896 E.06905
G1 X37.384 Y81.341 E.069
G1 X38.571 Y79.845 E.06894
G1 X39.83 Y78.411 E.0689
G1 X41.157 Y77.042 E.06885
G1 X42.549 Y75.74 E.06883
G1 X44.001 Y74.506 E.06881
G1 X45.509 Y73.34 E.06882
G1 X47.037 Y72.266 E.06741
G1 X47.3 Y72.64 F9000
G1 F900
G1 X47.327 Y72.621 E.00119
G1 X48.915 Y71.606 E.06808
G1 X50.13 Y70.892 E.05085
G1 X51.816 Y69.981 E.06919
G1 X53.956 Y68.947 E.08585
G1 X55.712 Y68.19 E.06904
G1 X57.503 Y67.494 E.06937
G1 X58.948 Y66.986 E.05528
G1 X60.827 Y66.389 E.07119
G1 X63.098 Y65.757 E.08512
G1 X65.027 Y65.293 E.07165
G1 X66.639 Y64.951 E.05949
G1 X67.674 Y64.781 E.03786
G1 X69.003 Y64.704 E.04807
G1 X103.993 Y64.703 E1.26334
G1 X105.275 Y64.774 E.04636
G1 X105.91 Y64.845 E.02308
G1 X106.922 Y65.006 E.03702
G1 X108.364 Y65.401 E.05398
G1 X108.983 Y65.615 E.02364
G1 X109.758 Y65.924 E.03011
G1 X109.959 Y65.961 E.0074
G1 X110.107 Y65.959 E.00534
G1 X110.307 Y65.916 E.0074
G1 X110.926 Y65.65 E.0243
G1 X111.545 Y65.431 E.02372
G1 X112.547 Y65.128 E.03778
G1 X114.032 Y64.854 E.05455
G1 X114.679 Y64.779 E.0235
G1 X116.005 Y64.702 E.04797
G1 X151.002 Y64.704 E1.26361
G1 X152.05 Y64.752 E.03786
G1 X153.365 Y64.952 E.04802
G1 X155.323 Y65.372 E.07231
G1 X157.26 Y65.851 E.07205
G1 X159.173 Y66.389 E.07174
G1 X161.044 Y66.983 E.0709
G1 X162.492 Y67.493 E.05543
G1 X164.288 Y68.19 E.06955
G1 X166.041 Y68.945 E.06892
G1 X167.758 Y69.765 E.06871
G1 X169.87 Y70.892 E.08643
G1 X171.509 Y71.868 E.06887
G1 X173.099 Y72.911 E.06865
G1 X174.215 Y73.705 E.04943
G1 X175.708 Y74.859 E.06815
G1 X177.144 Y76.079 E.06803
G1 X178.515 Y77.361 E.06779
G1 X179.832 Y78.719 E.06829
G1 X180.217 Y79.142 E.02067
G1 X181.444 Y80.583 E.06834
G1 X182.599 Y82.086 E.06842
G1 X183.343 Y83.147 E.04678
G1 X184.363 Y84.741 E.06833
G1 X184.664 Y85.248 E.02128
G1 X185.576 Y86.911 E.06847
G1 X186.397 Y88.607 E.06804
G1 X186.915 Y89.805 E.04715
G1 X187.131 Y90.341 E.02084
G1 X187.779 Y92.116 E.06825
G1 X188.337 Y93.911 E.06786
G1 X188.806 Y95.726 E.06767
G1 X189.188 Y97.551 E.06732
G1 X189.411 Y98.876 E.04852
G1 X189.651 Y100.735 E.06769
G1 X189.81 Y102.593 E.06733
G1 X189.891 Y104.443 E.06688
G1 X189.896 Y106.295 E.06684
G1 X189.829 Y108.138 E.06661
G1 X189.691 Y109.972 E.0664
G1 X189.485 Y111.795 E.06622
G1 X189.212 Y113.604 E.06608
G1 X188.873 Y115.4 E.06597
G1 X188.472 Y117.168 E.06545
G1 X188.001 Y118.939 E.06616
G1 X187.464 Y120.695 E.06632
G1 X186.864 Y122.418 E.06587
G1 X186.194 Y124.131 E.06642
G1 X185.455 Y125.817 E.06646
G1 X184.646 Y127.479 E.06673
G1 X183.765 Y129.113 E.06706
G1 X182.812 Y130.713 E.06721
G1 X181.778 Y132.289 E.06806
G1 X180.674 Y133.817 E.06807
G1 X179.485 Y135.314 E.06902
G1 X179.138 Y135.725 E.01943
G1 X177.842 Y137.167 E.07001
G1 X176.482 Y138.542 E.06983
G1 X175.041 Y139.865 E.07064
G1 X173.972 Y140.767 E.05048
G1 X173.531 Y141.121 E.02042
G1 X171.944 Y142.315 E.07174
G1 X170.295 Y143.435 E.07196
G1 X168.582 Y144.481 E.07245
G1 X166.813 Y145.449 E.07283
G1 X165.472 Y146.115 E.05407
G1 X163.096 Y147.164 E.09376
G1 X161.169 Y147.902 E.07451
G1 X159.648 Y148.421 E.05804
G1 X157.602 Y149.038 E.07712
G1 X156.886 Y149.229 E.02676
G1 X156.764 Y149.279 E.00477
G1 X156.561 Y149.418 E.00889
G1 X153.998 Y151.98 E.13085
G1 X153.225 Y152.685 E.03776
G1 X152.406 Y153.304 E.03708
G1 X151.537 Y153.843 E.03692
G1 X150.275 Y154.449 E.05053
G1 X149.313 Y154.796 E.03693
G1 X148.332 Y155.052 E.03662
G1 X147.324 Y155.219 E.03689
G1 X145.976 Y155.298 E.04876
G1 X74.019 Y155.298 E2.59808
G1 X72.968 Y155.25 E.03799
G1 X71.951 Y155.108 E.03708
G1 X70.954 Y154.875 E.03695
G1 X69.716 Y154.445 E.04731
G1 X68.719 Y153.982 E.03969
G1 X67.823 Y153.457 E.0375
G1 X66.992 Y152.86 E.03695
G1 X65.994 Y151.972 E.04825
G1 X63.439 Y149.418 E.13043
G1 X63.236 Y149.279 E.00889
G1 X63.114 Y149.229 E.00477
G1 X62.401 Y149.039 E.02663
G1 X60.821 Y148.571 E.05951
G1 X58.84 Y147.905 E.07546
G1 X56.907 Y147.165 E.07472
G1 X55.025 Y146.348 E.07408
G1 X53.196 Y145.454 E.0735
G1 X51.418 Y144.48 E.0732
G1 X49.711 Y143.438 E.07221
G1 X48.062 Y142.319 E.07196
G1 X46.48 Y141.129 E.07148
G1 X44.962 Y139.868 E.07125
G1 X43.519 Y138.544 E.07071
G1 X43.123 Y138.157 E.01999
G1 X41.778 Y136.758 E.07008
G1 X40.513 Y135.312 E.06935
G1 X39.659 Y134.252 E.04915
G1 X38.527 Y132.726 E.0686
G1 X37.467 Y131.154 E.06847
G1 X36.234 Y129.111 E.08615
G1 X35.354 Y127.479 E.06697
G1 X34.545 Y125.817 E.06673
G1 X33.806 Y124.131 E.06646
G1 X33.139 Y122.426 E.06611
G1 X32.678 Y121.122 E.04994
G1 X32.123 Y119.368 E.0664
G1 X31.532 Y117.183 E.08176
G1 X31.128 Y115.404 E.06584
G1 X30.794 Y113.635 E.06503
G1 X30.576 Y112.242 E.05088
G1 X30.31 Y109.981 E.08221
G1 X30.172 Y108.149 E.06635
G1 X30.104 Y106.3 E.06679
G1 X30.109 Y104.447 E.06689
G1 X30.161 Y103.081 E.04939
G1 X30.297 Y101.24 E.06662
G1 X30.513 Y99.398 E.06697
G1 X30.812 Y97.554 E.06744
G1 X31.194 Y95.726 E.06746
G1 X31.663 Y93.911 E.06768
G1 X31.818 Y93.379 E.01999
G1 X32.407 Y91.578 E.06843
G1 X33.083 Y89.81 E.06832
G1 X33.847 Y88.079 E.06832
G1 X34.698 Y86.39 E.0683
G1 X35.634 Y84.747 E.06826
G1 X36.651 Y83.155 E.06821
G1 X37.752 Y81.613 E.06841
G1 X38.92 Y80.141 E.06786
G1 X40.164 Y78.724 E.06808
G1 X41.48 Y77.366 E.06828
G1 X42.856 Y76.079 E.06803
G1 X44.292 Y74.859 E.06803
G1 X45.783 Y73.706 E.06806
G1 X47.267 Y72.663 E.06548
G1 X47.53 Y73.037 F9000
G1 F900
G1 X47.584 Y73 E.00238
G1 X49.152 Y71.997 E.06721
G1 X50.356 Y71.289 E.05043
G1 X52.026 Y70.387 E.06854
G1 X54.149 Y69.361 E.08512
G1 X55.888 Y68.612 E.06837
G1 X57.66 Y67.924 E.06864
G1 X59.091 Y67.42 E.05477
G1 X60.96 Y66.826 E.0708
G1 X63.215 Y66.199 E.08453
G1 X65.13 Y65.738 E.07112
G1 X66.72 Y65.401 E.05869
G1 X67.732 Y65.236 E.03699
G1 X69.02 Y65.161 E.04661
G1 X103.976 Y65.16 E1.26211
G1 X105.24 Y65.23 E.04571
G1 X105.852 Y65.299 E.02221
G1 X106.818 Y65.452 E.03534
G1 X108.233 Y65.84 E.05297
G1 X108.827 Y66.045 E.02267
G1 X109.576 Y66.343 E.02913
G1 X109.976 Y66.417 E.01468
G1 X110.213 Y66.404 E.00856
G1 X110.391 Y66.366 E.00657
G1 X111.09 Y66.077 E.02734
G1 X111.684 Y65.866 E.02276
G1 X112.662 Y65.571 E.03686
G1 X114.105 Y65.306 E.05297
G1 X114.722 Y65.235 E.02245
G1 X116.014 Y65.16 E.04673
G1 X150.989 Y65.161 E1.26277
G1 X152.012 Y65.209 E.03699
G1 X153.287 Y65.403 E.04655
G1 X155.222 Y65.818 E.07148
G1 X157.141 Y66.292 E.07138
G1 X159.039 Y66.826 E.07119
G1 X160.897 Y67.416 E.07037
G1 X162.336 Y67.922 E.05507
G1 X164.117 Y68.614 E.06899
G1 X165.85 Y69.361 E.06812
G1 X167.55 Y70.172 E.06801
G1 X169.648 Y71.292 E.0859
G1 X171.269 Y72.257 E.06811
M73 P0 R191
G1 X172.839 Y73.287 E.06778
G1 X173.944 Y74.073 E.04898
G1 X175.423 Y75.216 E.06746
G1 X176.837 Y76.418 E.06702
G1 X178.192 Y77.685 E.06699
G1 X179.497 Y79.03 E.06766
G1 X179.876 Y79.446 E.0203
G1 X181.087 Y80.868 E.06745
G1 X182.228 Y82.354 E.06766
G1 X182.965 Y83.404 E.04629
G1 X183.972 Y84.979 E.06751
G1 X184.268 Y85.476 E.02089
G1 X185.171 Y87.123 E.06782
G1 X185.98 Y88.794 E.06703
G1 X186.494 Y89.983 E.04675
G1 X186.705 Y90.507 E.02038
G1 X187.347 Y92.266 E.06762
G1 X187.898 Y94.039 E.06705
G1 X188.361 Y95.833 E.06688
G1 X188.738 Y97.633 E.0664
G1 X188.959 Y98.946 E.04807
G1 X189.197 Y100.787 E.06702
G1 X189.354 Y102.625 E.06663
G1 X189.434 Y104.451 E.06599
G1 X189.439 Y106.284 E.06619
G1 X189.373 Y108.11 E.06597
G1 X189.236 Y109.927 E.06578
G1 X189.032 Y111.732 E.06561
G1 X188.762 Y113.525 E.06547
G1 X188.426 Y115.304 E.06536
G1 X188.027 Y117.061 E.06503
G1 X187.563 Y118.81 E.06537
G1 X187.028 Y120.555 E.06589
G1 X186.435 Y122.262 E.06524
G1 X185.77 Y123.958 E.06578
G1 X185.039 Y125.628 E.0658
G1 X184.238 Y127.273 E.06606
G1 X183.366 Y128.89 E.06636
G1 X182.426 Y130.468 E.06629
G1 X181.403 Y132.027 E.06732
G1 X180.312 Y133.538 E.06732
G1 X178.792 Y135.426 E.08751
G1 X177.512 Y136.851 E.06917
G1 X176.167 Y138.211 E.06904
G1 X174.741 Y139.52 E.06991
G1 X173.683 Y140.413 E.04997
G1 X173.249 Y140.761 E.02009
G1 X171.675 Y141.945 E.07112
G1 X170.044 Y143.052 E.07116
G1 X168.35 Y144.086 E.07167
G1 X166.604 Y145.043 E.07189
G1 X165.28 Y145.7 E.05336
G1 X162.919 Y146.742 E.09321
G1 X161.016 Y147.472 E.07358
G1 X159.51 Y147.985 E.05744
G1 X157.48 Y148.597 E.07657
G1 X156.776 Y148.785 E.02631
