; HEADER_BLOCK_START
; generated by OrcaSlicer 2.0.0 on 2024-05-08 at 14:52:59
; total layer number: 50
; filament_density: 1.24
; filament_diameter: 1.75
; max_z_height: 10.00
; HEADER_BLOCK_END

; THUMBNAIL_BLOCK_START

;
; THUMBNAIL_BLOCK_END

; external perimeters extrusion width = 0.40mm
; perimeters extrusion width = 0.45mm
; infill extrusion width = 0.45mm
; solid infill extrusion width = 0.40mm
; top infill extrusion width = 0.40mm
; support material extrusion width = 0.40mm
; first layer extrusion width = 0.50mm

; EXECUTABLE_BLOCK_START
EXCLUDE_OBJECT_DEFINE NAME=Klappdeckel_Print_in_Place_Bierflasche_.stl_id_0_copy_0 CENTER=110,110 POLYGON=[[95.5357,79.3024],[95.5499,78.5608],[95.6021,77.8209],[95.6922,77.0846],[95.8198,76.3539],[95.9848,75.6307],[96.1867,74.9169],[96.4248,74.2144],[96.6987,73.525],[97.0075,72.8506],[97.3506,72.1929],[97.7268,71.5536],[98.1354,70.9345],[98.5752,70.3371],[99.045,69.7631],[99.5436,69.2139],[100.07,68.691],[100.622,68.1957],[101.199,67.7294],[101.799,67.2933],[101.908,67.2278],[102.025,67.1768],[102.147,67.141],[102.272,67.1209],[102.399,67.117],[117.601,67.1169],[117.728,67.121],[117.853,67.1412],[117.975,67.1771],[118.092,67.228],[118.201,67.2933],[118.801,67.7294],[119.378,68.1957],[119.93,68.691],[120.456,69.2139],[120.955,69.7631],[121.425,70.3371],[121.865,70.9345],[122.273,71.5536],[122.649,72.1929],[122.992,72.8506],[123.301,73.525],[123.575,74.2144],[123.813,74.9169],[124.015,75.6307],[124.18,76.3539],[124.308,77.0846],[124.398,77.8209],[124.45,78.5608],[124.464,79.3024],[123.995,139.11],[123.993,139.339],[123.971,139.75],[123.95,140.068],[123.917,140.388],[123.869,140.793],[123.834,141.023],[123.751,141.513],[123.723,141.653],[123.595,142.226],[123.582,142.277],[123.413,142.894],[123.402,142.93],[123.215,143.502],[123.173,143.623],[122.99,144.101],[122.908,144.304],[122.737,144.689],[122.608,144.969],[122.458,145.265],[122.274,145.618],[122.154,145.828],[121.906,146.248],[121.823,146.377],[121.506,146.859],[121.469,146.91],[121.09,147.427],[121.075,147.448],[120.688,147.925],[120.613,148.013],[120.264,148.404],[120.123,148.554],[119.818,148.863],[119.605,149.069],[119.351,149.3],[119.061,149.555],[118.865,149.716],[118.493,150.013],[118.36,150.11],[117.901,150.441],[117.288,150.837],[116.747,151.148],[116.655,151.2],[116.18,151.444],[116.004,151.53],[115.599,151.714],[115.337,151.826],[115.007,151.957],[114.655,152.087],[114.405,152.172],[113.96,152.311],[113.793,152.359],[113.255,152.499],[113.173,152.519],[112.541,152.651],[111.914,152.751],[111.82,152.764],[111.278,152.824],[111.094,152.84],[110.64,152.868],[110.365,152.878],[110,152.883],[109.635,152.878],[109.36,152.868],[108.906,152.84],[108.722,152.824],[108.18,152.764],[108.086,152.751],[107.459,152.651],[106.827,152.519],[106.745,152.499],[106.207,152.359],[106.04,152.311],[105.595,152.172],[105.345,152.087],[104.993,151.957],[104.663,151.826],[104.401,151.714],[103.996,151.53],[103.82,151.444],[103.345,151.2],[103.253,151.148],[102.712,150.837],[102.099,150.441],[101.64,150.11],[101.507,150.013],[101.135,149.716],[100.939,149.555],[100.649,149.3],[100.395,149.069],[100.182,148.863],[99.8772,148.554],[99.7359,148.404],[99.3869,148.013],[99.3115,147.925],[98.9254,147.448],[98.9097,147.427],[98.5311,146.91],[98.4941,146.859],[98.1765,146.377],[98.094,146.248],[97.8464,145.828],[97.7263,145.618],[97.5415,145.265],[97.392,144.969],[97.2625,144.689],[97.0919,144.304],[97.01,144.101],[96.827,143.623],[96.7846,143.502],[96.5978,142.93],[96.5869,142.894],[96.4177,142.277],[96.4051,142.226],[96.2773,141.653],[96.2493,141.513],[96.1658,141.023],[96.1309,140.793],[96.0831,140.388],[96.0502,140.068],[96.0294,139.75],[96.0074,139.339],[96.0046,139.11],[95.5357,79.3024]]
M73 P0 R31
;TYPE:Custom
M117 ; clear display for KAMP meshing
START_PRINT BED_TEMP=60 EXTRUDER_TEMP=220
G90
G21
M83 ; use relative distances for extrusion
; filament start gcode
M106 S0
;LAYER_CHANGE
;Z:0.2
;HEIGHT:0.2
;BEFORE_LAYER_CHANGE
;0.2
G92 E0

G1 E-5 F3600
;_SET_FAN_SPEED_CHANGING_LAYER
SET_VELOCITY_LIMIT ACCEL=500 ACCEL_TO_DECEL=250
; printing object Klappdeckel Print in Place (Bierflasche).stl id:0 copy 0
EXCLUDE_OBJECT_START NAME=Klappdeckel_Print_in_Place_Bierflasche_.stl_id_0_copy_0
G1 Z.4 F9000
G1 X108.705 Y93.148
G1 Z.4
G1 Z.2
G1 E5 F2400
;TYPE:Inner wall
;WIDTH:0.499999
G1 F900
G1 X109.661 Y93.207 E.03567
G1 X110.399 Y93.205 E.02751
G1 X111.295 Y93.148 E.03344
G1 X111.263 Y93.243 E.00374
G1 X111.267 Y96.052 E.10462
G1 X108.736 Y96.052 E.09426
G1 X108.737 Y93.346 E.10079
G1 X108.711 Y93.187 E.00598
G1 X107.875 Y92.624 F9000
;WIDTH:0.520144
G1 F900
G1 X107.821 Y92.583 E.00265
G1 X108.236 Y92.638 E.01629
;WIDTH:0.499999
G1 X108.947 Y92.713 E.02662
G1 X109.661 Y92.75 E.02662
G1 X110.375 Y92.749 E.02662
G1 X111.124 Y92.706 E.02791
;WIDTH:0.520146
G1 X112.179 Y92.583 E.04132
G1 X111.887 Y92.792 E.01394
;WIDTH:0.50039
G1 X111.72 Y93.242 E.0179
;WIDTH:0.499999
G1 X111.725 Y96.509 E.12167
G1 X108.279 Y96.509 E.12834
G1 X108.28 Y93.278 E.12035
G1 X108.135 Y92.82 E.01787
;WIDTH:0.520144
G1 X107.907 Y92.648 E.0111
G1 X107.509 Y92.991 F9000
;TYPE:Outer wall
;WIDTH:0.499999
G1 F900
G1 X106.794 Y92.848 E.02716
G1 X106.1 Y92.665 E.02673
G1 X105.415 Y92.448 E.02676
G1 X104.742 Y92.195 E.02676
G1 X104.084 Y91.909 E.02676
G1 X103.44 Y91.589 E.02676
G1 X102.814 Y91.236 E.02676
G1 X102.207 Y90.852 E.02676
G1 X101.62 Y90.437 E.02676
G1 X101.056 Y89.993 E.02676
G1 X100.515 Y89.52 E.02676
G1 X100.144 Y89.162 E.0192
G1 X99.508 Y88.494 E.03437
G1 X99.046 Y87.945 E.02671
G1 X98.613 Y87.372 E.02676
G1 X98.209 Y86.777 E.02676
G1 X97.837 Y86.163 E.02676
G1 X97.496 Y85.53 E.02676
G1 X97.189 Y84.881 E.02676
G1 X96.915 Y84.216 E.02676
G1 X96.675 Y83.539 E.02676
G1 X96.471 Y82.85 E.02676
G1 X96.302 Y82.152 E.02676
G1 X96.169 Y81.446 E.02676
G1 X96.072 Y80.734 E.02676
G1 X96.029 Y80.22 E.0192
G1 X95.989 Y79.298 E.03437
G1 X96.003 Y78.581 E.02671
G1 X96.054 Y77.864 E.02676
G1 X96.141 Y77.151 E.02676
G1 X96.265 Y76.443 E.02676
G1 X96.424 Y75.743 E.02676
G1 X96.62 Y75.051 E.02676
G1 X96.851 Y74.371 E.02676
G1 X97.116 Y73.703 E.02676
G1 X97.415 Y73.05 E.02676
G1 X97.747 Y72.413 E.02676
G1 X98.112 Y71.794 E.02676
G1 X98.507 Y71.194 E.02676
G1 X98.933 Y70.615 E.02676
G1 X99.388 Y70.059 E.02676
G1 X99.872 Y69.527 E.02676
G1 X100.381 Y69.021 E.02676
G1 X100.916 Y68.541 E.02676
G1 X101.475 Y68.089 E.02676
G1 X101.985 Y67.719 E.02347
G1 X102.307 Y67.58 E.01308
G1 X102.647 Y67.651 E.01295
G1 X102.869 Y67.911 E.01271
G1 X102.892 Y68.058 E.00552
G1 X102.867 Y68.212 E.00583
G1 X102.041 Y68.822 E.03825
G1 X101.52 Y69.244 E.02497
G1 X101.02 Y69.691 E.02497
G1 X100.545 Y70.163 E.02497
G1 X100.094 Y70.659 E.02497
G1 X99.668 Y71.177 E.02497
G1 X99.27 Y71.717 E.02497
G1 X98.901 Y72.276 E.02497
G1 X98.56 Y72.853 E.02497
G1 X98.249 Y73.447 E.02497
G1 X97.969 Y74.057 E.02497
G1 X97.72 Y74.679 E.02497
G1 X97.503 Y75.317 E.0251
G1 X97.315 Y75.982 E.02572
G1 X97.163 Y76.655 E.02572
G1 X97.046 Y77.336 E.02572
G1 X96.965 Y78.022 E.02572
G1 X96.921 Y78.711 E.02572
G1 X96.913 Y79.401 E.02572
G1 X96.947 Y80.148 E.02785
G1 X97.006 Y80.779 E.02359
G1 X97.106 Y81.459 E.02561
G1 X97.241 Y82.127 E.02538
G1 X97.557 Y83.257 E.04372
G1 X97.781 Y83.889 E.02497
G1 X98.037 Y84.508 E.02497
G1 X98.324 Y85.114 E.02497
G1 X98.642 Y85.704 E.02497
G1 X98.99 Y86.277 E.02497
G1 X99.373 Y86.841 E.02538
G1 X99.995 Y87.647 E.03791
G1 X100.454 Y88.163 E.02573
G1 X101.14 Y88.837 E.03583
G1 X101.645 Y89.278 E.02497
G1 X102.171 Y89.693 E.02497
G1 X102.719 Y90.08 E.02497
G1 X103.285 Y90.439 E.02497
G1 X103.869 Y90.768 E.02497
G1 X104.469 Y91.067 E.02497
G1 X105.083 Y91.335 E.02497
G1 X105.71 Y91.571 E.02497
G1 X106.349 Y91.775 E.02497
G1 X106.995 Y91.946 E.02488
G1 X107.603 Y92.075 E.02314
G1 X108.284 Y92.184 E.02572
G1 X108.971 Y92.256 E.02572
G1 X109.661 Y92.292 E.02572
G1 X110.351 Y92.292 E.02572
G1 X111.076 Y92.252 E.02702
G1 X111.727 Y92.182 E.02442
G1 X112.409 Y92.073 E.02572
G1 X113.084 Y91.928 E.02572
G1 X114.407 Y91.533 E.05141
G1 X115.048 Y91.284 E.02563
G1 X116.003 Y90.834 E.03932
G1 X116.721 Y90.432 E.03062
G1 X117.281 Y90.08 E.02467
G1 X117.829 Y89.693 E.02497
G1 X118.355 Y89.278 E.02497
G1 X118.86 Y88.837 E.02497
G1 X119.341 Y88.37 E.02497
G1 X119.798 Y87.88 E.02497
G1 X120.229 Y87.366 E.02497
G1 X120.634 Y86.832 E.02496
G1 X121.01 Y86.277 E.02497
G1 X121.358 Y85.704 E.02497
G1 X121.676 Y85.114 E.02497
G1 X122.009 Y84.402 E.02928
G1 X122.381 Y83.455 E.03791
G1 X122.587 Y82.796 E.02573
G1 X122.792 Y81.963 E.03193
G1 X123.007 Y80.64 E.04992
G1 X123.064 Y79.972 E.02497
G1 X123.086 Y79.302 E.02497
G1 X123.074 Y78.632 E.02497
G1 X123.028 Y77.963 E.02497
G1 X122.948 Y77.297 E.02498
G1 X122.834 Y76.64 E.02482
G1 X122.631 Y75.79 E.03259
G1 X122.493 Y75.306 E.01873
G1 X122.27 Y74.652 E.02572
G1 X121.959 Y73.896 E.03047
G1 X121.722 Y73.385 E.02097
G1 X121.398 Y72.775 E.02572
G1 X121.043 Y72.183 E.02572
G1 X120.242 Y71.059 E.05141
G1 X119.798 Y70.53 E.02573
G1 X119.327 Y70.025 E.02572
G1 X118.829 Y69.546 E.02572
G1 X118.307 Y69.094 E.02572
G1 X117.762 Y68.669 E.02576
G1 X117.263 Y68.325 E.02258
G1 X117.097 Y68.127 E.0096
G1 X117.115 Y67.97 E.00588
G1 X117.231 Y67.751 E.00925
G1 X117.547 Y67.583 E.01333
G1 X117.819 Y67.609 E.01018
G1 X118.543 Y68.104 E.03265
G1 X119.093 Y68.549 E.02637
G1 X119.627 Y69.029 E.02676
G1 X120.136 Y69.536 E.02676
G1 X120.619 Y70.068 E.02676
G1 X121.074 Y70.625 E.02676
G1 X121.613 Y71.377 E.03448
G1 X121.894 Y71.804 E.01904
G1 X122.258 Y72.423 E.02676
G1 X122.59 Y73.061 E.02676
G1 X123.155 Y74.386 E.05365
G1 X123.384 Y75.066 E.02674
G1 X123.745 Y76.498 E.05499
G1 X123.868 Y77.226 E.0275
G1 X123.953 Y77.959 E.0275
G1 X123.997 Y78.593 E.02366
G1 X124.011 Y79.299 E.02632
G1 X123.988 Y80.018 E.02676
G1 X123.928 Y80.734 E.02676
G1 X123.831 Y81.446 E.02676
G1 X123.698 Y82.152 E.02676
G1 X123.577 Y82.653 E.0192
G1 X123.324 Y83.54 E.03437
G1 X123.085 Y84.216 E.02671
G1 X122.811 Y84.881 E.02676
G1 X122.504 Y85.53 E.02676
G1 X122.163 Y86.163 E.02676
G1 X121.791 Y86.777 E.02676
G1 X121.387 Y87.372 E.02676
G1 X120.954 Y87.945 E.02676
G1 X120.491 Y88.495 E.02676
G1 X120.002 Y89.02 E.02676
G1 X119.485 Y89.52 E.02676
G1 X118.944 Y89.993 E.02676
G1 X118.38 Y90.437 E.02676
G1 X117.793 Y90.852 E.02676
G1 X117.186 Y91.236 E.02676
G1 X116.56 Y91.589 E.02676
G1 X115.916 Y91.909 E.02676
G1 X115.258 Y92.195 E.02676
G1 X114.585 Y92.448 E.02676
G1 X113.9 Y92.665 E.02676
G1 X113.206 Y92.848 E.02673
G1 X112.361 Y93.017 E.03211
G1 X112.233 Y93.091 E.00551
G1 X112.177 Y93.241 E.00596
G1 X112.182 Y96.676 E.12792
G1 X112.132 Y96.863 E.0072
G1 X111.975 Y96.966 E.00702
G1 X108.099 Y96.966 E.14434
G1 X107.946 Y96.939 E.00578
G1 X107.822 Y96.742 E.00869
G1 X107.823 Y93.345 E.1265
G1 X107.775 Y93.101 E.00929
G1 X107.639 Y93.017 E.00593
G1 X107.548 Y92.999 E.00346
G1 E-3.5 F3600
;WIPE_START
G1 F900
G1 X106.794 Y92.848 E-1.15384
G1 X106.571 Y92.789 E-.34616
;WIPE_END
G1 Z.6 F9000
G1 X117.66 Y68.049 Z.6
G1 Z.2
G1 E5 F2400
;TYPE:Inner wall
;WIDTH:0.511892
G1 F900
G1 X118.252 Y68.464 E.02762
G1 X118.784 Y68.894 E.02614
G1 X119.301 Y69.358 E.02655
;WIDTH:0.511726
G1 X119.671 Y69.72 E.0198
;WIDTH:0.504854
G1 X120.134 Y70.217 E.02554
G1 X120.594 Y70.764 E.02691
;WIDTH:0.51761
G1 X121.11 Y71.461 E.03355
G1 X121.425 Y71.926 E.02173
;WIDTH:0.505806
G1 X121.793 Y72.539 E.02696
;WIDTH:0.506166
G1 X122.129 Y73.17 E.02698
;WIDTH:0.507166
G1 X122.377 Y73.702 E.02221
G1 X122.697 Y74.481 E.03186
;WIDTH:0.507426
G1 X122.929 Y75.157 E.02706
;WIDTH:0.507968
G1 X123.074 Y75.664 E.01998
;WIDTH:0.508204
G1 X123.284 Y76.538 E.03409
;WIDTH:0.508876
G1 X123.402 Y77.219 E.02623
;WIDTH:0.50932
G1 X123.487 Y77.909 E.02641
;WIDTH:0.50974
G1 X123.535 Y78.602 E.02643
;WIDTH:0.510128
G1 X123.548 Y79.296 E.02645
;WIDTH:0.510484
G1 X123.526 Y79.991 E.02647
;WIDTH:0.510812
G1 X123.468 Y80.683 E.02649
;WIDTH:0.520066
G1 X123.282 Y81.87 E.04672
;WIDTH:0.508958
G1 X123.131 Y82.535 E.02589
;WIDTH:0.511688
G1 X122.883 Y83.4 E.03435
;WIDTH:0.5196
G1 X122.439 Y84.571 E.04867
;WIDTH:0.512284
G1 X122.09 Y85.321 E.03163
G1 X121.761 Y85.933 E.02657
;WIDTH:0.51244
G1 X121.401 Y86.527 E.02658
G1 X121.011 Y87.102 E.02658
G1 X120.591 Y87.656 E.02658
G1 X120.144 Y88.187 E.02658
G1 X119.671 Y88.696 E.02658
G1 X119.172 Y89.179 E.02658
;WIDTH:0.51231
G1 X118.649 Y89.636 E.02657
;WIDTH:0.512196
G1 X118.103 Y90.066 E.02657
;WIDTH:0.512046
G1 X117.535 Y90.467 E.02656
;WIDTH:0.511876
G1 X117.102 Y90.745 E.01968
;WIDTH:0.516436
G1 X116.342 Y91.177 E.03374
G1 X115.891 Y91.408 E.01955
;WIDTH:0.504962
G1 X115.239 Y91.702 E.02691
;WIDTH:0.50524
G1 X114.573 Y91.961 E.02693
;WIDTH:0.518064
G1 X113.77 Y92.218 E.03262
G1 X113.204 Y92.372 E.02271
;WIDTH:0.505888
G1 X112.505 Y92.521 E.02697
;WIDTH:0.520146
G1 X112.179 Y92.583 E.01292
G1 E-3.5 F3600
;WIPE_START
G1 F900
G1 X112.505 Y92.521 E-.49829
G1 X113.158 Y92.382 E-1.00171
;WIPE_END
G1 Z.6 F9000
G1 X102.257 Y68.094 Z.6
G1 Z.2
G1 E5 F2400
;WIDTH:0.51212
G1 F900
G1 X101.757 Y68.457 E.02364
G1 X101.216 Y68.894 E.02656
;WIDTH:0.511924
G1 X100.699 Y69.358 E.02655
;WIDTH:0.51173
G1 X100.329 Y69.72 E.0198
;WIDTH:0.504854
G1 X99.866 Y70.217 E.02554
G1 X99.406 Y70.763 E.0269
;WIDTH:0.505174
G1 X98.975 Y71.334 E.02692
;WIDTH:0.505476
G1 X98.575 Y71.926 E.02694
;WIDTH:0.505808
G1 X98.207 Y72.539 E.02696
;WIDTH:0.50617
G1 X97.871 Y73.17 E.02698
;WIDTH:0.506556
G1 X97.57 Y73.818 E.02701
;WIDTH:0.50698
G1 X97.302 Y74.481 E.02703
;WIDTH:0.507428
G1 X97.071 Y75.157 E.02706
;WIDTH:0.507904
G1 X96.875 Y75.844 E.02708
;WIDTH:0.508406
G1 X96.717 Y76.534 E.02685
;WIDTH:0.508878
G1 X96.598 Y77.219 E.02638
;WIDTH:0.509324
G1 X96.513 Y77.909 E.02641
;WIDTH:0.509744
G1 X96.465 Y78.602 E.02643
;WIDTH:0.5101
G1 X96.452 Y79.293 E.0263
G1 X96.483 Y80.098 E.03067
;WIDTH:0.510812
G1 X96.532 Y80.683 E.02241
;WIDTH:0.511114
G1 X96.626 Y81.372 E.02651
;WIDTH:0.511384
G1 X96.754 Y82.055 E.02652
;WIDTH:0.511622
G1 X96.918 Y82.73 E.02654
;WIDTH:0.511832
G1 X97.116 Y83.396 E.02655
;WIDTH:0.51201
G1 X97.347 Y84.051 E.02656
;WIDTH:0.512162
G1 X97.612 Y84.693 E.02657
;WIDTH:0.512282
G1 X97.91 Y85.321 E.02657
G1 X98.239 Y85.933 E.02657
;WIDTH:0.512442
M73 P1 R31
G1 X98.599 Y86.527 E.02658
G1 X98.989 Y87.102 E.02658
;WIDTH:0.518282
G1 X99.411 Y87.654 E.02691
G1 X99.853 Y88.184 E.02676
;WIDTH:0.51234
G1 X100.472 Y88.837 E.03439
;WIDTH:0.507956
G1 X101.132 Y89.45 E.03414
;WIDTH:0.504006
G1 X101.684 Y89.903 E.02685
;WIDTH:0.504138
G1 X102.26 Y90.327 E.02686
;WIDTH:0.504302
G1 X102.857 Y90.72 E.02687
;WIDTH:0.504494
G1 X103.474 Y91.081 E.02688
;WIDTH:0.504712
M73 P1 R30
G1 X104.109 Y91.408 E.0269
;WIDTH:0.504962
G1 X104.761 Y91.702 E.02691
;WIDTH:0.50524
G1 X105.427 Y91.961 E.02693
;WIDTH:0.50555
G1 X106.106 Y92.185 E.02695
;WIDTH:0.505888
G1 X106.796 Y92.372 E.02697
G1 X107.495 Y92.521 E.02697
;WIDTH:0.520144
G1 X107.821 Y92.583 E.01292
G1 E-3.5 F3600
;WIPE_START
G1 F900
G1 X107.495 Y92.521 E-.49826
G1 X106.842 Y92.382 E-1.00174
;WIPE_END
G1 Z.6 F9000
G1 X111.118 Y94.322 Z.6
G1 Z.2
G1 E5 F2400
;TYPE:Bottom surface
;WIDTH:0.539751
G1 F1200
G1 X110.354 Y93.558 E.04377
G1 X109.651 Y93.558 E.02844
G1 X110.913 Y94.82 E.07225
G1 X110.914 Y95.524 E.02849
G1 X109.089 Y93.698 E.10451
G1 X109.089 Y94.401 E.02844
G1 X110.388 Y95.7 E.07437
G1 X109.685 Y95.7 E.02845
G1 X108.883 Y94.898 E.04593
G1 E-3.5 F3600
;WIPE_START
G1 F1200
G1 X109.59 Y95.605 E-1.5
;WIPE_END
G1 Z.6 F9000
G1 X113.996 Y95.843 Z.6
G1 Z.2
G1 E5 F2400
;TYPE:Inner wall
;WIDTH:0.578234
G1 F900
G1 X114.532 Y95.843 E.02335
G1 X114.532 Y122.574 E1.16602
G1 X113.996 Y122.574 E.02335
G1 X113.996 Y95.883 E1.16428
G1 X113.5 Y95.347 F9000
;TYPE:Outer wall
;WIDTH:0.499999
G1 F900
G1 X114.614 Y95.347 E.04149
G1 X114.89 Y95.408 E.01051
G1 X115.001 Y95.556 E.00689
G1 X115.028 Y95.76 E.00767
G1 X115.028 Y122.638 E1.0011
G1 X114.984 Y122.892 E.00957
G1 X114.853 Y123.037 E.0073
G1 X114.72 Y123.07 E.0051
G1 X113.5 Y123.07 E.04544
G1 X113.5 Y95.387 E1.03108
G1 E-3.5 F3600
;WIPE_START
G1 F900
G1 X114.499 Y95.351 E-1.5
;WIPE_END
G1 Z.6 F9000
G1 X108.024 Y128.026 Z.6
G1 Z.2
G1 E5 F2400
;TYPE:Inner wall
G1 F900
G1 X108.269 Y127.903 E.01023
