; generated by PrusaSlicer 2.7.1 on 2024-01-05 at 12:19:24 UTC
;FLAVOR:Marlin
;TIME:876
;Filament used: 1.053720
;Layer height: 0.20
;MINX:0.000
;MINY:0.000
;MINZ:0.000
;MAXX:0.000
;MAXY:0.000
;MAXZ:0.000
;POSTPROCESSED
;Header generated for The Ender3v2 Professional Firmware
;https://github.com/mriscoc/Marlin_Ender3v2



;
;

;
;
; 

; external perimeters extrusion width = 0.42mm
; perimeters extrusion width = 0.44mm
; infill extrusion width = 0.44mm
; solid infill extrusion width = 0.44mm
; top infill extrusion width = 0.40mm
; first layer extrusion width = 0.42mm

M73 P0 R14

EXCLUDE_OBJECT_DEFINE NAME=bookmark_horse_stl CENTER=110.000,110.000 POLYGON=[[111.743,50.076],[113.473,50.304],[115.176,50.681],[116.840,51.206],[118.452,51.874],[120.000,52.679],[121.472,53.617],[122.856,54.679],[124.142,55.858],[125.321,57.144],[126.383,58.528],[127.321,60.000],[128.126,61.548],[128.794,63.160],[129.319,64.824],[129.696,66.527],[129.924,68.257],[130.000,70.000],[130.000,150.000],[129.924,151.743],[129.696,153.473],[129.319,155.176],[128.794,156.840],[128.126,158.452],[127.321,160.000],[126.383,161.472],[125.321,162.856],[124.142,164.142],[122.856,165.321],[121.472,166.383],[120.000,167.321],[118.452,168.126],[116.840,168.794],[115.176,169.319],[113.473,169.696],[111.743,169.924],[110.000,170.000],[108.257,169.924],[106.527,169.696],[104.824,169.319],[103.160,168.794],[101.548,168.126],[100.000,167.321],[98.528,166.383],[97.144,165.321],[95.858,164.142],[94.679,162.856],[93.617,161.472],[92.679,160.000],[91.874,158.452],[91.206,156.840],[90.681,155.176],[90.304,153.473],[90.076,151.743],[90.000,150.000],[90.000,70.000],[90.076,68.257],[90.304,66.527],[90.681,64.824],[91.206,63.160],[91.874,61.548],[92.679,60.000],[93.617,58.528],[94.679,57.144],[95.858,55.858],[97.144,54.679],[98.528,53.617],[100.000,52.679],[101.548,51.874],[103.160,51.206],[104.824,50.681],[106.527,50.304],[108.257,50.076],[110.000,50.000]]

M190 S60 ; set bed temperature and wait for it to be reached
M104 S215 ; set temperature
;TYPE:Custom
M117 ;fix for KAMP meshing
START_PRINT BED_TEMP=60 EXTRUDER_TEMP=215
M109 S215 ; set temperature and wait for it to be reached
G21 ; set units to millimeters
G90 ; use absolute coordinates
M83 ; use relative distances for extrusion
; Filament gcode
M107
;LAYER_CHANGE
;Z:0.2
;HEIGHT:0.2
;BEFORE_LAYER_CHANGE
G92 E0
;0.2


G10 ; retract
G1 Z.2 F15000
;AFTER_LAYER_CHANGE
;0.2
G1 X90.629 Y56.937
G11 ; unretract
M204 S500
;TYPE:Skirt/Brim
;WIDTH:0.42
G1 F2400
G1 X90.769 Y56.714 E.00826
G1 X92 Y55.088 E.06394
G1 X93.576 Y53.368 E.07314
G1 X95.088 Y52 E.06393
G1 X96.473 Y50.938 E.05472
G1 X98.185 Y49.831 E.06392
G1 X99.988 Y48.878 E.06394
G1 X102.144 Y47.985 E.07317
G1 X104.093 Y47.384 E.06395
G1 X106.086 Y46.956 E.06391
G1 X107.816 Y46.728 E.05471
G1 X109.853 Y46.626 E.06395
G1 X111.89 Y46.702 E.06391
G1 X113.914 Y46.956 E.06396
G1 X115.907 Y47.384 E.06391
G1 X118.133 Y48.086 E.07318
G1 X120.012 Y48.878 E.06393
G1 X121.815 Y49.831 E.06394
G1 X123.527 Y50.938 E.06392
G1 X125.137 Y52.189 E.06393
G1 X126.424 Y53.368 E.05473
G1 X127.811 Y54.863 E.06394
G1 X129.062 Y56.473 E.06393
G1 X130.169 Y58.185 E.06392
G1 X131.122 Y59.988 E.06394
G1 X131.914 Y61.867 E.06393
G1 X132.539 Y63.808 E.06394
G1 X132.993 Y65.796 E.06394
G1 X133.272 Y67.816 E.06394
G1 X133.377 Y70 E.06856
G1 X133.377 Y150 E2.50834
G1 X133.272 Y152.184 E.06856
G1 X132.993 Y154.204 E.06394
G1 X132.616 Y155.907 E.05469
G1 X132.015 Y157.856 E.06395
G1 X131.246 Y159.745 E.06395
G1 X130.316 Y161.559 E.06392
G1 X129.231 Y163.286 E.06395
G1 X128 Y164.912 E.06394
G1 X126.424 Y166.632 E.07314
G1 X124.912 Y168 E.06393
G1 X123.527 Y169.062 E.05472
G1 X121.815 Y170.169 E.06392
G1 X120.012 Y171.122 E.06394
G1 X118.133 Y171.914 E.06393
G1 X116.192 Y172.539 E.06394
G1 X113.914 Y173.044 E.07316
G1 X111.89 Y173.298 E.06396
G1 X109.853 Y173.374 E.06391
G1 X107.816 Y173.272 E.06395
G1 X106.086 Y173.044 E.05471
G1 X104.093 Y172.616 E.06391
G1 X102.144 Y172.015 E.06395
G1 X100.255 Y171.246 E.06395
G1 X98.441 Y170.316 E.06392
G1 X96.714 Y169.231 E.06395
G1 X95.088 Y168 E.06394
G1 X93.368 Y166.424 E.07314
G1 X92 Y164.912 E.06393
G1 X90.769 Y163.286 E.06394
G1 X89.684 Y161.559 E.06395
G1 X88.754 Y159.745 E.06392
G1 X87.985 Y157.856 E.06395
G1 X87.384 Y155.907 E.06395
G1 X87.007 Y154.204 E.05469
G1 X86.728 Y152.184 E.06394
G1 X86.623 Y150 E.06856
G1 X86.623 Y70 E2.50834
G1 X86.728 Y67.816 E.06856
G1 X87.007 Y65.796 E.06394
G1 X87.461 Y63.808 E.06394
G1 X87.985 Y62.144 E.0547
G1 X88.754 Y60.255 E.06395
G1 X89.684 Y58.441 E.06392
G1 X90.597 Y56.988 E.05381
EXCLUDE_OBJECT_START NAME=bookmark_horse_stl
G10 ; retract
G1 X90.597 Y56.988 Z.6 F15000
G1 X118.902 Y146.827
G1 Z.2
M73 P1 R14
G11 ; unretract
;TYPE:Perimeter
;WIDTH:0.419999
G1 F2400
G1 X118.893 Y148.617 E.05612
G1 X118.85 Y149.723 E.0347
G1 X118.771 Y150.747 E.0322
G1 X118.647 Y151.82 E.03387
G1 X118.538 Y152.571 E.02379
G1 X118.404 Y153.363 E.02519
G1 X118.075 Y155.013 E.05275
G1 X117.697 Y156.592 E.05091
G1 X117.507 Y157.287 E.02259
G1 X117.187 Y158.291 E.03304
G1 X116.647 Y157.385 E.03307
G1 X116.179 Y156.749 E.02476
G1 X115.712 Y156.211 E.02234
G1 X115.316 Y155.807 E.01774
G1 X114.738 Y155.282 E.02448
G1 X114.414 Y155.154 E.01092
G1 X114.017 Y155.163 E.01245
G1 X113.714 Y155.295 E.01036
G1 X113.263 Y155.724 E.01952
G1 X113.105 Y156.038 E.01102
G1 X113.079 Y156.44 E.01263
G1 X113.231 Y156.827 E.01304
G1 X113.597 Y157.365 E.0204
G1 X114.101 Y158.312 E.03364
G1 X114.337 Y158.863 E.01879
G1 X114.553 Y159.515 E.02154
G1 X114.701 Y160.111 E.01925
G1 X114.803 Y160.824 E.02258
G1 X114.839 Y161.456 E.01985
G1 X114.812 Y162.014 E.01752
G1 X114.682 Y162.724 E.02263
G1 X114.112 Y162.269 E.02287
G1 X113.714 Y161.894 E.01715
G1 X113.293 Y161.455 E.01907
G1 X112.279 Y160.213 E.05027
G1 X111.935 Y160.015 E.01244
G1 X111.655 Y160.019 E.00878
G1 X111.747 Y159.693 E.01062
G1 X111.887 Y158.987 E.02257
G1 X111.962 Y158.343 E.02033
G1 X111.984 Y157.828 E.01616
G1 X111.984 Y157.235 E.01859
G1 X111.947 Y156.613 E.01954
G1 X111.824 Y155.877 E.0234
G1 X112.035 Y155.683 E.00899
G1 X112.122 Y155.575 E.00435
G1 X112.335 Y155.155 E.01477
G1 X112.488 Y154.929 E.00856
G1 X112.677 Y154.443 E.01635
G1 X112.975 Y153.837 E.02117
G1 X113.841 Y152.252 E.05663
G1 X114.638 Y151.024 E.0459
G1 X115.086 Y150.387 E.02442
G1 X115.452 Y149.908 E.0189
G1 X116.163 Y149.08 E.03422
G1 X116.788 Y148.437 E.02812
G1 X117.411 Y147.877 E.02627
G1 X118.019 Y147.401 E.02421
G1 X118.851 Y146.859 E.03113
G1 X119.297 Y146.122 F15000
G1 F2400
G1 X119.281 Y146.4 E.00873
G1 X119.27 Y148.626 E.0698
G1 X119.227 Y149.745 E.03511
G1 X119.146 Y150.783 E.03264
G1 X119.021 Y151.868 E.03424
G1 X118.911 Y152.629 E.02411
G1 X118.775 Y153.431 E.02551
G1 X118.443 Y155.094 E.05317
G1 X118.063 Y156.685 E.05129
G1 X117.868 Y157.394 E.02306
G1 X117.254 Y159.316 E.06326
G1 X117.112 Y158.973 E.01164
G1 X116.76 Y158.287 E.02418
G1 X116.343 Y157.608 E.02498
G1 X115.894 Y156.995 E.02382
G1 X115.443 Y156.475 E.02158
G1 X114.606 Y155.653 E.03678
G1 X114.343 Y155.525 E.00917
G1 X114.105 Y155.53 E.00746
G1 X113.922 Y155.609 E.00625
G1 X113.618 Y155.892 E.01302
G1 X113.48 Y156.102 E.00788
G1 X113.452 Y156.383 E.00885
G1 X113.543 Y156.615 E.00781
G1 X113.948 Y157.211 E.02259
G1 X114.424 Y158.111 E.03192
G1 X114.664 Y158.653 E.01859
G1 X114.905 Y159.368 E.02366
G1 X115.063 Y159.979 E.01979
G1 X115.176 Y160.748 E.02437
G1 X115.219 Y161.418 E.02105
G1 X115.192 Y162.028 E.01914
G1 X115.097 Y162.637 E.01933
G1 X114.905 Y163.333 E.02264
G1 X114.133 Y162.787 E.02965
G1 X113.669 Y162.382 E.01931
G1 X113.172 Y161.886 E.02202
G1 X112.699 Y161.356 E.02227
G1 X112.097 Y160.569 E.03107
G1 X111.82 Y160.374 E.01062
G1 X111.39 Y160.408 E.01352
;WIDTH:0.424682
G1 X111.063 Y160.603 E.01209
G1 X111.195 Y160.247 E.01205
;WIDTH:0.419999
G1 X111.377 Y159.617 E.02056
G1 X111.553 Y158.599 E.03239
G1 X111.608 Y157.814 E.02467
G1 X111.586 Y156.748 E.03343
G1 X111.485 Y156.082 E.02112
G1 X111.354 Y155.693 E.01287
G1 X111.554 Y155.606 E.00684
G1 X111.759 Y155.427 E.00853
G1 X111.994 Y154.993 E.01547
G1 X112.166 Y154.733 E.00977
G1 X112.328 Y154.298 E.01455
G1 X112.639 Y153.666 E.02209
G1 X113.078 Y152.837 E.02941
G1 X113.517 Y152.059 E.02801
G1 X114.024 Y151.254 E.02983
G1 X114.601 Y150.41 E.03206
G1 X115.094 Y149.741 E.02606
G1 X115.892 Y148.818 E.03826
G1 X116.535 Y148.157 E.02891
G1 X117.178 Y147.581 E.02707
G1 X117.809 Y147.088 E.02511
G1 X119.247 Y146.155 E.05375
G10 ; retract
G1 X119.247 Y146.155 Z.6 F15000
G1 X111.091 Y162.705
G1 Z.2
G11 ; unretract
;WIDTH:0.461998
G1 F2400
G1 X110.621 Y162.396 E.0196
G1 X110.163 Y162.386 E.01596
;WIDTH:0.426435
G1 X109.485 Y162.34 E.02167
G1 X108.766 Y162.26 E.02307
;WIDTH:0.419999
G1 X108.061 Y162.147 E.02239
G1 X107.387 Y162.007 E.02158
G1 X106.755 Y161.843 E.02047
G1 X105.533 Y161.422 E.04052
G1 X104.414 Y160.892 E.03882
G1 X103.708 Y160.461 E.02594
G1 X103.304 Y160.15 E.01599
G1 X102.925 Y159.906 E.01413
G1 X102.491 Y159.53 E.018
G1 X101.899 Y158.954 E.0259
G1 X101.399 Y158.407 E.02324
G1 X100.855 Y157.698 E.02802
G1 X100.521 Y157.222 E.01823
G1 X100.017 Y156.381 E.03074
G1 X99.568 Y155.52 E.03045
G1 X99.238 Y154.779 E.02543
G1 X98.758 Y153.533 E.04187
G1 X98.202 Y151.67 E.06096
G1 X97.974 Y150.715 E.03078
G1 X97.773 Y149.709 E.03217
G1 X97.599 Y148.652 E.03359
G1 X97.45 Y147.532 E.03543
G1 X97.325 Y146.338 E.03764
G1 X97.223 Y145.07 E.03989
G1 X97.189 Y144.217 E.02677
G1 X97.168 Y142.324 E.05936
G1 X97.814 Y143.504 E.04218
G1 X98.638 Y144.703 E.04562
G1 X99.573 Y145.803 E.04527
G1 X100.591 Y146.771 E.04405
G1 X104.319 Y149.701 E.14867
G1 X104.841 Y150.138 E.02135
G1 X105.874 Y151.076 E.04375
G1 X106.216 Y151.461 E.01615
G1 X106.739 Y151.969 E.02286
G1 X107.436 Y152.786 E.03367
G1 X107.85 Y153.358 E.02214
G1 X108.276 Y154.058 E.02569
G1 X108.567 Y154.633 E.02021
G1 X108.808 Y155.192 E.01909
G1 X109.041 Y155.87 E.02248
G1 X109.219 Y156.553 E.02213
G1 X109.341 Y157.236 E.02175
G1 X109.408 Y157.912 E.0213
G1 X109.42 Y158.574 E.02076
G1 X109.377 Y159.214 E.02011
G1 X109.281 Y159.823 E.01933
G1 X109.044 Y160.702 E.02854
G1 X109.033 Y161.146 E.01393
G1 X109.203 Y161.516 E.01277
;WIDTH:0.426435
G1 X109.612 Y161.829 E.01642
;WIDTH:0.451694
G1 X109.901 Y161.955 E.01072
G1 X110.187 Y162.005 E.00987
;WIDTH:0.461998
G1 X110.528 Y161.984 E.01191
G1 X110.688 Y161.889 E.00648
G1 X111.064 Y162.651 E.02961
G10 ; retract
G1 X111.064 Y162.651 Z.6 F15000
G1 X114.492 Y146.595
G1 Z.2
G11 ; unretract
;WIDTH:0.419999
G1 F2400
G1 X113.908 Y147.136 E.02496
G1 X113.476 Y147.598 E.01983
G1 X113.259 Y146.938 E.02178
G1 X112.939 Y146.328 E.0216
G1 X112.594 Y145.894 E.01738
G1 X112.154 Y145.566 E.01721
G1 X111.831 Y145.432 E.01096
G1 X111.561 Y145.376 E.00865
G1 X111.174 Y145.376 E.01213
G1 X110.647 Y145.516 E.0171
G1 X110.341 Y145.693 E.01108
G1 X110.128 Y145.666 E.00673
G1 X109.835 Y145.709 E.00929
G1 X109.463 Y145.878 E.01281
G1 X109.186 Y146.082 E.01079
G1 X109.037 Y146.292 E.00807
G1 X108.932 Y146.744 E.01455
G1 X109.058 Y147.364 E.01984
G1 X109.252 Y147.906 E.01805
G1 X109.305 Y148.152 E.00789
G1 X109.54 Y148.612 E.0162
G1 X109.637 Y148.702 E.00415
G1 X109.973 Y149.164 E.01791
G1 X110.365 Y149.535 E.01692
G1 X110.911 Y149.88 E.02025
G1 X111.439 Y150.068 E.01757
G1 X111.77 Y150.103 E.01044
G1 X111.256 Y151.138 E.03623
G1 X110.737 Y152.49 E.04541
G1 X110.393 Y151.879 E.02199
G1 X109.578 Y150.675 E.04559
G1 X108.586 Y149.501 E.04819
G1 X108.007 Y148.884 E.02653
G1 X106.712 Y147.706 E.05489
G1 X105.881 Y147.018 E.03383
G1 X104.328 Y145.822 E.06146
G1 X102.428 Y144.42 E.07404
G1 X101.879 Y143.921 E.02326
G1 X102.277 Y143.688 E.01446
G1 X102.377 Y143.336 E.01147
G1 X102.443 Y142.523 E.02557
G1 X102.479 Y140.715 E.0567
G1 X102.467 Y140.097 E.01938
G1 X102.398 Y139.103 E.03124
G1 X102.307 Y138.164 E.02958
G1 X102.203 Y137.475 E.02185
G1 X102.04 Y136.569 E.02886
G1 X101.868 Y135.807 E.02449
G1 X101.715 Y135.289 E.01694
G1 X101.31 Y134.148 E.03796
G1 X101.086 Y133.418 E.02394
G1 X100.817 Y132.351 E.0345
G1 X100.941 Y132.073 E.00954
G1 X101.005 Y131.693 E.01208
G1 X100.984 Y131.175 E.01625
G1 X100.912 Y130.853 E.01035
G1 X100.71 Y130.38 E.01613
G1 X100.385 Y129.894 E.01833
G1 X100.736 Y129.584 E.01468
G1 X100.925 Y129.366 E.00905
G1 X101.401 Y128.608 E.02806
G1 X101.736 Y128.267 E.01499
G1 X102.168 Y128.006 E.01583
G1 X102.5 Y127.939 E.01062
G1 X102.494 Y128.254 E.00988
G1 X102.434 Y128.921 E.021
G1 X102.465 Y129.443 E.0164
G1 X102.671 Y130.045 E.01995
G1 X102.941 Y130.479 E.01603
G1 X103.212 Y130.805 E.01329
G1 X103.143 Y131.26 E.01443
G1 X103.242 Y131.695 E.01399
G1 X103.394 Y131.946 E.0092
G1 X103.721 Y132.266 E.01435
G1 X104.006 Y132.387 E.00971
G1 X104.479 Y132.483 E.01513
G1 X104.792 Y132.451 E.00987
G1 X105.224 Y132.32 E.01415
G1 X105.858 Y131.976 E.02262
G1 X106.181 Y131.696 E.0134
G1 X106.219 Y131.766 E.0025
G1 X106.58 Y132.958 E.03905
G1 X106.832 Y133.598 E.02157
G1 X107.178 Y134.36 E.02624
G1 X107.631 Y135.022 E.02515
G1 X108.617 Y136.196 E.04807
G1 X109.054 Y136.82 E.02389
G1 X109.351 Y137.336 E.01867
G1 X109.944 Y138.577 E.04312
G1 X110.14 Y138.809 E.00952
G1 X110.488 Y138.997 E.0124
G1 X110.811 Y139.034 E.01019
G1 X111.283 Y138.924 E.0152
G1 X111.605 Y138.763 E.01129
G1 X111.816 Y138.537 E.00969
G1 X111.961 Y138.078 E.01509
G1 X112.368 Y138.539 E.01928
G1 X112.682 Y139.039 E.01851
G1 X113.019 Y139.885 E.02855
G1 X113.27 Y140.912 E.03315
G1 X113.377 Y141.533 E.01976
G1 X113.464 Y142.234 E.02215
G1 X113.532 Y143.031 E.02508
G1 X113.555 Y143.679 E.02033
G1 X113.573 Y145.79 E.06619
G1 X113.67 Y146.088 E.00983
G1 X113.933 Y146.4 E.01279
G1 X114.435 Y146.575 E.01667
G10 ; retract
G1 X114.435 Y146.575 Z.6 F15000
G1 X128.863 Y151.65
G1 Z.2
G11 ; unretract
G1 F2400
G1 X128.647 Y153.288 E.0518
G1 X128.29 Y154.901 E.0518
G1 X127.793 Y156.476 E.05178
G1 X127.161 Y158.002 E.05179
G1 X126.398 Y159.467 E.05179
M73 P2 R14
G1 X125.51 Y160.861 E.05182
G1 X124.505 Y162.171 E.05177
G1 X123.389 Y163.389 E.0518
G1 X122.171 Y164.505 E.0518
G1 X120.861 Y165.51 E.05177
G1 X119.467 Y166.398 E.05182
G1 X118.002 Y167.161 E.05179
G1 X116.508 Y167.782 E.05073
;WIDTH:0.393236
G1 X116.239 Y167.896 E.00851
;WIDTH:0.389854
G1 X115.708 Y168.051 E.01596
;WIDTH:0.419999
G1 X114.901 Y168.29 E.02639
G1 X113.288 Y168.647 E.0518
G1 X111.65 Y168.863 E.0518
G1 X110 Y168.935 E.05178
G1 X108.35 Y168.863 E.05178
G1 X106.712 Y168.647 E.0518
G1 X105.099 Y168.29 E.0518
G1 X103.524 Y167.793 E.05178
G1 X101.998 Y167.161 E.05179
G1 X100.533 Y166.398 E.05179
G1 X99.375 Y165.661 E.04304
G1 X99.47 Y165.644 E.00303
G1 X100.144 Y165.344 E.02313
G1 X100.835 Y164.863 E.0264
G1 X101.561 Y164.211 E.0306
G1 X102.129 Y163.579 E.02664
G1 X102.319 Y163.314 E.01022
G1 X102.627 Y163.478 E.01094
G1 X103.451 Y163.844 E.02827
G1 X104.017 Y164.06 E.01899
G1 X104.798 Y164.3 E.02562
G1 X105.927 Y164.549 E.03625
G1 X106.44 Y164.637 E.01632
G1 X107.546 Y164.746 E.03485
G1 X108.593 Y164.752 E.03283
G1 X109.599 Y164.722 E.03156
G1 X110.675 Y164.606 E.03393
G1 X111.061 Y164.475 E.01278
G1 X111.361 Y164.185 E.01308
G1 X111.514 Y163.629 E.01808
G1 X111.504 Y163.406 E.007
G1 X112.045 Y164.254 E.03154
G1 X112.408 Y164.733 E.01884
G1 X112.994 Y165.466 E.02942
G1 X113.941 Y166.477 E.04343
G1 X114.606 Y167.105 E.02868
G1 X115.09 Y167.509 E.01977
G1 X115.662 Y167.712 E.01903
;WIDTH:0.389854
G1 X115.968 Y167.655 E.00898
;WIDTH:0.400199
G1 X116.3 Y167.494 E.01096
;WIDTH:0.419999
G1 X116.479 Y167.306 E.00814
G1 X116.808 Y166.807 E.01874
G1 X117.16 Y166.176 E.02265
G1 X117.421 Y165.601 E.0198
G1 X117.662 Y164.955 E.02162
G1 X117.849 Y164.348 E.01991
G1 X118.006 Y163.679 E.02155
G1 X118.141 Y162.613 E.03369
G1 X118.138 Y161.562 E.03295
G1 X118.004 Y160.542 E.03226
G1 X118.094 Y160.548 E.00283
G1 X118.653 Y160.366 E.01843
G1 X118.747 Y160.287 E.00385
G1 X118.962 Y159.979 E.01178
G1 X119.423 Y158.91 E.0365
G1 X120.119 Y159.07 E.02239
G1 X120.214 Y159.049 E.00305
G1 X120.512 Y158.906 E.01036
G1 X120.709 Y158.715 E.0086
G1 X122.139 Y156.869 E.07321
G1 X122.256 Y156.625 E.00848
G1 X123.261 Y154.989 E.0602
G1 X123.998 Y153.615 E.04889
G1 X124.678 Y152.17 E.05007
G1 X125.266 Y150.702 E.04958
