; generated by PrusaSlicer 2.7.1 on 2023-12-30 at 14:03:36 UTC
;FLAVOR:Marlin
;TIME:500
;Filament used: 0.648960
;Layer height: 0.20
;MINX:0.000
;MINY:0.000
;MINZ:0.000
;MAXX:0.000
;MAXY:0.000
;MAXZ:0.000
;POSTPROCESSED
;Header generated for The Ender3v2 Professional Firmware
;https://github.com/mriscoc/Marlin_Ender3v2



;
;

;
;
; 

; external perimeters extrusion width = 0.42mm
; perimeters extrusion width = 0.44mm
; infill extrusion width = 0.44mm
; solid infill extrusion width = 0.44mm
; top infill extrusion width = 0.40mm
; first layer extrusion width = 0.42mm

M73 P0 R8

EXCLUDE_OBJECT_DEFINE NAME=cat_bookmark_stl CENTER=110.000,110.848 POLYGON=[[111.314,62.064],[112.574,62.322],[113.769,62.736],[114.887,63.297],[115.916,63.992],[116.846,64.810],[117.665,65.739],[118.360,66.768],[118.922,67.885],[119.337,69.079],[119.595,70.338],[119.684,71.651],[119.713,137.843],[119.815,139.178],[121.051,145.851],[121.515,148.674],[121.510,149.025],[121.225,150.430],[120.941,151.065],[120.570,151.652],[120.052,152.249],[119.469,152.740],[118.592,153.243],[117.875,153.497],[117.636,154.659],[117.130,155.722],[116.373,156.646],[115.614,157.244],[115.055,157.553],[114.154,157.875],[112.881,158.024],[111.526,157.815],[110.749,157.505],[110.074,157.098],[109.933,157.098],[109.259,157.505],[108.480,157.813],[107.676,157.984],[106.803,158.018],[105.853,157.875],[104.952,157.554],[104.128,157.064],[103.423,156.434],[103.044,155.971],[102.592,155.209],[102.286,154.380],[102.132,153.501],[101.416,153.246],[100.538,152.743],[99.955,152.252],[99.356,151.540],[98.782,150.434],[98.500,149.171],[98.483,148.684],[98.814,146.652],[100.185,139.178],[100.287,137.843],[100.316,71.651],[100.404,70.338],[100.662,69.078],[101.077,67.884],[101.638,66.767],[102.334,65.738],[103.153,64.809],[104.083,63.991],[105.113,63.296],[106.231,62.736],[107.426,62.321],[108.686,62.064],[110.000,61.976]]

M190 S70 ; set bed temperature and wait for it to be reached
M104 S240 ; set temperature
;TYPE:Custom
M117 ;fix for KAMP meshing
START_PRINT BED_TEMP=70 EXTRUDER_TEMP=240
M109 S240 ; set temperature and wait for it to be reached
G21 ; set units to millimeters
G90 ; use absolute coordinates
M83 ; use relative distances for extrusion
; Filament gcode
M107
;LAYER_CHANGE
;Z:0.2
;HEIGHT:0.2
;BEFORE_LAYER_CHANGE
G92 E0
;0.2


G10 ; retract
G1 Z.2 F15000
;AFTER_LAYER_CHANGE
;0.2
G1 X99.053 Y64.586
G11 ; unretract
M204 S500
;TYPE:Skirt/Brim
;WIDTH:0.42
G1 F2400
G1 X99.536 Y63.846 E.02909
G1 X100.923 Y62.272 E.06907
G1 X102.194 Y61.191 E.05493
G1 X103.224 Y60.497 E.04089
G1 X105.124 Y59.545 E.06996
G1 X106.751 Y59.012 E.05637
G1 X108.011 Y58.755 E.04234
G1 X110.227 Y58.607 E.07312
G1 X111.99 Y58.756 E.05825
G1 X113.25 Y59.013 E.04234
G1 X114.876 Y59.546 E.05633
G1 X116.401 Y60.278 E.05569
G1 X118.147 Y61.456 E.06934
G1 X119.077 Y62.274 E.04078
G1 X120.199 Y63.507 E.05488
G1 X121.378 Y65.252 E.06933
G1 X122.111 Y66.776 E.05567
G1 X122.527 Y67.969 E.0416
G1 X122.903 Y69.66 E.05703
G1 X123.06 Y71.571 E.06313
G1 X124.89 Y149.028 E2.55075
G1 X124.759 Y150.236 E.04
G1 X124.451 Y151.43 E.0406
G1 X124.047 Y152.409 E.03487
G1 X123.53 Y153.311 E.03423
G1 X119.132 Y158.647 E.22765
G1 X118.392 Y159.372 E.03411
G1 X117.527 Y160.027 E.03572
G1 X115.899 Y160.859 E.06019
G1 X114.873 Y161.175 E.03534
G1 X114.028 Y161.33 E.02828
G1 X112.881 Y161.401 E.03783
G1 X106.739 Y161.394 E.20221
G1 X105.135 Y161.175 E.0533
G1 X103.615 Y160.655 E.05289
G1 X102.22 Y159.85 E.05302
G1 X101.225 Y159.015 E.04276
G1 X97.017 Y154.04 E.21452
G1 X96.423 Y153.229 E.0331
G1 X95.961 Y152.414 E.03084
G1 X95.592 Y151.543 E.03114
G1 X95.32 Y150.617 E.03177
G1 X95.156 Y149.66 E.03197
G1 X95.105 Y148.648 E.03336
G1 X96.94 Y71.571 E2.53825
G1 X97.035 Y70.111 E.04817
M73 P1 R8
G1 X97.353 Y68.401 E.05726
G1 X98.059 Y66.368 E.07085
G1 X98.62 Y65.251 E.04115
G1 X99.021 Y64.637 E.02414
EXCLUDE_OBJECT_START NAME=cat_bookmark_stl
G10 ; retract
G1 X99.021 Y64.637 Z.6 F15000
G1 X102.895 Y129.893
G1 Z.2
G11 ; unretract
;TYPE:Perimeter
;WIDTH:0.419999
G1 F2400
G1 X102.807 Y129.816 E.00385
G1 X102.604 Y129.568 E.01055
G1 X102.439 Y129.271 E.01119
G1 X102.282 Y128.771 E.01725
G1 X102.267 Y128.608 E.00539
G1 X102.273 Y74.539 E1.78006
G1 X102.334 Y73.586 E.03144
G1 X102.523 Y72.595 E.03321
G1 X102.738 Y71.935 E.02285
G1 X102.886 Y71.527 E.01429
G1 X103.276 Y70.738 E.02898
G1 X103.906 Y69.797 E.03728
G1 X104.498 Y69.123 E.02953
G1 X105.259 Y68.445 E.03355
G1 X105.907 Y68.002 E.02584
G1 X106.501 Y67.667 E.02245
G1 X106.99 Y67.426 E.01795
G1 X107.93 Y67.099 E.03277
G1 X108.56 Y66.965 E.0212
G1 X109.206 Y66.866 E.02152
G1 X109.893 Y66.82 E.02267
G1 X110.806 Y66.867 E.0301
G1 X111.439 Y66.963 E.02108
G1 X111.95 Y67.065 E.01715
G1 X112.903 Y67.379 E.03303
G1 X113.5 Y67.664 E.02178
G1 X114.095 Y67.998 E.02246
G1 X114.65 Y68.37 E.022
G1 X115.385 Y69.004 E.03196
G1 X116.176 Y69.894 E.0392
G1 X116.669 Y70.63 E.02916
G1 X117.121 Y71.526 E.03304
G1 X117.452 Y72.473 E.03303
G1 X117.657 Y73.462 E.03325
G1 X117.734 Y74.539 E.03555
G1 X117.744 Y128.484 E1.77598
G1 X117.696 Y128.902 E.01385
M73 P2 R8
G1 X117.441 Y129.501 E.02143
G1 X117.22 Y129.787 E.0119
G1 X116.938 Y130.036 E.01239
G1 X116.623 Y130.22 E.01201
G1 X116.06 Y130.391 E.01937
G1 X115.495 Y130.369 E.01862
G1 X115.135 Y130.271 E.01228
G1 X114.68 Y130.033 E.01691
G1 X114.315 Y129.684 E.01663
G1 X114.035 Y129.209 E.01815
G1 X113.91 Y128.673 E.01812
G1 X113.891 Y128.484 E.00625
G1 X113.877 Y80.232 E1.58855
G1 X113.839 Y79.669 E.01858
G1 X113.736 Y79.167 E.01687
G1 X113.57 Y78.69 E.01663
G1 X113.345 Y78.243 E.01648
G1 X112.903 Y77.647 E.02443
G1 X112.55 Y77.293 E.01646
G1 X111.952 Y76.851 E.02448
G1 X111.505 Y76.626 E.01648
G1 X111.028 Y76.46 E.01663
G1 X110.526 Y76.358 E.01686
G1 X110 Y76.322 E.01736
G1 X109.74 Y76.34 E.00858
G1 X109.221 Y76.409 E.01724
G1 X108.732 Y76.544 E.0167
G1 X108.269 Y76.74 E.01655
G1 X107.636 Y77.13 E.02448
G1 X107.1 Y77.642 E.0244
G1 X106.794 Y78.039 E.0165
G1 X106.43 Y78.69 E.02455
G1 X106.264 Y79.167 E.01663
G1 X106.161 Y79.669 E.01687
G1 X106.123 Y80.232 E.01858
G1 X106.109 Y128.484 E1.58855
G1 X106.014 Y129.049 E.01886
G1 X105.872 Y129.388 E.0121
G1 X105.568 Y129.818 E.01734
G1 X105.091 Y130.169 E.0195
G1 X104.751 Y130.311 E.01213
G1 X104.2 Y130.406 E.01841
G1 X103.617 Y130.31 E.01945
G1 X103.307 Y130.186 E.01099
G1 X103.037 Y130.018 E.01047
G1 X102.94 Y129.933 E.00425
G1 X103.132 Y129.585 F15000
G1 F2400
G1 X102.895 Y129.329 E.01149
G1 X102.674 Y128.789 E.01921
G1 X102.645 Y128.608 E.00603
G1 X102.651 Y74.539 E1.78006
G1 X102.71 Y73.61 E.03065
M73 P3 R8
G1 X102.893 Y72.668 E.03159
G1 X103.095 Y72.057 E.02119
G1 X103.224 Y71.694 E.01268
G1 X103.614 Y70.905 E.02898
G1 X103.916 Y70.445 E.01812
G1 X104.382 Y69.827 E.02548
G1 X104.781 Y69.372 E.01992
G1 X105.508 Y68.728 E.03197
G1 X106.117 Y68.315 E.02423
G1 X106.668 Y68.006 E.0208
G1 X107.156 Y67.765 E.01792
G1 X108.051 Y67.456 E.03117
G1 X108.634 Y67.335 E.0196
G1 X109.231 Y67.242 E.01989
G1 X109.918 Y67.196 E.02267
G1 X110.783 Y67.244 E.02852
G1 X111.877 Y67.435 E.03656
G1 X112.782 Y67.736 E.0314
G1 X113.333 Y68.002 E.02014
G1 X113.885 Y68.312 E.02084
G1 X114.441 Y68.683 E.02201
G1 X115.136 Y69.287 E.03031
G1 X115.624 Y69.825 E.02391
G1 X116.091 Y70.444 E.02553
G1 X116.393 Y70.904 E.01812
G1 X116.783 Y71.693 E.02898
G1 X117.095 Y72.595 E.03142
G1 X117.287 Y73.536 E.03162
G1 X117.357 Y74.54 E.03313
G1 X117.367 Y128.484 E1.77594
G1 X117.273 Y128.992 E.01701
G1 X117.103 Y129.332 E.01251
G1 X116.971 Y129.504 E.00714
G1 X116.688 Y129.753 E.01241
G1 X116.499 Y129.863 E.0072
G1 X116.017 Y130.016 E.01665
G1 X115.433 Y129.98 E.01926
G1 X114.964 Y129.763 E.01701
G1 X114.605 Y129.442 E.01585
G1 X114.385 Y129.07 E.01423
G1 X114.268 Y128.484 E.01967
G1 X114.254 Y80.219 E1.58898
G1 X114.213 Y79.619 E.0198
G1 X114.1 Y79.066 E.01858
G1 X113.918 Y78.543 E.01823
G1 X113.671 Y78.052 E.01809
G1 X113.365 Y77.6 E.01797
G1 X113.004 Y77.191 E.01796
G1 X112.595 Y76.831 E.01794
G1 X112.143 Y76.525 E.01797
G1 X111.652 Y76.278 E.01809
G1 X111.128 Y76.096 E.01826
G1 X110.576 Y75.983 E.01855
G1 X110 Y75.944 E.01901
G1 X109.715 Y75.963 E.0094
G1 X109.146 Y76.04 E.0189
G1 X108.608 Y76.188 E.01837
G1 X108.102 Y76.402 E.01809
G1 X107.632 Y76.677 E.01793
G1 X107.202 Y77.009 E.01788
G1 X106.817 Y77.393 E.0179
G1 X106.484 Y77.823 E.01791
G1 X106.207 Y78.295 E.01802
G1 X105.992 Y78.802 E.01813
G1 X105.844 Y79.34 E.01837
G1 X105.767 Y79.902 E.01867
G1 X105.746 Y80.362 E.01516
G1 X105.732 Y128.484 E1.58427
G1 X105.615 Y129.07 E.01967
M73 P4 R8
G1 X105.32 Y129.53 E.01799
G1 X104.881 Y129.856 E.018
G1 X104.677 Y129.941 E.00728
G1 X104.193 Y130.029 E.0162
G1 X103.692 Y129.94 E.01675
G1 X103.237 Y129.698 E.01697
G1 X103.173 Y129.629 E.0031
G1 X103.39 Y129.338 F15000
;TYPE:External perimeter
G1 F1920
G1 X103.153 Y129.03 E.01279
G1 X103.022 Y128.608 E.01455
G1 X103.028 Y74.54 E1.78002
G1 X103.086 Y73.635 E.02986
M73 P4 R7
G1 X103.262 Y72.742 E.02996
G1 X103.452 Y72.178 E.01959
G1 X103.562 Y71.862 E.01102
G1 X103.952 Y71.072 E.029
G1 X104.229 Y70.655 E.01648
G1 X104.665 Y70.076 E.02386
G1 X105.065 Y69.621 E.01994
G1 X105.756 Y69.012 E.03032
G1 X106.326 Y68.629 E.02261
G1 X106.835 Y68.344 E.01921
G1 X107.323 Y68.103 E.01792
G1 X108.172 Y67.814 E.02953
G1 X109.257 Y67.619 E.03629
G1 X109.943 Y67.573 E.02264
G1 X110.761 Y67.62 E.02697
G1 X111.804 Y67.805 E.03487
G1 X112.661 Y68.093 E.02976
G1 X113.166 Y68.341 E.01852
G1 X113.675 Y68.625 E.01919
G1 X114.231 Y68.997 E.02202
G1 X114.888 Y69.571 E.02872
G1 X115.34 Y70.074 E.02226
G1 X115.777 Y70.654 E.02391
G1 X116.055 Y71.071 E.0165
G1 X116.445 Y71.86 E.02898
G1 X116.738 Y72.716 E.02979
G1 X116.917 Y73.609 E.02998
G1 X116.979 Y74.54 E.03072
G1 X116.99 Y128.484 E1.77594
G1 X116.936 Y128.824 E.01133
G1 X116.722 Y129.221 E.01485
G1 X116.376 Y129.507 E.01478
G1 X115.939 Y129.642 E.01506
G1 X115.473 Y129.597 E.01541
G1 X115.084 Y129.391 E.01449
G1 X114.877 Y129.175 E.00985
G1 X114.724 Y128.888 E.01071
G1 X114.645 Y128.484 E.01355
G1 X114.631 Y80.206 E1.58941
G1 X114.588 Y79.568 E.02105
M73 P5 R7
G1 X114.465 Y78.966 E.02023
G1 X114.266 Y78.395 E.01991
G1 X113.997 Y77.861 E.01968
G1 X113.664 Y77.369 E.01956
G1 X113.272 Y76.924 E.01952
G1 X112.826 Y76.532 E.01955
G1 X112.334 Y76.199 E.01956
G1 X111.799 Y75.93 E.01971
G1 X111.229 Y75.732 E.01987
G1 X110.627 Y75.609 E.02023
G1 X110 Y75.566 E.02069
G1 X109.689 Y75.587 E.01026
G1 X109.07 Y75.671 E.02057
G1 X108.484 Y75.832 E.02001
G1 X107.933 Y76.065 E.0197
G1 X107.421 Y76.365 E.01954
G1 X106.953 Y76.726 E.01946
G1 X106.534 Y77.144 E.01948
G1 X106.172 Y77.612 E.01948
G1 X105.87 Y78.125 E.0196
G1 X105.636 Y78.678 E.01977
G1 X105.474 Y79.265 E.02005
G1 X105.391 Y79.876 E.0203
G1 X105.369 Y80.362 E.01602
G1 X105.355 Y128.484 E1.58427
G1 X105.246 Y128.967 E.0163
G1 X104.968 Y129.343 E.01539
G1 X104.602 Y129.571 E.0142
G1 X104.145 Y129.648 E.01526
G1 X103.706 Y129.546 E.01484
G1 X103.44 Y129.371 E.01048
G1 X103.186 Y129.062 F15000
G10 ; retract
G1 Z.6
G1 X113.917 Y148.051
G1 Z.2
G11 ; unretract
;TYPE:Perimeter
;WIDTH:0.619866
G1 F1920
G1 X113.936 Y148.151 E.00513
;WIDTH:0.5699
G1 X113.956 Y148.251 E.00469
;WIDTH:0.519933
G1 X113.976 Y148.351 E.00425
;WIDTH:0.469966
G1 X113.996 Y148.451 E.0038
;WIDTH:0.419999
G1 X114.07 Y149.107 E.02173
G1 X114.158 Y149.427 E.01093
G1 X114.389 Y150.035 E.02141
G1 X113.809 Y149.736 E.02148
G1 X113.332 Y149.595 E.01638
G1 X112.686 Y149.558 E.0213
G1 X112.808 Y149.457 E.00521
G1 X113.35 Y148.904 E.02549
G1 X113.648 Y148.383 E.01976
;WIDTH:0.469966
G1 X113.715 Y148.3 E.00398
;WIDTH:0.519933
G1 X113.782 Y148.217 E.00444
;WIDTH:0.5699
G1 X113.85 Y148.134 E.00494
;WIDTH:0.619866
G1 X113.879 Y148.098 E.00233
G10 ; retract
G1 X113.879 Y148.098 Z.6 F15000
G1 X110.888 Y150.34
G1 Z.2
G11 ; unretract
;WIDTH:0.419999
G1 F1920
G1 X110.53 Y150.709 E.01693
G1 X110.203 Y151.211 E.01972
G1 X109.998 Y151.71 E.01776
G1 X109.793 Y151.211 E.01776
G1 X109.466 Y150.709 E.01972
G1 X109.116 Y150.343 E.01667
G1 X110.101 Y150.422 E.03253
G1 X110.829 Y150.347 E.02409
G10 ; retract
G1 X110.829 Y150.347 Z.6 F15000
G1 X106.094 Y148.052
G1 Z.2
G11 ; unretract
;WIDTH:0.626952
G1 F1920
G1 X106.148 Y148.118 E.00435
;WIDTH:0.585562
G1 X106.203 Y148.184 E.00407
;WIDTH:0.544171
G1 X106.257 Y148.25 E.00373
;WIDTH:0.502781
G1 X106.311 Y148.316 E.00342
;WIDTH:0.46139
G1 X106.365 Y148.382 E.00312
;WIDTH:0.419999
G1 X106.581 Y148.777 E.01482
G1 X106.741 Y148.992 E.00882
G1 X107.332 Y149.559 E.02696
G1 X107.182 Y149.55 E.00495
G1 X106.534 Y149.636 E.02152
G1 X106.187 Y149.736 E.01189
G1 X105.624 Y150.024 E.02082
G1 X105.889 Y149.316 E.02489
G1 X105.961 Y148.899 E.01393
;WIDTH:0.46139
G1 X105.987 Y148.729 E.00628
;WIDTH:0.502781
G1 X106.014 Y148.56 E.00687
;WIDTH:0.544171
G1 X106.041 Y148.391 E.00749
;WIDTH:0.585562
G1 X106.067 Y148.222 E.0081
;WIDTH:0.626952
G1 X106.085 Y148.112 E.00568
G10 ; retract
G1 X106.085 Y148.112 Z.6 F15000
G1 X103.035 Y152.931
G1 Z.2
M73 P6 R7
G11 ; unretract
;WIDTH:0.419999
G1 F2400
G1 X102.852 Y152.687 E.01004
G1 X102.554 Y152.517 E.01129
;WIDTH:0.46958
G1 X102.271 Y152.384 E.01165
;WIDTH:0.519161
G1 X101.988 Y152.25 E.01302
;WIDTH:0.568741
G1 X101.705 Y152.117 E.01436
G1 X101.165 Y151.799 E.02877
;WIDTH:0.545006
G1 X100.735 Y151.441 E.02453
;WIDTH:0.531837
G1 X100.252 Y150.883 E.0315
;WIDTH:0.504219
G1 X99.992 Y150.455 E.02017
;WIDTH:0.493699
G1 X99.808 Y150.048 E.01758
;WIDTH:0.476756
G1 X99.624 Y149.395 E.0257
;WIDTH:0.448877
G1 X99.558 Y148.738 E.0234
;WIDTH:0.430993
G1 X99.587 Y148.468 E.0092
;WIDTH:0.400536
G1 X99.616 Y148.197 E.00851
;WIDTH:0.370078
G1 X99.757 Y147.305 E.02579
;WIDTH:0.390705
G1 X99.846 Y146.864 E.01366
;WIDTH:0.419312
G1 X99.935 Y146.423 E.01478
;WIDTH:0.419999
G1 X100.526 Y143.063 E.11232
G1 X101.242 Y139.302 E.12604
G1 X101.313 Y138.648 E.02166
G1 X101.351 Y137.85 E.0263
G1 X101.38 Y71.687 E2.17822
G1 X101.461 Y70.481 E.03979
G1 X101.69 Y69.361 E.03764
G1 X102.059 Y68.299 E.03701
G1 X102.558 Y67.306 E.03659
G1 X103.177 Y66.39 E.0364
G1 X103.906 Y65.563 E.03629
G1 X104.734 Y64.835 E.0363
G1 X105.651 Y64.217 E.03641
G1 X106.645 Y63.718 E.03662
G1 X107.708 Y63.35 E.03703
G1 X108.829 Y63.121 E.03767
G1 X110 Y63.043 E.03864
G1 X111.171 Y63.121 E.03864
G1 X112.292 Y63.35 E.03767
G1 X113.354 Y63.719 E.03701
G1 X114.348 Y64.217 E.0366
G1 X115.265 Y64.836 E.03642
G1 X116.092 Y65.564 E.03627
G1 X116.821 Y66.392 E.03632
G1 X117.44 Y67.307 E.03637
G1 X117.939 Y68.301 E.03662
G1 X118.309 Y69.362 E.03699
G1 X118.538 Y70.482 E.03764
G1 X118.62 Y71.687 E.03976
G1 X118.65 Y137.891 E2.17957
G1 X118.692 Y138.708 E.02693
G1 X118.77 Y139.376 E.02214
G1 X119.263 Y141.926 E.08551
G1 X119.845 Y145.127 E.10711
G1 X120.106 Y146.694 E.0523
;WIDTH:0.469743
G1 X120.102 Y146.822 E.00477
;WIDTH:0.519486
G1 X120.099 Y146.95 E.00533
;WIDTH:0.56923
G1 X120.095 Y147.077 E.00584
;WIDTH:0.618973
G1 X120.091 Y147.205 E.00644
;WIDTH:0.668716
G1 X120.087 Y147.333 E.007
G1 X120.002 Y147.183 E.00942
;WIDTH:0.618973
G1 X119.917 Y147.034 E.00863
;WIDTH:0.56923
G1 X119.831 Y146.884 E.00795
;WIDTH:0.519486
G1 X119.746 Y146.735 E.00714
;WIDTH:0.469743
G1 X119.661 Y146.585 E.00642
;WIDTH:0.419999
G1 X119.181 Y145.903 E.02746
G1 X118.54 Y145.364 E.02757
G1 X118.033 Y145.11 E.01867
G1 X117.555 Y144.97 E.0164
G1 X117.068 Y144.925 E.0161
M73 P7 R7
G1 X116.793 Y144.946 E.00908
G1 X116.166 Y145.068 E.02103
G1 X116.259 Y144.427 E.02132
G1 X116.256 Y144.15 E.00912
G1 X116.17 Y143.545 E.02012
G1 X115.952 Y142.936 E.0213
G1 X115.629 Y142.387 E.02097
G1 X115.22 Y141.898 E.02099
G1 X114.74 Y141.467 E.02124
G1 X114.198 Y141.091 E.02172
G1 X113.6 Y140.77 E.02234
G1 X112.952 Y140.503 E.02307
G1 X112.259 Y140.291 E.02386
G1 X111.528 Y140.137 E.02459
G1 X110.754 Y140.043 E.02567
G1 X109.893 Y140.016 E.02836
G1 X109.173 Y140.05 E.02373
G1 X108.406 Y140.151 E.02547
G1 X107.673 Y140.313 E.02471
G1 X106.978 Y140.534 E.02401
G1 X106.161 Y140.903 E.02951
G1 X105.593 Y141.242 E.02178
G1 X105.179 Y141.543 E.01685
G1 X104.794 Y141.898 E.01724
G1 X104.386 Y142.387 E.02097
G1 X104.063 Y142.936 E.02097
G1 X103.844 Y143.545 E.02131
G1 X103.789 Y143.864 E.01066
G1 X103.76 Y144.462 E.01971
