; HEADER_BLOCK_START
; generated by OrcaSlicer 2.1.1 on 2024-08-23 at 08:50:54
; total layer number: 499
; filament_density: 1.27
; filament_diameter: 1.75
; max_z_height: 100.00
; HEADER_BLOCK_END

; THUMBNAIL_BLOCK_START

;
; THUMBNAIL_BLOCK_END

; THUMBNAIL_BLOCK_START

;
; THUMBNAIL_BLOCK_END

; external perimeters extrusion width = 0.40mm
; perimeters extrusion width = 0.45mm
; infill extrusion width = 0.45mm
; solid infill extrusion width = 0.40mm
; top infill extrusion width = 0.40mm
; support material extrusion width = 0.40mm
; first layer extrusion width = 0.50mm

; EXECUTABLE_BLOCK_START
EXCLUDE_OBJECT_DEFINE NAME=finger_surf.stl_id_0_copy_0 CENTER=110,110 POLYGON=[[99.6521,110],[99.6537,108.617],[99.8599,107.248],[100.249,105.535],[101.079,103.525],[101.803,101.789],[104.351,96.0004],[105.295,95],[106.137,95.656],[120.251,109.648],[120.284,109.692],[120.292,109.704],[120.311,109.741],[120.323,109.767],[120.331,109.794],[120.342,109.836],[120.343,109.851],[120.348,109.908],[120.348,110.092],[120.342,110.164],[120.33,110.206],[120.323,110.233],[120.311,110.259],[120.292,110.296],[120.284,110.308],[120.251,110.352],[106.137,124.344],[105.295,125],[104.351,124],[101.803,118.211],[101.079,116.475],[100.249,114.465],[99.8599,112.752],[99.6537,111.383],[99.6521,110]]
M73 P0 R79
;TYPE:Custom
M117 ; clear display for KAMP meshing
START_PRINT BED_TEMP=80 EXTRUDER_TEMP=255
G90
G21
M83 ; use relative distances for extrusion
; filament start gcode
M106 S0
;LAYER_CHANGE
;Z:0.2
;HEIGHT:0.2
;BEFORE_LAYER_CHANGE
;0.2
G92 E0

G1 E-5 F3600
;_SET_FAN_SPEED_CHANGING_LAYER
SET_VELOCITY_LIMIT ACCEL=500 ACCEL_TO_DECEL=250
; printing object finger surf.stl id:0 copy 0
EXCLUDE_OBJECT_START NAME=finger_surf.stl_id_0_copy_0
G1 Z.4 F9000
G1 X102.925 Y106.955
G1 Z.4
G1 Z.2
G1 E5 F2400
;TYPE:Support
;WIDTH:0.5
G1 F900
G1 X103.255 Y107.03 E.01222
G1 X103.255 Y112.828 E.20933
G1 X102.483 Y113.002 E.02859
G1 X101.568 Y112.932 E.03315
G1 X100.714 Y112.595 E.03313
G1 X99.999 Y112.022 E.03307
G1 X99.721 Y111.614 E.01782
G1 X99.482 Y111.262 E.01538
G1 X99.213 Y110.387 E.03304
G1 X99.213 Y109.471 E.03309
G1 X99.482 Y108.596 E.03303
G1 X99.721 Y108.244 E.01538
G1 X99.999 Y107.836 E.01782
G1 X100.714 Y107.263 E.03307
G1 X101.567 Y106.926 E.03313
G1 X102.481 Y106.856 E.03308
G1 X102.858 Y106.94 E.01397
G1 X102.382 Y112.788 F9000
G1 F900
G1 X102.382 Y107.276 E.19903
G1 X101.874 Y107.315 E.01839
G1 X101.874 Y112.543 E.18875
G1 X101.661 Y112.526 E.00772
G1 X101.366 Y112.41 E.01144
G1 X101.366 Y107.448 E.17916
G1 X100.923 Y107.623 E.01722
G1 X100.858 Y107.675 E.00297
G1 X100.858 Y112.183 E.16278
G1 X100.351 Y111.777 E.02349
G1 X100.351 Y108.081 E.13343
G1 X100.304 Y108.118 E.00215
G1 X99.857 Y108.776 E.02871
G1 X99.843 Y108.823 E.00178
G1 X99.843 Y111.427 E.09402
G1 E-3.5 F3600
;WIPE_START
G1 F900
G1 X99.843 Y110.427 E-1.5
;WIPE_END
G1 Z.6 F9000
G1 X112.843 Y104.755 Z.6
G1 Z.2
G1 E5 F2400
G1 F900
G1 X113.107 Y104.799 E.00968
G1 X113.658 Y104.991 E.02108
G1 X114.19 Y105.255 E.02142
G1 X114.687 Y105.611 E.02207
G1 X115.291 Y105.259 E.02524
G1 X115.865 Y105.033 E.02228
G1 X116.201 Y104.923 E.01279
G1 X116.792 Y104.81 E.02173
G1 X117.173 Y104.757 E.01386
G1 X118.116 Y104.768 E.03405
G1 X119.071 Y104.956 E.03518
G1 X119.976 Y105.317 E.03515
G1 X120.799 Y105.835 E.03512
G1 X121.512 Y106.495 E.03509
G1 X122.093 Y107.273 E.03506
G1 X122.523 Y108.143 E.03504
G1 X122.786 Y109.077 E.03502
G1 X122.875 Y110.042 E.03501
G1 X122.787 Y111.008 E.035
G1 X122.525 Y111.941 E.03501
G1 X122.097 Y112.812 E.03502
G1 X121.518 Y113.59 E.03504
G1 X120.817 Y114.24 E.03451
G1 X119.973 Y114.775 E.03607
G1 X119.081 Y115.132 E.03468
G1 X118.126 Y115.322 E.03516
G1 X117.181 Y115.335 E.03411
G1 X116.769 Y115.278 E.01504
G1 X116.174 Y115.163 E.02188
G1 X115.275 Y114.829 E.03463
G1 X114.542 Y114.391 E.03082
G1 X114.196 Y114.64 E.01541
G1 X113.697 Y114.889 E.02013
G1 X113.109 Y115.095 E.0225
G1 X112.133 Y115.258 E.03572
G1 X111.152 Y115.255 E.03541
G1 X110.196 Y115.09 E.03505
G1 X109.227 Y114.751 E.03705
G1 X108.756 Y114.501 E.01924
G1 X108.233 Y114.174 E.02229
G1 X108.225 Y105.738 E.3046
G1 X108.957 Y105.272 E.03132
G1 X109.489 Y105.045 E.02091
G1 X110.207 Y104.805 E.0273
G1 X111.15 Y104.641 E.03456
G1 X112.131 Y104.637 E.03543
G1 X112.775 Y104.744 E.02358
G1 X122.189 Y112.159 F9000
G1 F900
G1 X122.189 Y108.475 E.13299
G1 X122.137 Y108.291 E.0069
G1 X121.741 Y107.489 E.03231
G1 X121.681 Y107.408 E.00363
G1 X121.681 Y112.682 E.1904
G1 X121.173 Y113.348 E.03026
G1 X121.173 Y106.741 E.23855
G1 X120.665 Y106.272 E.02497
G1 X120.665 Y113.819 E.2725
G1 X120.562 Y113.915 E.00507
G1 X120.157 Y114.179 E.01745
G1 X120.157 Y105.917 E.2983
G1 X119.789 Y105.685 E.01574
G1 X119.649 Y105.629 E.00541
G1 X119.649 Y114.461 E.31888
G1 X119.142 Y114.664 E.01975
G1 X119.142 Y105.427 E.33352
G1 X118.955 Y105.353 E.00727
G1 X118.634 Y105.289 E.01181
G1 X118.634 Y114.801 E.34345
G1 X118.126 Y114.903 E.0187
G1 X118.126 Y105.189 E.35073
G1 X117.618 Y105.174 E.01835
G1 X117.618 Y114.918 E.35182
G1 X117.11 Y114.91 E.01834
G1 X117.11 Y105.181 E.35126
G1 X116.602 Y105.265 E.01859
G1 X116.602 Y114.827 E.34523
G1 X116.285 Y114.766 E.01166
G1 X116.094 Y114.695 E.00734
G1 X116.094 Y105.391 E.33592
G1 X115.587 Y105.585 E.01963
G1 X115.587 Y114.506 E.32212
G1 X115.453 Y114.457 E.00513
G1 X115.079 Y114.233 E.01577
G1 X115.079 Y105.851 E.30261
G1 X114.671 Y106.106 E.01736
G1 X114.571 Y106.034 E.00445
G1 X114.571 Y113.928 E.28502
G1 X114.521 Y113.899 E.00208
G1 X114.063 Y114.229 E.0204
G1 X114.063 Y105.67 E.30903
G1 X113.977 Y105.609 E.00381
G1 X113.555 Y105.399 E.01702
G1 X113.555 Y114.5 E.32859
G1 X113.047 Y114.681 E.01946
G1 X113.047 Y105.213 E.34183
G1 X112.539 Y105.121 E.01864
G1 X112.539 Y114.773 E.34849
G1 X112.031 Y114.846 E.01853
G1 X112.031 Y105.049 E.35376
G1 X111.524 Y105.051 E.01834
G1 X111.524 Y114.845 E.35362
G1 X111.188 Y114.844 E.01211
G1 X111.016 Y114.814 E.00632
G1 X111.016 Y105.082 E.35137
G1 X110.508 Y105.17 E.01861
G1 X110.508 Y114.726 E.34502
G1 X110.299 Y114.69 E.00764
G1 X110 Y114.585 E.01145
G1 X110 Y105.308 E.33497
G1 X109.492 Y105.491 E.01949
G1 X109.492 Y114.408 E.32194
G1 X109.393 Y114.373 E.00381
G1 X108.984 Y114.156 E.01668
G1 X108.984 Y105.498 E.31263
G1 E-3.5 F3600
;WIPE_START
G1 F900
G1 X108.984 Y106.498 E-1.5
;WIPE_END
G1 Z.6 F9000
G1 X124.715 Y103.552 Z.6
G1 Z.2
G1 E5 F2400
;TYPE:Brim
G1 F900
G1 X124.789 Y104.148 E.02169
G1 X124.873 Y105.848 E.06143
G1 X124.874 Y114.141 E.29942
G1 X124.793 Y115.811 E.06039
G1 X124.627 Y117.187 E.05004
G1 X124.024 Y120.97 E.13832
G1 X123.77 Y122.25 E.04711
G1 X123.42 Y123.502 E.04695
G1 X122.977 Y124.725 E.04695
G1 X122.443 Y125.91 E.04695
G1 X121.821 Y127.05 E.0469
M73 P0 R78
G1 X120.856 Y128.497 E.06278
G1 X119.401 Y130.347 E.08499
G1 X118.549 Y131.334 E.04708
G1 X117.627 Y132.252 E.04695
G1 X116.638 Y133.096 E.04695
G1 X115.589 Y133.864 E.04695
G1 X114.484 Y134.549 E.04694
G1 X113.291 Y135.167 E.04849
G1 X112.476 Y135.557 E.03264
G1 X111.279 Y136.075 E.04711
G1 X110.05 Y136.5 E.04695
G1 X108.792 Y136.831 E.04695
G1 X107.513 Y137.065 E.04695
G1 X106.22 Y137.201 E.04695
G1 X104.92 Y137.239 E.04695
G1 X103.62 Y137.178 E.04698
G1 X102.578 Y137.058 E.03787
G1 X101.297 Y136.828 E.047
G1 X100.038 Y136.503 E.04695
G1 X98.808 Y136.082 E.04695
G1 X97.612 Y135.57 E.04695
G1 X96.46 Y134.968 E.04695
G1 X95.356 Y134.281 E.04695
G1 X94.306 Y133.511 E.04699
G1 X93.584 Y132.906 E.03404
G1 X92.849 Y132.253 E.03549
G1 X91.906 Y131.351 E.04711
G1 X91.037 Y130.383 E.04695
G1 X90.245 Y129.353 E.04695
G1 X89.532 Y128.265 E.04695
G1 X88.906 Y127.128 E.04688
G1 X88.162 Y125.424 E.06712
G1 X87.73 Y124.27 E.0445
G1 X87.186 Y122.545 E.0653
G1 X86.882 Y121.17 E.05082
G1 X86.703 Y119.884 E.04689
G1 X86.615 Y118.15 E.06271
G1 X86.615 Y101.849 E.58857
G1 X86.664 Y100.545 E.04711
G1 X86.812 Y99.254 E.04691
G1 X87.144 Y97.621 E.06017
G1 X87.67 Y95.895 E.06516
G1 X88.076 Y94.774 E.04305
G1 X88.567 Y93.565 E.04711
G1 X89.146 Y92.401 E.04695
G1 X89.812 Y91.284 E.04695
G1 X90.561 Y90.221 E.04695
G1 X91.387 Y89.219 E.04689
G1 X92.678 Y87.915 E.06625
G1 X93.439 Y87.225 E.0371
G1 X94.438 Y86.385 E.04711
G1 X95.494 Y85.627 E.04695
G1 X96.605 Y84.95 E.04695
G1 X97.763 Y84.36 E.04695
G1 X98.963 Y83.859 E.04695
G1 X100.198 Y83.451 E.04695
G1 X101.46 Y83.137 E.04695
G1 X102.741 Y82.92 E.04691
G1 X104.328 Y82.788 E.05749
G1 X105.759 Y82.784 E.05166
G1 X107.055 Y82.884 E.04694
G1 X108.34 Y83.082 E.04695
G1 X109.606 Y83.377 E.04695
G1 X110.845 Y83.766 E.04689
G1 X112.492 Y84.451 E.0644
G1 X113.284 Y84.83 E.03171
G1 X114.398 Y85.402 E.04521
G1 X115.507 Y86.082 E.04695
G1 X116.561 Y86.843 E.04695
G1 X117.555 Y87.682 E.04695
G1 X118.481 Y88.594 E.04694
G1 X119.401 Y89.654 E.05067
G1 X120.778 Y91.379 E.07969
G1 X121.519 Y92.449 E.04699
G1 X122.177 Y93.57 E.04695
G1 X122.748 Y94.739 E.04695
G1 X123.228 Y95.947 E.04695
G1 X123.615 Y97.187 E.04689
G1 X123.989 Y98.913 E.06379
G1 X124.615 Y102.738 E.13994
G1 X124.71 Y103.513 E.02817
G1 X124.257 Y103.569 F9000
G1 F900
G1 X124.334 Y104.193 E.02271
G1 X124.416 Y105.862 E.06036
G1 X124.417 Y114.126 E.29837
G1 X124.337 Y115.768 E.05934
G1 X124.173 Y117.126 E.0494
G1 X123.573 Y120.892 E.13769
G1 X123.323 Y122.149 E.04626
G1 X122.983 Y123.368 E.0457
G1 X122.551 Y124.558 E.0457
G1 X122.035 Y125.702 E.04532
G1 X121.432 Y126.808 E.04551
G1 X120.482 Y128.233 E.06181
G1 X119.046 Y130.059 E.08389
G1 X118.217 Y131.019 E.04578
G1 X117.321 Y131.912 E.0457
G1 X116.351 Y132.741 E.04607
G1 X115.337 Y133.481 E.04532
G1 X114.263 Y134.149 E.04567
G1 X113.089 Y134.756 E.0477
G1 X112.289 Y135.14 E.03205
G1 X111.108 Y135.651 E.04645
G1 X109.912 Y136.064 E.0457
G1 X108.698 Y136.383 E.04532
G1 X107.453 Y136.611 E.0457
G1 X106.194 Y136.744 E.0457
G1 X104.919 Y136.781 E.04607
G1 X103.662 Y136.723 E.04543
G1 X102.641 Y136.605 E.03712
G1 X101.39 Y136.38 E.04589
G1 X100.164 Y136.063 E.0457
G1 X98.967 Y135.653 E.0457
G1 X97.813 Y135.159 E.04532
G1 X96.691 Y134.574 E.0457
G1 X95.616 Y133.905 E.0457
G1 X94.592 Y133.154 E.04585
G1 X93.884 Y132.561 E.03337
G1 X93.156 Y131.915 E.03512
G1 X92.231 Y131.029 E.04626
G1 X91.393 Y130.095 E.04532
G1 X90.621 Y129.092 E.0457
G1 X89.927 Y128.033 E.0457
G1 X89.319 Y126.931 E.04546
G1 X88.584 Y125.249 E.06627
G1 X88.161 Y124.117 E.04361
G1 X87.63 Y122.432 E.0638
G1 X87.334 Y121.095 E.04947
G1 X87.158 Y119.835 E.04592
G1 X87.072 Y118.135 E.06146
G1 X87.072 Y101.86 E.58762
G1 X87.12 Y100.585 E.04607
G1 X87.263 Y99.332 E.04554
G1 X87.586 Y97.74 E.05865
G1 X88.105 Y96.036 E.06431
G1 X88.504 Y94.935 E.04227
G1 X88.982 Y93.758 E.04588
G1 X89.551 Y92.616 E.04607
G1 X90.193 Y91.537 E.04532
G1 X90.922 Y90.502 E.0457
G1 X91.731 Y89.521 E.04592
G1 X92.992 Y88.248 E.0647
G1 X93.742 Y87.567 E.03657
G1 X94.715 Y86.75 E.04588
G1 X95.751 Y86.005 E.04607
G1 X96.823 Y85.352 E.04532
G1 X97.951 Y84.777 E.0457
G1 X99.119 Y84.29 E.0457
G1 X100.33 Y83.889 E.04607
G1 X101.548 Y83.586 E.04532
G1 X102.793 Y83.375 E.04557
G1 X104.342 Y83.245 E.05613
G1 X105.747 Y83.242 E.05073
G1 X106.997 Y83.338 E.04527
G1 X108.248 Y83.53 E.0457
G1 X109.481 Y83.817 E.0457
G1 X110.683 Y84.194 E.04549
G1 X112.302 Y84.867 E.06333
G1 X113.083 Y85.241 E.03124
G1 X114.178 Y85.804 E.04447
G1 X115.249 Y86.46 E.04533
G1 X116.283 Y87.207 E.04607
G1 X117.242 Y88.017 E.04532
G1 X118.144 Y88.903 E.04565
G1 X119.052 Y89.948 E.04998
G1 X120.408 Y91.649 E.07853
G1 X121.136 Y92.699 E.04616
G1 X121.776 Y93.791 E.0457
G1 X122.327 Y94.919 E.04532
G1 X122.795 Y96.095 E.0457
G1 X123.171 Y97.298 E.0455
G1 X123.541 Y99.002 E.06297
G1 X124.162 Y102.801 E.13897
G1 X124.252 Y103.529 E.02649
G1 X123.798 Y103.585 F9000
G1 F900
G1 X123.877 Y104.227 E.02337
G1 X123.959 Y105.87 E.0594
G1 X123.959 Y107.396 E.05509
G1 X123.911 Y107.5 E.00413
G1 X123.802 Y107.532 E.00413
G1 X123.699 Y107.456 E.0046
G1 X123.278 Y106.594 E.03463
G1 X122.624 Y105.693 E.04021
G1 X121.747 Y104.845 E.04406
G1 X120.566 Y104.087 E.05067
G1 X119.364 Y103.621 E.04654
G1 X118.182 Y103.403 E.04339
M73 P1 R78
G1 X117.067 Y103.394 E.04026
G1 X116.525 Y103.465 E.01974
G1 X115.879 Y103.593 E.02379
G1 X115.392 Y103.747 E.01844
G1 X114.794 Y103.981 E.02317
G1 X114.684 Y103.976 E.00398
G1 X114.14 Y103.71 E.02186
G1 X113.378 Y103.459 E.02898
G1 X112.214 Y103.273 E.04256
G1 X111.119 Y103.273 E.03953
G1 X109.864 Y103.482 E.04593
G1 X109.006 Y103.763 E.03261
G1 X108.766 Y103.864 E.00938
G1 X108.652 Y103.86 E.00413
G1 X108.578 Y103.759 E.00453
G1 X108.228 Y101.563 E.0803
G1 X108.147 Y101.291 E.01023
G1 X107.98 Y100.988 E.0125
G1 X106.911 Y99.65 E.06183
G1 X106.702 Y99.451 E.01042
G1 X106.583 Y99.371 E.00519
G1 X105.477 Y98.842 E.04426
G1 X105.231 Y98.783 E.00911
G1 X105.085 Y98.77 E.0053
G1 X104.73 Y98.803 E.0129
G1 X104.494 Y98.888 E.00905
G1 X104.172 Y99.088 E.01369
G1 X103.435 Y99.757 E.03594
G1 X103.317 Y99.888 E.00636
G1 X103.105 Y100.256 E.01531
G1 X102.686 Y101.441 E.0454
G1 X102.613 Y101.868 E.01563
G1 X102.613 Y105.353 E.12582
G1 X102.565 Y105.457 E.00413
G1 X102.486 Y105.489 E.00308
G1 X101.387 Y105.575 E.03983
G1 X101.174 Y105.619 E.00783
G1 X100.181 Y106.005 E.03847
G1 X99.99 Y106.108 E.00784
G1 X99.149 Y106.76 E.03841
G1 X98.999 Y106.909 E.00767
G1 X98.588 Y107.473 E.02518
G1 X98.251 Y108.009 E.02285
G1 X98.169 Y108.202 E.00758
G1 X97.872 Y109.224 E.03844
G1 X97.847 Y109.447 E.00809
G1 X97.857 Y110.494 E.03778
G1 X97.906 Y110.802 E.01128
G1 X98.202 Y111.731 E.0352
G1 X98.292 Y111.929 E.00786
G1 X98.889 Y112.82 E.03872
G1 X99.032 Y112.984 E.00785
G1 X99.849 Y113.659 E.03827
G1 X100.046 Y113.781 E.00835
G1 X101.248 Y114.255 E.04667
G1 X101.479 Y114.3 E.00849
G1 X102.484 Y114.363 E.03637
G1 X102.585 Y114.417 E.00413
G1 X102.613 Y114.5 E.00315
G1 X102.613 Y118.137 E.13133
G1 X102.661 Y118.463 E.0119
G1 X103.108 Y119.75 E.04919
G1 X103.185 Y119.914 E.00653
G1 X103.372 Y120.173 E.01154
G1 X104.264 Y120.98 E.04342
G1 X104.609 Y121.162 E.0141
G1 X104.858 Y121.22 E.00922
G1 X105.082 Y121.231 E.00811
G1 X105.229 Y121.217 E.00533
G1 X105.585 Y121.119 E.01334
G1 X106.48 Y120.692 E.03578
G1 X106.717 Y120.537 E.01025
G1 X106.909 Y120.353 E.00959
G1 X107.98 Y119.012 E.06196
G1 X108.147 Y118.709 E.0125
G1 X108.228 Y118.437 E.01023
G1 X108.592 Y116.152 E.08355
G1 X108.655 Y116.057 E.00413
G1 X108.772 Y116.044 E.00423
G1 X109.823 Y116.404 E.04011
G1 X111.102 Y116.621 E.04686
G1 X112.214 Y116.622 E.04014
G1 X113.319 Y116.45 E.04037
G1 X114.175 Y116.171 E.03252
G1 X114.498 Y116.019 E.01287
G1 X114.618 Y116.021 E.00436
G1 X114.813 Y116.12 E.00787
G1 X115.838 Y116.488 E.03934
G1 X116.506 Y116.624 E.0246
G1 X116.981 Y116.691 E.01733
G1 X118.234 Y116.683 E.04523
G1 X119.435 Y116.449 E.04416
G1 X120.583 Y115.995 E.04457
G1 X121.715 Y115.269 E.04856
G1 X122.631 Y114.39 E.04586
G1 X123.283 Y113.489 E.04016
G1 X123.699 Y112.633 E.03436
G1 X123.788 Y112.56 E.00413
G1 X123.9 Y112.58 E.00413
G1 X123.959 Y112.693 E.0046
G1 X123.96 Y114.112 E.05123
G1 X123.882 Y115.724 E.05829
G1 X123.72 Y117.065 E.04877
G1 X123.123 Y120.814 E.13706
G1 X122.879 Y122.038 E.04503
G1 X122.546 Y123.233 E.04482
G1 X122.125 Y124.39 E.04444
G1 X121.623 Y125.503 E.04407
G1 X121.043 Y126.566 E.04374
G1 X120.109 Y127.969 E.06084
G1 X118.691 Y129.77 E.08278
G1 X117.886 Y130.703 E.04448
G1 X117.014 Y131.572 E.04444
G1 X116.063 Y132.385 E.04519
G1 X115.077 Y133.105 E.04407
G1 X114.041 Y133.748 E.04403
G1 X112.887 Y134.346 E.04692
G1 X112.102 Y134.723 E.03146
G1 X110.938 Y135.226 E.04579
G1 X109.784 Y135.624 E.04407
G1 X108.603 Y135.935 E.04407
G1 X107.393 Y136.157 E.04444
G1 X106.169 Y136.287 E.04444
G1 X104.918 Y136.324 E.04519
G1 X103.703 Y136.267 E.04389
G1 X102.703 Y136.152 E.03636
G1 X101.482 Y135.932 E.04478
G1 X100.291 Y135.623 E.04444
G1 X99.126 Y135.224 E.04444
G1 X98.005 Y134.743 E.04407
G1 X96.922 Y134.179 E.04407
G1 X95.877 Y133.529 E.04444
G1 X94.878 Y132.797 E.04471
G1 X94.184 Y132.216 E.03269
G1 X93.464 Y131.577 E.03473
G1 X92.556 Y130.707 E.04541
G1 X91.741 Y129.798 E.04407
G1 X90.991 Y128.823 E.04445
G1 X90.322 Y127.802 E.04407
G1 X89.733 Y126.734 E.04403
G1 X89.007 Y125.074 E.06543
G1 X88.592 Y123.965 E.04273
G1 X88.074 Y122.32 E.0623
G1 X87.785 Y121.019 E.04811
