; HEADER_BLOCK_START
; generated by OrcaSlicer 2.0.0 on 2024-05-24 at 16:54:20
; total layer number: 40
; filament_density: 1.27
; filament_diameter: 1.75
; max_z_height: 8.00
; HEADER_BLOCK_END

; THUMBNAIL_BLOCK_START

;
; THUMBNAIL_BLOCK_END

; external perimeters extrusion width = 0.40mm
; perimeters extrusion width = 0.45mm
; infill extrusion width = 0.45mm
; solid infill extrusion width = 0.40mm
; top infill extrusion width = 0.40mm
; support material extrusion width = 0.40mm
; first layer extrusion width = 0.50mm

; EXECUTABLE_BLOCK_START
EXCLUDE_OBJECT_DEFINE NAME=magnetic_lightholder-Body001.stl_id_0_copy_0 CENTER=110,110 POLYGON=[[77.5,110],[77.5404,108.38],[77.6615,106.764],[77.863,105.156],[78.1444,103.56],[78.505,101.98],[78.9439,100.42],[79.46,98.8843],[80.052,97.3759],[80.7185,95.8988],[81.4578,94.4567],[82.268,93.0534],[83.1472,91.6921],[84.0932,90.3764],[85.1036,89.1094],[86.1758,87.8944],[87.3073,86.7343],[88.4952,85.6321],[89.7366,84.5905],[91.0283,83.612],[92.3672,82.6992],[93.75,81.8542],[95.1732,81.0792],[96.6332,80.3761],[98.1264,79.7466],[99.6492,79.1924],[101.198,78.7147],[102.768,78.3148],[104.356,77.9937],[105.959,77.7522],[107.571,77.5909],[109.19,77.5101],[110.81,77.5101],[112.429,77.5909],[114.041,77.7522],[115.644,77.9937],[117.232,78.3148],[118.802,78.7147],[120.351,79.1924],[121.874,79.7466],[123.367,80.3761],[124.827,81.0792],[126.25,81.8542],[127.633,82.6992],[128.972,83.612],[130.263,84.5905],[131.505,85.6321],[132.693,86.7343],[133.824,87.8944],[134.896,89.1094],[135.907,90.3764],[136.853,91.6921],[137.732,93.0534],[138.542,94.4567],[139.281,95.8988],[139.948,97.3759],[140.54,98.8843],[141.056,100.42],[141.495,101.98],[141.856,103.56],[142.137,105.156],[142.338,106.764],[142.46,108.38],[142.5,110],[142.46,111.62],[142.338,113.236],[142.137,114.844],[141.856,116.44],[141.495,118.02],[141.056,119.58],[140.54,121.116],[139.948,122.624],[139.281,124.101],[138.542,125.543],[137.732,126.947],[136.853,128.308],[135.907,129.624],[134.896,130.891],[133.824,132.106],[132.693,133.266],[131.505,134.368],[130.263,135.41],[128.972,136.388],[127.633,137.301],[126.25,138.146],[124.827,138.921],[123.367,139.624],[121.874,140.253],[120.351,140.808],[118.802,141.285],[117.232,141.685],[115.644,142.006],[114.041,142.248],[112.429,142.409],[110.81,142.49],[109.19,142.49],[107.571,142.409],[105.959,142.248],[104.356,142.006],[102.768,141.685],[101.198,141.285],[99.6492,140.808],[98.1264,140.253],[96.6332,139.624],[95.1732,138.921],[93.75,138.146],[92.3672,137.301],[91.0283,136.388],[89.7366,135.41],[88.4952,134.368],[87.3073,133.266],[86.1758,132.106],[85.1036,130.891],[84.0932,129.624],[83.1472,128.308],[82.268,126.947],[81.4578,125.543],[80.7185,124.101],[80.052,122.624],[79.46,121.116],[78.9439,119.58],[78.505,118.02],[78.1444,116.44],[77.863,114.844],[77.6615,113.236],[77.5404,111.62],[77.5,110]]
M73 P0 R61
;TYPE:Custom
M117 ; clear display for KAMP meshing
START_PRINT BED_TEMP=80 EXTRUDER_TEMP=255
G90
G21
M83 ; use relative distances for extrusion
; filament start gcode
M106 S0
;LAYER_CHANGE
;Z:0.2
;HEIGHT:0.2
;BEFORE_LAYER_CHANGE
;0.2
G92 E0

G1 E-5 F3600
;_SET_FAN_SPEED_CHANGING_LAYER
SET_VELOCITY_LIMIT ACCEL=500 ACCEL_TO_DECEL=250
; printing object magnetic_lightholder-Body001.stl id:0 copy 0
EXCLUDE_OBJECT_START NAME=magnetic_lightholder-Body001.stl_id_0_copy_0
G1 Z.4 F9000
G1 X141.297 Y108.438
G1 Z.4
G1 Z.2
G1 E5 F2400
;TYPE:Inner wall
;WIDTH:0.499999
G1 F900
G1 X141.335 Y110 E.05641
G1 X141.297 Y111.562 E.05641
G1 X141.18 Y113.12 E.05641
G1 X140.985 Y114.67 E.05641
G1 X140.714 Y116.209 E.05641
G1 X140.367 Y117.732 E.05641
G1 X139.943 Y119.236 E.05641
G1 X139.446 Y120.717 E.05641
G1 X138.875 Y122.172 E.05641
G1 X138.232 Y123.596 E.05641
G1 X137.519 Y124.986 E.05642
G1 X136.738 Y126.339 E.05641
G1 X135.891 Y127.652 E.05641
G1 X134.979 Y128.921 E.05641
G1 X134.004 Y130.142 E.05641
G1 X132.971 Y131.314 E.05641
G1 X131.88 Y132.432 E.05641
G1 X130.734 Y133.495 E.05641
G1 X129.537 Y134.499 E.05642
G1 X128.292 Y135.442 E.05641
G1 X127.001 Y136.323 E.05641
G1 X125.668 Y137.137 E.05641
G1 X124.296 Y137.885 E.05642
G1 X122.888 Y138.562 E.05641
G1 X121.448 Y139.169 E.05641
G1 X119.98 Y139.704 E.05641
M73 P0 R60
G1 X118.487 Y140.164 E.05641
G1 X116.973 Y140.55 E.05641
G1 X115.441 Y140.859 E.05641
G1 X113.896 Y141.092 E.05641
G1 X112.342 Y141.248 E.05641
G1 X110.781 Y141.326 E.05641
G1 X109.219 Y141.326 E.05641
G1 X107.658 Y141.248 E.05641
G1 X106.104 Y141.092 E.05641
G1 X104.559 Y140.859 E.05641
G1 X103.027 Y140.55 E.05641
G1 X101.513 Y140.164 E.05641
G1 X100.02 Y139.704 E.05641
G1 X98.552 Y139.169 E.05641
G1 X97.112 Y138.562 E.05641
G1 X95.704 Y137.885 E.05641
G1 X94.332 Y137.137 E.05642
G1 X92.999 Y136.323 E.05641
G1 X91.708 Y135.442 E.05642
G1 X90.463 Y134.499 E.05641
G1 X89.266 Y133.495 E.05642
G1 X88.12 Y132.432 E.05641
G1 X87.029 Y131.314 E.05641
G1 X85.996 Y130.142 E.05641
G1 X85.021 Y128.92 E.05641
G1 X84.109 Y127.652 E.05641
G1 X83.262 Y126.339 E.05641
G1 X82.481 Y124.986 E.05641
G1 X81.768 Y123.596 E.05641
G1 X81.125 Y122.172 E.05641
G1 X80.554 Y120.717 E.05641
G1 X80.057 Y119.236 E.05641
G1 X79.633 Y117.732 E.05641
G1 X79.286 Y116.209 E.05641
G1 X79.015 Y114.67 E.05641
G1 X78.82 Y113.12 E.05641
G1 X78.703 Y111.562 E.05641
G1 X78.665 Y110 E.05641
G1 X78.703 Y108.438 E.05641
G1 X78.82 Y106.88 E.05641
G1 X79.015 Y105.33 E.05641
G1 X79.286 Y103.791 E.05641
G1 X79.633 Y102.268 E.05641
G1 X80.057 Y100.764 E.05641
G1 X80.554 Y99.283 E.05641
G1 X81.125 Y97.828 E.05641
G1 X81.768 Y96.404 E.05641
G1 X82.481 Y95.014 E.05641
G1 X83.262 Y93.661 E.05641
G1 X84.109 Y92.348 E.05641
G1 X85.021 Y91.08 E.05641
G1 X85.996 Y89.858 E.05641
G1 X87.029 Y88.686 E.05641
G1 X88.12 Y87.568 E.05641
G1 X89.266 Y86.505 E.05641
G1 X90.463 Y85.501 E.05641
G1 X91.708 Y84.558 E.05641
G1 X92.999 Y83.677 E.05641
G1 X94.332 Y82.863 E.05641
G1 X95.704 Y82.115 E.05642
G1 X97.112 Y81.438 E.05641
G1 X98.552 Y80.831 E.05641
G1 X100.02 Y80.296 E.05641
G1 X101.513 Y79.836 E.05641
G1 X103.027 Y79.45 E.05641
G1 X104.559 Y79.141 E.05641
G1 X106.104 Y78.908 E.05641
G1 X107.658 Y78.752 E.05641
G1 X109.219 Y78.674 E.05641
G1 X110.781 Y78.674 E.05641
G1 X112.322 Y78.751 E.05569
G1 X113.897 Y78.908 E.05714
G1 X115.441 Y79.141 E.0564
G1 X116.973 Y79.45 E.05641
G1 X118.487 Y79.836 E.05641
G1 X119.98 Y80.296 E.05641
G1 X121.448 Y80.831 E.05641
G1 X122.888 Y81.438 E.05641
G1 X124.296 Y82.115 E.05641
G1 X125.668 Y82.863 E.05642
G1 X127.001 Y83.677 E.05641
G1 X128.292 Y84.558 E.05642
G1 X129.537 Y85.501 E.05641
G1 X130.734 Y86.505 E.05642
G1 X131.88 Y87.568 E.05641
G1 X132.971 Y88.686 E.05641
G1 X134.004 Y89.858 E.05641
G1 X134.979 Y91.08 E.05641
G1 X135.891 Y92.348 E.05641
G1 X136.738 Y93.661 E.05641
G1 X137.519 Y95.014 E.05641
G1 X138.232 Y96.404 E.05641
G1 X138.875 Y97.828 E.05641
G1 X139.446 Y99.283 E.05641
G1 X139.943 Y100.764 E.05641
G1 X140.367 Y102.268 E.05641
G1 X140.714 Y103.791 E.05641
G1 X140.985 Y105.33 E.05641
G1 X141.18 Y106.88 E.05641
G1 X141.294 Y108.398 E.05497
G1 X141.753 Y108.415 F9000
G1 F900
G1 X141.793 Y110 E.05724
G1 X141.753 Y111.585 E.05724
G1 X141.635 Y113.166 E.05724
G1 X141.438 Y114.738 E.05724
G1 X141.162 Y116.3 E.05724
G1 X140.81 Y117.845 E.05724
G1 X140.38 Y119.371 E.05724
G1 X139.875 Y120.874 E.05724
G1 X139.296 Y122.349 E.05724
G1 X138.644 Y123.794 E.05724
G1 X137.921 Y125.205 E.05724
G1 X137.128 Y126.578 E.05723
G1 X136.268 Y127.909 E.05724
G1 X135.343 Y129.197 E.05724
G1 X134.355 Y130.436 E.05724
G1 X133.306 Y131.625 E.05724
G1 X132.199 Y132.759 E.05724
G1 X131.037 Y133.838 E.05723
G1 X129.822 Y134.857 E.05724
G1 X128.559 Y135.814 E.05723
G1 X127.249 Y136.707 E.05724
G1 X125.896 Y137.533 E.05723
G1 X124.504 Y138.291 E.05724
G1 X123.076 Y138.979 E.05723
G1 X121.615 Y139.595 E.05724
G1 X120.126 Y140.137 E.05724
G1 X118.611 Y140.604 E.05724
G1 X117.075 Y140.996 E.05724
G1 X115.521 Y141.31 E.05724
G1 X113.953 Y141.546 E.05724
G1 X112.376 Y141.704 E.05724
G1 X110.793 Y141.783 E.05723
G1 X109.207 Y141.783 E.05724
G1 X107.624 Y141.704 E.05723
G1 X106.047 Y141.546 E.05724
G1 X104.479 Y141.31 E.05724
G1 X102.925 Y140.996 E.05724
G1 X101.389 Y140.604 E.05724
G1 X99.874 Y140.137 E.05724
G1 X98.385 Y139.595 E.05723
G1 X96.924 Y138.979 E.05724
G1 X95.496 Y138.291 E.05723
G1 X94.104 Y137.533 E.05724
G1 X92.751 Y136.707 E.05723
G1 X91.441 Y135.814 E.05724
G1 X90.178 Y134.857 E.05723
G1 X88.963 Y133.838 E.05724
G1 X87.801 Y132.759 E.05723
G1 X86.694 Y131.625 E.05724
G1 X85.645 Y130.436 E.05724
G1 X84.657 Y129.197 E.05724
G1 X83.732 Y127.909 E.05724
G1 X82.872 Y126.578 E.05724
G1 X82.079 Y125.205 E.05724
G1 X81.356 Y123.794 E.05724
G1 X80.704 Y122.349 E.05724
G1 X80.125 Y120.874 E.05724
G1 X79.62 Y119.371 E.05724
G1 X79.19 Y117.845 E.05724
G1 X78.838 Y116.3 E.05724
G1 X78.562 Y114.738 E.05724
G1 X78.365 Y113.166 E.05724
G1 X78.247 Y111.585 E.05724
G1 X78.207 Y110 E.05724
G1 X78.247 Y108.415 E.05724
G1 X78.365 Y106.834 E.05724
G1 X78.562 Y105.262 E.05724
G1 X78.838 Y103.7 E.05724
G1 X79.19 Y102.155 E.05724
G1 X79.62 Y100.629 E.05724
G1 X80.125 Y99.126 E.05724
G1 X80.704 Y97.651 E.05724
G1 X81.356 Y96.206 E.05724
G1 X82.079 Y94.795 E.05724
G1 X82.872 Y93.422 E.05724
G1 X83.732 Y92.091 E.05724
G1 X84.657 Y90.803 E.05724
G1 X85.645 Y89.564 E.05724
G1 X86.694 Y88.375 E.05724
G1 X87.801 Y87.241 E.05724
G1 X88.963 Y86.162 E.05723
G1 X90.178 Y85.143 E.05724
G1 X91.441 Y84.186 E.05724
G1 X92.751 Y83.293 E.05724
G1 X94.104 Y82.467 E.05723
G1 X95.496 Y81.709 E.05724
G1 X96.924 Y81.021 E.05723
G1 X98.385 Y80.405 E.05724
G1 X99.874 Y79.863 E.05724
G1 X101.389 Y79.396 E.05724
G1 X102.925 Y79.004 E.05724
G1 X104.479 Y78.69 E.05724
G1 X106.047 Y78.454 E.05724
G1 X107.624 Y78.296 E.05724
G1 X109.207 Y78.217 E.05723
G1 X110.793 Y78.217 E.05724
G1 X112.356 Y78.295 E.05651
G1 X113.953 Y78.454 E.05797
G1 X115.521 Y78.69 E.05723
G1 X117.075 Y79.004 E.05724
G1 X118.611 Y79.396 E.05724
G1 X120.126 Y79.863 E.05724
G1 X121.615 Y80.405 E.05723
G1 X123.076 Y81.021 E.05724
G1 X124.504 Y81.709 E.05723
G1 X125.896 Y82.467 E.05724
G1 X127.249 Y83.293 E.05723
G1 X128.559 Y84.186 E.05724
G1 X129.822 Y85.143 E.05723
G1 X131.037 Y86.162 E.05724
G1 X132.199 Y87.241 E.05723
G1 X133.306 Y88.375 E.05724
G1 X134.355 Y89.564 E.05724
G1 X135.343 Y90.803 E.05724
G1 X136.268 Y92.091 E.05724
G1 X137.128 Y93.422 E.05724
G1 X137.921 Y94.795 E.05724
G1 X138.644 Y96.206 E.05724
G1 X139.296 Y97.651 E.05724
G1 X139.875 Y99.126 E.05724
G1 X140.38 Y100.629 E.05724
G1 X140.81 Y102.155 E.05724
G1 X141.162 Y103.7 E.05724
G1 X141.438 Y105.262 E.05724
G1 X141.635 Y106.834 E.05724
G1 X141.75 Y108.375 E.05579
G1 X142.21 Y108.392 F9000
;TYPE:Outer wall
G1 F900
G1 X142.25 Y110 E.05806
G1 X142.21 Y111.608 E.05806
G1 X142.09 Y113.211 E.05806
G1 X141.89 Y114.807 E.05806
G1 X141.61 Y116.39 E.05806
G1 X141.253 Y117.958 E.05806
G1 X140.817 Y119.506 E.05806
G1 X140.305 Y121.03 E.05806
G1 X139.718 Y122.527 E.05806
G1 X139.056 Y123.993 E.05806
G1 X138.323 Y125.424 E.05806
G1 X137.519 Y126.816 E.05806
G1 X136.646 Y128.167 E.05806
G1 X135.707 Y129.473 E.05806
G1 X134.705 Y130.73 E.05806
G1 X133.641 Y131.936 E.05806
G1 X132.518 Y133.087 E.05806
G1 X131.339 Y134.18 E.05806
G1 X130.107 Y135.214 E.05806
G1 X128.826 Y136.185 E.05806
G1 X127.497 Y137.091 E.05806
G1 X126.125 Y137.929 E.05806
G1 X124.713 Y138.698 E.05806
G1 X123.264 Y139.396 E.05806
G1 X121.782 Y140.021 E.05806
G1 X120.271 Y140.571 E.05806
G1 X118.735 Y141.045 E.05806
G1 X117.176 Y141.441 E.05806
G1 X115.6 Y141.76 E.05806
G1 X114.01 Y142 E.05806
G1 X112.41 Y142.16 E.05806
G1 X110.804 Y142.24 E.05806
G1 X109.196 Y142.24 E.05806
G1 X107.59 Y142.16 E.05806
G1 X105.99 Y142 E.05806
G1 X104.4 Y141.76 E.05806
G1 X102.824 Y141.441 E.05806
G1 X101.265 Y141.045 E.05806
G1 X99.729 Y140.571 E.05806
G1 X98.218 Y140.021 E.05806
G1 X96.736 Y139.396 E.05806
G1 X95.287 Y138.698 E.05806
G1 X93.875 Y137.929 E.05806
G1 X92.503 Y137.091 E.05806
G1 X91.174 Y136.185 E.05806
G1 X89.893 Y135.214 E.05806
G1 X88.661 Y134.18 E.05806
G1 X87.482 Y133.087 E.05806
G1 X86.359 Y131.936 E.05806
G1 X85.295 Y130.73 E.05806
G1 X84.293 Y129.473 E.05806
G1 X83.354 Y128.167 E.05806
G1 X82.481 Y126.816 E.05806
G1 X81.677 Y125.424 E.05806
G1 X80.944 Y123.993 E.05806
G1 X80.282 Y122.527 E.05806
G1 X79.695 Y121.03 E.05806
G1 X79.183 Y119.506 E.05806
G1 X78.747 Y117.958 E.05806
G1 X78.39 Y116.39 E.05806
G1 X78.11 Y114.807 E.05806
G1 X77.91 Y113.211 E.05806
G1 X77.79 Y111.608 E.05806
G1 X77.75 Y110 E.05806
G1 X77.79 Y108.392 E.05806
G1 X77.91 Y106.789 E.05806
G1 X78.11 Y105.193 E.05806
G1 X78.39 Y103.61 E.05806
G1 X78.747 Y102.042 E.05806
G1 X79.183 Y100.494 E.05806
G1 X79.695 Y98.97 E.05806
G1 X80.282 Y97.473 E.05806
G1 X80.944 Y96.007 E.05806
G1 X81.677 Y94.576 E.05806
G1 X82.481 Y93.184 E.05806
G1 X83.354 Y91.833 E.05806
G1 X84.293 Y90.527 E.05806
G1 X85.295 Y89.27 E.05806
M73 P1 R60
G1 X86.359 Y88.064 E.05806
G1 X87.482 Y86.913 E.05806
G1 X88.661 Y85.82 E.05806
G1 X89.893 Y84.786 E.05806
G1 X91.174 Y83.815 E.05806
G1 X92.503 Y82.909 E.05806
G1 X93.875 Y82.071 E.05806
G1 X95.287 Y81.302 E.05806
G1 X96.736 Y80.604 E.05806
G1 X98.218 Y79.979 E.05806
G1 X99.729 Y79.429 E.05806
G1 X101.265 Y78.955 E.05806
G1 X102.824 Y78.559 E.05806
G1 X104.4 Y78.24 E.05806
G1 X105.99 Y78 E.05806
G1 X107.59 Y77.84 E.05806
G1 X109.196 Y77.76 E.05806
G1 X110.804 Y77.76 E.05806
G1 X112.39 Y77.839 E.05733
G1 X114.01 Y78 E.05879
G1 X115.6 Y78.24 E.05806
G1 X117.176 Y78.559 E.05806
G1 X118.735 Y78.955 E.05806
G1 X120.271 Y79.429 E.05806
G1 X121.782 Y79.979 E.05806
G1 X123.264 Y80.604 E.05806
G1 X124.713 Y81.302 E.05806
G1 X126.125 Y82.071 E.05806
G1 X127.497 Y82.909 E.05806
G1 X128.826 Y83.815 E.05806
G1 X130.107 Y84.786 E.05806
G1 X131.339 Y85.82 E.05806
G1 X132.518 Y86.913 E.05806
G1 X133.641 Y88.064 E.05806
G1 X134.705 Y89.27 E.05806
G1 X135.707 Y90.527 E.05806
G1 X136.646 Y91.833 E.05806
G1 X137.519 Y93.184 E.05806
G1 X138.323 Y94.576 E.05806
G1 X139.056 Y96.007 E.05806
G1 X139.718 Y97.473 E.05806
G1 X140.305 Y98.97 E.05806
G1 X140.817 Y100.494 E.05806
G1 X141.253 Y102.042 E.05806
G1 X141.61 Y103.61 E.05806
G1 X141.89 Y105.193 E.05806
G1 X142.09 Y106.789 E.05806
G1 X142.207 Y108.353 E.05661
G1 E-3.5 F3600
;WIPE_START
G1 F900
G1 X142.233 Y109.352 E-1.5
;WIPE_END
G1 Z.6 F9000
G1 X129.37 Y85.558 Z.6
G1 Z.2
G1 E5 F2400
;TYPE:Bottom surface
;WIDTH:0.501884
G1 F1200
G1 X131.686 Y87.874 E.11875
G1 X132.712 Y88.926 E.05328
G1 X133.735 Y90.084 E.05601
G1 X134.698 Y91.292 E.05601
G1 X135.318 Y92.155 E.03852
G1 X127.836 Y84.673 E.38362
G1 X126.81 Y83.973 E.04503
G1 X125.981 Y83.466 E.03523
G1 X136.546 Y94.032 E.54173
G1 X137.21 Y95.182 E.04814
G1 X137.382 Y95.517 E.01363
G1 X124.484 Y82.619 E.6613
G1 X124.135 Y82.429 E.01441
G1 X123.19 Y81.973 E.03804
G1 X138.032 Y96.816 E.761
G1 X138.562 Y97.995 E.04689
G1 X122.021 Y81.454 E.8481
G1 X121.32 Y81.158 E.02761
G1 X120.937 Y81.019 E.01475
G1 X138.982 Y99.064 E.92518
G1 X139.339 Y100.07 E.03872
G1 X119.917 Y80.648 E.99582
G1 X118.974 Y80.354 E.03579
G1 X139.654 Y101.034 E1.06028
G1 X139.908 Y101.937 E.03402
G1 X118.061 Y80.091 E1.12012
G1 X117.19 Y79.869 E.03258
G1 X140.129 Y102.807 E1.17608
G1 X140.321 Y103.648 E.03128
G1 X116.357 Y79.685 E1.22863
G1 X115.544 Y79.52 E.03009
G1 X140.473 Y104.449 E1.27816
G1 X140.612 Y105.237 E.02901
G1 X114.77 Y79.395 E1.32498
G1 X114.005 Y79.28 E.02802
G1 X140.713 Y105.988 E1.36936
G1 X140.806 Y106.73 E.02711
G1 X113.276 Y79.2 E1.41153
M73 P1 R59
G1 X112.555 Y79.128 E.02626
G1 X140.869 Y107.442 E1.4517
G1 X140.922 Y108.143 E.02551
G1 X111.859 Y79.08 E1.49012
G1 X111.175 Y79.046 E.0248
G1 X140.954 Y108.825 E1.52682
G1 X140.971 Y109.491 E.02414
G1 X110.506 Y79.026 E1.56198
M73 P2 R59
G1 X109.857 Y79.026 E.02353
G1 X140.98 Y110.149 E1.59572
G1 X140.964 Y110.782 E.02297
G1 X109.209 Y79.027 E1.62814
G1 X108.591 Y79.058 E.02244
G1 X140.948 Y111.415 E1.65903
G1 X140.909 Y112.025 E.02216
G1 X107.973 Y79.089 E1.68871
G1 X107.369 Y79.135 E.02193
G1 X140.864 Y112.629 E1.71732
G1 X140.812 Y113.226 E.02173
G1 X106.779 Y79.194 E1.74491
G1 X106.189 Y79.253 E.0215
G1 X140.739 Y113.803 E1.77146
G1 X140.667 Y114.38 E.02108
