; HEADER_BLOCK_START
; generated by OrcaSlicer 1.9.0 on 2024-02-16 at 14:55:54
; total layer number: 38
; filament_density: 1.24
; filament_diameter: 1.75
; max_z_height: 7.60
; HEADER_BLOCK_END

; THUMBNAIL_BLOCK_START

;
; THUMBNAIL_BLOCK_END

; THUMBNAIL_BLOCK_START

;
; THUMBNAIL_BLOCK_END

; external perimeters extrusion width = 0.40mm
; perimeters extrusion width = 0.45mm
; infill extrusion width = 0.45mm
; solid infill extrusion width = 0.40mm
; top infill extrusion width = 0.40mm
; support material extrusion width = 0.40mm
; first layer extrusion width = 0.50mm

; external perimeters extrusion width = 0.40mm
; perimeters extrusion width = 0.45mm
; infill extrusion width = 0.45mm
; solid infill extrusion width = 0.40mm
; top infill extrusion width = 0.40mm
; support material extrusion width = 0.40mm
; first layer extrusion width = 0.50mm

; EXECUTABLE_BLOCK_START
EXCLUDE_OBJECT_DEFINE NAME=SpaghetGunV1.stl_id_0_copy_0 CENTER=110,110 POLYGON=[[86.9957,126.534],[86.9959,126.451],[87.0002,126.368],[87.0086,126.285],[87.021,126.202],[92.7775,92.6178],[92.8135,92.4155],[92.8594,92.2152],[92.915,92.0173],[92.9802,91.8225],[93.0549,91.631],[93.1388,91.4434],[93.2319,91.2602],[93.3337,91.0817],[93.4442,90.9084],[93.5631,90.7408],[93.69,90.5791],[93.8246,90.4239],[93.9667,90.2754],[94.1159,90.1341],[94.2718,90.0002],[94.434,89.8741],[94.6023,89.7561],[94.7761,89.6464],[94.9551,89.5454],[95.1387,89.4533],[95.3267,89.3703],[95.5185,89.2965],[95.7137,89.2323],[95.9118,89.1776],[96.1124,89.1327],[96.3149,89.0977],[96.5188,89.0726],[96.7238,89.0576],[96.9292,89.0525],[100.505,89.0525],[100.751,89.0586],[100.997,89.0768],[101.242,89.1071],[101.484,89.1493],[101.725,89.2035],[101.962,89.2694],[102.196,89.347],[102.425,89.436],[102.651,89.5362],[102.87,89.6473],[103.084,89.7691],[103.292,89.9014],[103.493,90.0437],[103.687,90.1957],[132.172,112.972],[132.254,113.042],[132.332,113.116],[132.406,113.194],[132.477,113.275],[132.543,113.36],[132.605,113.447],[132.663,113.538],[132.717,113.631],[132.766,113.727],[132.81,113.825],[132.849,113.925],[132.883,114.027],[132.912,114.13],[132.937,114.235],[132.956,114.341],[132.969,114.448],[132.978,114.555],[132.981,114.662],[132.985,115.193],[132.987,115.533],[133,117.393],[133.004,117.906],[133.004,118.008],[133.002,118.116],[132.995,118.224],[132.983,118.331],[132.965,118.438],[132.942,118.543],[132.914,118.647],[132.881,118.75],[132.843,118.851],[132.8,118.95],[132.752,119.047],[132.699,119.141],[132.642,119.233],[132.58,119.322],[132.514,119.407],[132.445,119.489],[132.371,119.568],[132.293,119.643],[132.212,119.714],[132.127,119.781],[132.039,119.844],[131.948,119.902],[131.855,119.956],[131.759,120.006],[131.66,120.05],[131.56,120.09],[131.457,120.124],[131.354,120.154],[92.3181,130.887],[92.2371,130.907],[92.1553,130.924],[92.0727,130.936],[91.9896,130.944],[91.9063,130.947],[91.8228,130.947],[91.7395,130.943],[91.6565,130.935],[91.574,130.922],[91.4922,130.906],[91.4113,130.885],[91.3315,130.861],[91.253,130.832],[91.176,130.8],[91.1007,130.764],[91.0272,130.725],[90.9557,130.682],[90.8864,130.635],[90.8196,130.585],[90.7552,130.532],[90.2788,130.119],[88.0474,128.185],[87.5817,127.781],[87.52,127.725],[87.4612,127.666],[87.4053,127.604],[87.3525,127.539],[87.303,127.472],[87.2568,127.403],[87.2141,127.331],[87.1749,127.257],[87.1394,127.182],[87.1077,127.105],[87.0798,127.026],[87.0557,126.946],[87.0357,126.865],[87.0196,126.783],[87.0076,126.701],[86.9996,126.618],[86.9957,126.534]]
EXCLUDE_OBJECT_DEFINE NAME=SpaghetGunV1.stl_id_1_copy_0 CENTER=122.71,153.394 POLYGON=[[99.706,169.929],[99.7062,169.845],[99.7105,169.762],[99.7189,169.679],[99.7314,169.596],[105.488,136.012],[105.524,135.81],[105.57,135.61],[105.625,135.412],[105.691,135.217],[105.765,135.025],[105.849,134.838],[105.942,134.655],[106.044,134.476],[106.155,134.303],[106.273,134.135],[106.4,133.974],[106.535,133.818],[106.677,133.67],[106.826,133.528],[106.982,133.395],[107.144,133.268],[107.313,133.15],[107.486,133.041],[107.665,132.94],[107.849,132.848],[108.037,132.765],[108.229,132.691],[108.424,132.627],[108.622,132.572],[108.823,132.527],[109.025,132.492],[109.229,132.467],[109.434,132.452],[109.64,132.447],[113.216,132.447],[113.462,132.453],[113.707,132.471],[113.952,132.501],[114.195,132.544],[114.435,132.598],[114.672,132.664],[114.906,132.741],[115.136,132.83],[115.361,132.931],[115.581,133.042],[115.795,133.164],[116.003,133.296],[116.204,133.438],[116.398,133.59],[144.882,156.367],[144.964,156.437],[145.042,156.511],[145.116,156.588],[145.187,156.669],[145.253,156.754],[145.316,156.842],[145.374,156.932],[145.427,157.025],[145.476,157.121],[145.52,157.219],[145.559,157.319],[145.593,157.421],[145.623,157.525],[145.647,157.629],[145.666,157.735],[145.68,157.842],[145.688,157.949],[145.692,158.057],[145.695,158.587],[145.698,158.928],[145.71,160.788],[145.714,161.301],[145.715,161.403],[145.713,161.511],[145.706,161.618],[145.693,161.726],[145.675,161.832],[145.652,161.938],[145.624,162.042],[145.591,162.145],[145.553,162.246],[145.51,162.345],[145.462,162.441],[145.409,162.536],[145.352,162.627],[145.291,162.716],[145.225,162.802],[145.155,162.884],[145.081,162.963],[145.003,163.038],[144.922,163.109],[144.837,163.176],[144.749,163.238],[144.659,163.297],[144.565,163.351],[144.469,163.4],[144.37,163.444],[144.27,163.484],[144.168,163.518],[144.064,163.548],[105.028,174.282],[104.947,174.302],[104.866,174.318],[104.783,174.33],[104.7,174.338],[104.617,174.342],[104.533,174.342],[104.45,174.337],[104.367,174.329],[104.284,174.317],[104.203,174.3],[104.122,174.28],[104.042,174.255],[103.963,174.227],[103.886,174.195],[103.811,174.159],[103.738,174.119],[103.666,174.076],[103.597,174.03],[103.53,173.98],[103.466,173.927],[102.989,173.514],[100.758,171.579],[100.292,171.176],[100.23,171.119],[100.172,171.06],[100.116,170.998],[100.063,170.934],[100.013,170.867],[99.9671,170.797],[99.9244,170.725],[99.8852,170.652],[99.8498,170.576],[99.818,170.499],[99.7901,170.42],[99.7661,170.341],[99.746,170.26],[99.7299,170.178],[99.7179,170.095],[99.7099,170.012],[99.706,169.929]]
M73 P0 R61
;TYPE:Custom
M117 ; clear display for KAMP meshing
START_PRINT BED_TEMP=60 EXTRUDER_TEMP=220
G90
G21
M83 ; use relative distances for extrusion
; filament start gcode
M106 S0
;LAYER_CHANGE
;Z:0.2
;HEIGHT:0.2
;BEFORE_LAYER_CHANGE
;0.2
G92 E0

G10 ; retract
;_SET_FAN_SPEED_CHANGING_LAYER
SET_VELOCITY_LIMIT ACCEL=500 ACCEL_TO_DECEL=250
G1 Z.4 F9000
G1 X92.19 Y88.578
G1 Z.2
G11 ; unretract
;TYPE:Skirt
;WIDTH:0.5
G1 F3000
G1 X93.191 Y87.744 E.04851
G1 X94.334 Y87.123 E.04845
G1 X95.259 Y86.809 E.03636
G1 X96.334 Y86.623 E.04067
G1 X100.566 Y86.596 E.1576
G1 X101.663 Y86.686 E.04101
G1 X102.968 Y87.014 E.0501
G1 X103.979 Y87.455 E.04108
G1 X105.01 Y88.11 E.04551
G1 X133.706 Y111.053 E1.36845
G1 X134.33 Y111.662 E.03246
G1 X134.848 Y112.409 E.03385
G1 X135.241 Y113.336 E.03751
G1 X148.041 Y157.076 E1.69745
G1 X148.148 Y157.98 E.03391
G1 X148.172 Y161.386 E.12687
G1 X148.026 Y162.574 E.04458
G1 X147.712 Y163.434 E.03411
G1 X147.238 Y164.214 E.034
G1 X146.54 Y164.958 E.038
G1 X145.791 Y165.48 E.034
G1 X144.715 Y165.917 E.04323
G1 X105.138 Y176.761 E1.52845
M73 P0 R60
G1 X104.383 Y176.794 E.02811
G1 X103.577 Y176.676 E.03034
G1 X102.833 Y176.414 E.02939
G1 X102.296 Y176.116 E.02288
G1 X98.62 Y172.975 E.18008
G1 X97.826 Y172.003 E.04675
G1 X97.432 Y171.111 E.03632
G1 X84.722 Y127.717 E1.68418
G1 X84.58 Y127.078 E.02436
G1 X84.544 Y126.301 E.02897
G1 X90.358 Y92.187 E1.28894
G1 X90.766 Y90.738 E.05606
G1 X91.373 Y89.587 E.04845
G1 X92.165 Y88.609 E.0469
; printing object SpaghetGunV1.stl id:0 copy 0
G10 ; retract
EXCLUDE_OBJECT_START NAME=SpaghetGunV1.stl_id_0_copy_0
G1 Z.6 F9000
G1 X96.182 Y107.002 Z.6
G1 Z.2
G11 ; unretract
;TYPE:Inner wall
;WIDTH:0.409338
G1 F900
G1 X96.113 Y106.627 E.01141
;WIDTH:0.454669
G1 X96.038 Y106.388 E.00839
;WIDTH:0.499999
G1 X95.963 Y106.149 E.00931
G1 X95.683 Y105.73 E.01881
G1 X95.215 Y105.253 E.02488
G1 X95.151 Y105.124 E.00537
G1 X95.189 Y104.965 E.00607
G1 X95.443 Y104.53 E.01876
G1 X95.623 Y104.029 E.01983
G1 X95.64 Y103.732 E.0111
;WIDTH:0.455034
G1 X95.657 Y103.435 E.01
;WIDTH:0.410069
G1 X95.602 Y102.915 E.01562
;WIDTH:0.43802
G1 X95.529 Y102.625 E.00964
;WIDTH:0.477976
G1 X95.457 Y102.334 E.01062
;WIDTH:0.499999
G1 X95.212 Y101.893 E.0188
G1 X94.597 Y101.22 E.03394
G1 X94.607 Y101.065 E.00576
G1 X94.877 Y100.571 E.02099
G1 X95.058 Y100.07 E.01984
G1 X95.077 Y99.814 E.00955
;WIDTH:0.458801
G1 X95.096 Y99.558 E.00869
;WIDTH:0.417603
G1 X95.042 Y98.982 E.01767
;WIDTH:0.436138
G1 X94.985 Y98.723 E.00848
;WIDTH:0.475025
G1 X94.928 Y98.465 E.00932
;WIDTH:0.499999
G1 X94.783 Y98.145 E.01308
G1 X94.469 Y97.715 E.01983
G1 X94.072 Y97.34 E.02033
G1 X94.015 Y97.156 E.00716
G1 X94.409 Y96.383 E.03231
G1 X94.543 Y95.816 E.02173
G1 X94.528 Y95.57 E.00917
;WIDTH:0.452341
G1 X94.512 Y95.324 E.00821
;WIDTH:0.410688
G1 X94.421 Y94.763 E.01704
;WIDTH:0.442891
G1 X94.343 Y94.529 E.00806
;WIDTH:0.475093
G1 X94.265 Y94.294 E.00871
;WIDTH:0.513378
G1 X94.188 Y94.127 E.00706
;WIDTH:0.551663
G1 X94.111 Y93.96 E.00763
;WIDTH:0.589947
G1 X94.034 Y93.792 E.00821
;WIDTH:0.596398
G1 X93.96 Y93.484 E.0143
;WIDTH:0.599106
G1 X93.964 Y92.956 E.02393
G1 X94.043 Y92.51 E.02054
;WIDTH:0.596903
G1 X94.248 Y91.943 E.02721
;WIDTH:0.58654
G1 X94.555 Y91.429 E.02654
;WIDTH:0.572808
G1 X95.028 Y90.925 E.02986
;WIDTH:0.55426
G1 X95.492 Y90.61 E.02334
;WIDTH:0.526022
G1 X96.044 Y90.361 E.02386
;WIDTH:0.502637
G1 X96.657 Y90.226 E.02348
;WIDTH:0.474719
G1 X97.215 Y90.199 E.01968
;WIDTH:0.455719
G1 X100.621 Y90.201 E.11456
;WIDTH:0.45611
G1 X101.275 Y90.276 E.02217
;WIDTH:0.455473
G1 X101.822 Y90.431 E.01912
G1 X102.342 Y90.664 E.01914
G1 X102.821 Y90.972 E.01913
;WIDTH:0.46373
G1 X103.246 Y91.349 E.01951
G1 X103.617 Y91.781 E.0195
;WIDTH:0.458063
G1 X103.917 Y92.264 E.01925
;WIDTH:0.458177
G1 X104.138 Y92.776 E.01886
G1 X104.333 Y93.573 E.02776
;WIDTH:0.460089
G1 X106.308 Y107.366 E.47368
;WIDTH:0.46741
G1 X106.332 Y107.562 E.00681
;WIDTH:0.515792
G1 X106.401 Y108.211 E.02516
G1 X106.492 Y108.73 E.02032
;WIDTH:0.499999
G1 X106.742 Y109.605 E.03389
G1 X107.007 Y110.21 E.0246
G1 X107.271 Y110.677 E.01997
G1 X107.613 Y111.198 E.02323
G1 X108.236 Y111.899 E.03493
G1 X109.185 Y112.653 E.04513
G1 X110.263 Y113.207 E.04514
G1 X111.401 Y113.536 E.04411
G1 X112.277 Y113.635 E.03285
G1 X130.698 Y113.641 E.68611
G1 X130.993 Y113.673 E.01104
G1 X131.389 Y113.854 E.01621
G1 X131.601 Y114.064 E.01114
G1 X131.75 Y114.34 E.01167
G1 X131.808 Y114.697 E.01348
G1 X131.838 Y117.842 E.11714
G1 X131.811 Y118.132 E.01084
G1 X131.721 Y118.453 E.01241
G1 X131.538 Y118.747 E.01289
G1 X131.265 Y118.947 E.0126
G1 X130.833 Y119.056 E.01657
G1 X106.138 Y119.229 E.91983
G1 X105.045 Y119.297 E.04079
G1 X103.964 Y119.474 E.0408
G1 X102.819 Y119.79 E.04424
G1 X101.952 Y120.114 E.03445
G1 X101.478 Y120.344 E.01964
G1 X100.575 Y120.836 E.03832
G1 X99.978 Y121.214 E.02631
G1 X99 Y121.994 E.04657
G1 X98.336 Y122.626 E.03416
G1 X97.986 Y123.009 E.01933
G1 X92.299 Y129.566 E.32327
G1 X92.032 Y129.745 E.01199
G1 X91.783 Y129.765 E.00929
G1 X91.464 Y129.606 E.01326
G1 X88.434 Y126.977 E.14943
G1 X88.223 Y126.717 E.01248
G1 X88.185 Y126.392 E.01218
G1 X88.337 Y126.092 E.01253
G1 X93.174 Y120.512 E.27506
G1 X93.596 Y120 E.02472
G1 X93.976 Y119.489 E.0237
G1 X94.331 Y118.961 E.0237
G1 X94.659 Y118.416 E.0237
G1 X94.961 Y117.856 E.0237
G1 X95.236 Y117.282 E.0237
G1 X95.483 Y116.695 E.0237
G1 X95.713 Y116.057 E.02527
G1 X95.889 Y115.489 E.02214
G1 X96.048 Y114.873 E.0237
G1 X96.192 Y114.16 E.0271
G1 X96.281 Y113.581 E.02183
G1 X96.345 Y112.988 E.02221
G1 X96.383 Y112.346 E.02396
G1 X96.386 Y111.606 E.02754
G1 X96.349 Y110.878 E.02718
;WIDTH:0.541197
G1 X96.349 Y110.716 E.00656
;WIDTH:0.582395
G1 X96.349 Y110.555 E.0071
;WIDTH:0.623593
G1 X96.349 Y110.393 E.00764
;WIDTH:0.66479
G1 X96.348 Y110.232 E.00818
;WIDTH:0.68273
G1 X96.151 Y109.624 E.0333
G1 X96.104 Y109.58 E.00338
;WIDTH:0.646876
G1 X96.057 Y109.535 E.00319
;WIDTH:0.611022
G1 X95.947 Y109.398 E.00815
;WIDTH:0.574015
G1 X95.837 Y109.26 E.00762
;WIDTH:0.537007
G1 X95.727 Y109.122 E.00709
;WIDTH:0.499999
G1 X95.719 Y109.034 E.00332
G1 X96.008 Y108.49 E.02294
G1 X96.189 Y107.989 E.01984
G1 X96.229 Y107.64 E.0131
;WIDTH:0.455688
G1 X96.216 Y107.377 E.00887
;WIDTH:0.425539
G1 X96.203 Y107.113 E.00822
;WIDTH:0.409338
G1 X96.19 Y107.042 E.00218
G10 ; retract
G1 Z.6 F9000
G1 X95.575 Y91.149 Z.6
G1 Z.2
G11 ; unretract
;WIDTH:0.55426
G1 F900
G1 X95.719 Y91.036 E.00763
;WIDTH:0.526022
G1 X96.183 Y90.799 E.02051
;WIDTH:0.502637
G1 X96.709 Y90.655 E.02045
;WIDTH:0.474719
G1 X97.214 Y90.611 E.01784
;WIDTH:0.454727
G1 X97.215 Y90.611 E.00002
;WIDTH:0.455719
G1 X100.621 Y90.613 E.11456
G1 X101.179 Y90.677 E.01892
;WIDTH:0.455452
G1 X101.669 Y90.813 E.01707
G1 X102.133 Y91.02 E.01709
G1 X102.562 Y91.293 E.01708
;WIDTH:0.46373
G1 X102.941 Y91.638 E.01759
G1 X103.271 Y92.01 E.01704
;WIDTH:0.458063
G1 X103.542 Y92.44 E.01718
;WIDTH:0.458177
G1 X103.736 Y92.879 E.01627
G1 X103.882 Y93.43 E.01927
;WIDTH:0.457314
G1 X103.923 Y93.631 E.00694
;WIDTH:0.460089
G1 X105.895 Y107.425 E.47368
;WIDTH:0.487941
G1 X105.912 Y107.834 E.01484
;WIDTH:0.515792
G1 X105.93 Y108.243 E.01577
G1 X105.826 Y108.718 E.01875
;WIDTH:0.499999
G1 X105.677 Y109.199 E.01873
G1 X105.532 Y109.501 E.0125
G1 X105.166 Y110.041 E.0243
G1 X104.939 Y110.289 E.0125
G1 X104.431 Y110.699 E.02432
G1 X104.168 Y110.859 E.01148
G1 X103.668 Y111.076 E.02029
G1 X100.742 Y111.881 E.11301
G1 X100.115 Y111.96 E.02354
G1 X99.667 Y111.968 E.01672
G1 X99.123 Y111.875 E.02054
G1 X98.63 Y111.697 E.01951
G1 X98.196 Y111.449 E.01864
G1 X97.751 Y111.089 E.02132
G1 X97.405 Y110.692 E.0196
;WIDTH:0.542331
G1 X97.292 Y110.535 E.00789
;WIDTH:0.584663
G1 X97.178 Y110.378 E.00856
;WIDTH:0.626995
G1 X97.064 Y110.22 E.00923
;WIDTH:0.669326
G1 X96.95 Y110.063 E.0099
;WIDTH:0.68273
G1 X96.745 Y109.4 E.03619
G1 X96.747 Y109.266 E.00703
;WIDTH:0.637048
G1 X96.75 Y109.131 E.00652
;WIDTH:0.591365
G1 X96.752 Y108.996 E.00602
;WIDTH:0.545682
G1 X96.754 Y108.861 E.00552
;WIDTH:0.499999
G1 X96.631 Y107.997 E.03251
G1 X96.614 Y107.727 E.01007
;WIDTH:0.457894
G1 X96.597 Y107.458 E.00914
;WIDTH:0.415788
G1 X96.538 Y106.958 E.01528
;WIDTH:0.429719
G1 X96.473 Y106.634 E.01041
;WIDTH:0.467071
G1 X96.408 Y106.31 E.01142
;WIDTH:0.499999
G1 X96.314 Y105.767 E.02053
G1 X96.067 Y104.037 E.06508
G1 X96.05 Y103.768 E.01007
;WIDTH:0.458348
G1 X96.033 Y103.498 E.00915
;WIDTH:0.416696
G1 X95.973 Y102.998 E.01533
;WIDTH:0.419704
G1 X95.889 Y102.498 E.01557
;WIDTH:0.459852
G1 X95.829 Y102.219 E.00971
;WIDTH:0.499999
G1 X95.769 Y101.939 E.01064
G1 X95.504 Y100.078 E.07004
G1 X95.486 Y99.808 E.01007
;WIDTH:0.458801
G1 X95.468 Y99.538 E.00917
;WIDTH:0.417603
G1 X95.409 Y99.038 E.01536
;WIDTH:0.434596
G1 X95.34 Y98.698 E.01107
;WIDTH:0.475025
G1 X95.271 Y98.358 E.01221
;WIDTH:0.499999
G1 X94.894 Y95.797 E.09643
G1 X94.878 Y95.56 E.00885
;WIDTH:0.465029
G1 X94.862 Y95.323 E.00817
;WIDTH:0.430059
G1 X94.846 Y95.086 E.00749
;WIDTH:0.434713
G1 X94.735 Y94.447 E.0207
;WIDTH:0.473522
G1 X94.685 Y94.238 E.00754
;WIDTH:0.51233
G1 X94.636 Y94.029 E.00822
;WIDTH:0.551139
G1 X94.587 Y93.82 E.0089
;WIDTH:0.589947
G1 X94.537 Y93.61 E.00958
;WIDTH:0.592167
G1 X94.508 Y93.256 E.01593
;WIDTH:0.594768
G1 X94.558 Y92.729 E.0238
G1 X94.715 Y92.224 E.02377
;WIDTH:0.585278
G1 X94.965 Y91.764 E.02313
;WIDTH:0.572996
G1 X95.307 Y91.359 E.02289
;WIDTH:0.55426
G1 X95.543 Y91.174 E.01251
G1 X95.851 Y91.533 F9000
;WIDTH:0.499999
G1 F900
G1 X95.96 Y91.44 E.00533
G1 X96.337 Y91.23 E.01605
G1 X96.764 Y91.096 E.01667
G1 X97.215 Y91.045 E.01691
G1 X100.62 Y91.048 E.12685
G1 X101.143 Y91.115 E.01964
G1 X101.569 Y91.241 E.01653
G1 X101.971 Y91.429 E.01653
G1 X102.365 Y91.695 E.01771
G1 X102.779 Y92.09 E.02131
G1 X103.082 Y92.502 E.01905
G1 X103.315 Y92.992 E.0202
G1 X103.491 Y93.693 E.02692
G1 X105.462 Y107.487 E.519
G1 X105.465 Y108.24 E.02806
G1 X105.241 Y109.063 E.03177
G1 X104.788 Y109.785 E.03174
G1 X104.297 Y110.22 E.02441
G1 X103.986 Y110.44 E.01422
