; generated by PrusaSlicer 2.7.1 on 2024-01-18 at 06:57:51 UTC
;FLAVOR:Marlin
;TIME:1980
;Filament used: 2.196900
;Layer height: 0.20
;MINX:0.000
;MINY:0.000
;MINZ:0.000
;MAXX:0.000
;MAXY:0.000
;MAXZ:0.000
;POSTPROCESSED
;Header generated for The Ender3v2 Professional Firmware
;https://github.com/mriscoc/Marlin_Ender3v2



;
;

;
;
; 

; external perimeters extrusion width = 0.42mm
; perimeters extrusion width = 0.44mm
; infill extrusion width = 0.44mm
; solid infill extrusion width = 0.44mm
; top infill extrusion width = 0.40mm
; first layer extrusion width = 0.42mm

M73 P0 R33

EXCLUDE_OBJECT_DEFINE NAME=whistle_dual_tone_stl CENTER=110.451,110.004 POLYGON=[[135.683,105.517],[136.207,105.793],[136.483,106.317],[136.500,113.500],[136.466,113.759],[136.207,114.207],[135.759,114.466],[135.500,114.500],[87.717,114.491],[86.881,114.359],[86.084,114.072],[85.355,113.641],[84.920,113.280],[84.359,112.645],[83.928,111.916],[83.641,111.119],[83.509,110.283],[83.535,109.436],[83.720,108.609],[84.057,107.832],[84.533,107.132],[85.132,106.533],[86.084,105.928],[86.881,105.641],[87.717,105.509]]

M190 S60 ; set bed temperature and wait for it to be reached
M104 S215 ; set temperature
;TYPE:Custom
M117 ; clear display for KAMP meshing
START_PRINT BED_TEMP=60 EXTRUDER_TEMP=215
M109 S215 ; set temperature and wait for it to be reached
G21 ; set units to millimeters
G90 ; use absolute coordinates
M83 ; use relative distances for extrusion
; Filament gcode
M107
;LAYER_CHANGE
;Z:0.2
;HEIGHT:0.2
;BEFORE_LAYER_CHANGE
G92 E0
;0.2


G10 ; retract
G1 Z.2 F15000
;AFTER_LAYER_CHANGE
;0.2
G1 X83.003 Y104.292
G11 ; unretract
M204 S500
;TYPE:Skirt/Brim
;WIDTH:0.42
G1 F2400
G1 X84.116 Y103.484 E.04312
G1 X85.455 Y102.854 E.0464
G1 X86.787 Y102.512 E.04312
G1 X88 Y102.41 E.03817
G1 X135.7 Y102.416 E1.4956
G1 X136.517 Y102.545 E.02593
M73 P0 R32
G1 X137.003 Y102.711 E.0161
G1 X138.284 Y103.531 E.04769
G1 X138.922 Y104.278 E.0308
G1 X139.327 Y105.111 E.02904
G1 X139.555 Y106.006 E.02896
G1 X139.59 Y106.5 E.01553
G1 X139.59 Y113.503 E.21957
G1 X139.371 Y114.778 E.04056
G1 X138.661 Y116.063 E.04603
G1 X137.722 Y116.922 E.0399
G1 X136.889 Y117.327 E.02904
G1 X135.994 Y117.555 E.02896
G1 X87.312 Y117.555 E1.52639
G1 X86.353 Y117.404 E.03044
G1 X84.963 Y116.952 E.04583
G1 X84.116 Y116.516 E.02987
G1 X83.003 Y115.708 E.04312
G1 X82.315 Y115.022 E.03046
G1 X81.457 Y113.839 E.04582
G1 X80.871 Y112.594 E.04314
G1 X80.503 Y111.161 E.04639
G1 X80.417 Y109.788 E.04313
G1 X80.603 Y108.32 E.0464
G1 X81.028 Y107.011 E.04315
G1 X81.457 Y106.161 E.02985
G1 X81.99 Y105.371 E.02988
G1 X82.962 Y104.336 E.04452
EXCLUDE_OBJECT_START NAME=whistle_dual_tone_stl
G10 ; retract
G1 X82.962 Y104.336 Z.6 F15000
G1 X91.006 Y107.146
G1 Z.2
G11 ; unretract
;TYPE:Perimeter
;WIDTH:0.419999
G1 F2400
G1 X134.854 Y107.146 E1.37482
G1 X134.854 Y112.854 E.17897
G1 X91.006 Y112.854 E1.37482
G1 X91.318 Y112.484 E.01518
G1 X91.603 Y112.049 E.01631
G1 X91.832 Y111.581 E.01634
G1 X92 Y111.088 E.01633
G1 X92.104 Y110.578 E.01632
G1 X92.145 Y110.059 E.01632
G1 X92.119 Y109.539 E.01632
G1 X92.029 Y109.027 E.0163
G1 X91.875 Y108.529 E.01634
G1 X91.66 Y108.055 E.01632
G1 X91.388 Y107.612 E.0163
G1 X91.044 Y107.193 E.017
G1 X89.924 Y106.765 F15000
G1 F2400
G1 X135.231 Y106.769 E1.42057
G1 X135.231 Y113.231 E.20261
G1 X89.924 Y113.235 E1.42057
G1 X90.374 Y112.927 E.0171
G1 X90.723 Y112.605 E.01489
G1 X91.028 Y112.244 E.01482
G1 X91.285 Y111.846 E.01485
G1 X91.491 Y111.42 E.01484
G1 X91.641 Y110.972 E.01481
G1 X91.734 Y110.508 E.01484
G1 X91.768 Y110.036 E.01484
G1 X91.743 Y109.563 E.01485
G1 X91.659 Y109.097 E.01485
G1 X91.517 Y108.646 E.01483
G1 X91.319 Y108.216 E.01484
G1 X91.069 Y107.814 E.01484
G1 X90.771 Y107.446 E.01485
G1 X90.374 Y107.073 E.01708
G1 X89.974 Y106.799 E.0152
G10 ; retract
G1 X89.974 Y106.799 Z.6 F15000
G1 X87.274 Y106.386
G1 Z.2
G11 ; unretract
;TYPE:External perimeter
;WIDTH:0.431196
G1 F1920
G1 X87.781 Y106.325 E.01649
G1 X88.496 Y106.334 E.02309
;WIDTH:0.427737
G1 X89.519 Y106.385 E.03277
;WIDTH:0.419999
G1 X135.414 Y106.392 E1.439
G1 X135.56 Y106.429 E.00472
G1 X135.608 Y106.586 E.00515
G1 X135.608 Y113.414 E.21409
G1 X135.571 Y113.56 E.00472
G1 X135.451 Y113.608 E.00405
G1 X89.592 Y113.614 E1.43787
;WIDTH:0.442627
G1 X87.991 Y113.681 E.05326
;WIDTH:0.425507
G1 X87.252 Y113.608 E.02362
;WIDTH:0.419959
G1 X86.463 Y113.35 E.02602
;WIDTH:0.432257
G1 X86.017 Y113.102 E.01652
G1 X85.606 Y112.801 E.01649
;WIDTH:0.419959
G1 X85.039 Y112.195 E.02602
;WIDTH:0.432257
G1 X84.768 Y111.763 E.01651
G1 X84.553 Y111.301 E.0165
;WIDTH:0.41996
G1 X84.347 Y110.497 E.02602
;WIDTH:0.432257
G1 X84.319 Y109.988 E.0165
G1 X84.352 Y109.48 E.01648
;WIDTH:0.41996
G1 X84.56 Y108.676 E.02604
;WIDTH:0.432258
G1 X84.78 Y108.216 E.01651
G1 X85.054 Y107.787 E.01648
;WIDTH:0.41996
G1 X85.623 Y107.182 E.02604
;WIDTH:0.432257
G1 X86.038 Y106.885 E.01652
G1 X86.485 Y106.641 E.01649
;WIDTH:0.41996
G1 X87.217 Y106.404 E.02412
G1 X87.613 Y106.347 F15000
G1 X87.357 Y106.754
;WIDTH:0.419959
G1 F1920
G1 X88.183 Y106.695 E.02596
;WIDTH:0.444365
G1 X89.006 Y106.772 E.02759
G1 X89.451 Y106.939 E.01587
;WIDTH:0.419999
G1 X89.827 Y107.143 E.01341
G1 X90.171 Y107.394 E.01335
G1 X90.481 Y107.687 E.01337
G1 X90.751 Y108.016 E.01334
G1 X90.978 Y108.376 E.01334
G1 X91.158 Y108.762 E.01335
G1 X91.288 Y109.168 E.01337
G1 X91.367 Y109.587 E.01337
G1 X91.392 Y110.012 E.01335
G1 X91.364 Y110.437 E.01335
G1 X91.282 Y110.855 E.01336
G1 X91.149 Y111.26 E.01337
G1 X90.967 Y111.644 E.01332
G1 X90.737 Y112.003 E.01337
G1 X90.464 Y112.331 E.01338
G1 X90.153 Y112.621 E.01333
G1 X89.805 Y112.871 E.01343
G1 X89.387 Y113.086 E.01474
;WIDTH:0.442627
G1 X89.006 Y113.227 E.0135
G1 X88.217 Y113.305 E.02635
;WIDTH:0.418558
G1 X87.402 Y113.254 E.02551
;WIDTH:0.41996
G1 X86.612 Y113.004 E.02598
G1 X85.909 Y112.565 E.02598
G1 X85.337 Y111.964 E.02601
G1 X84.932 Y111.24 E.02601
G1 X84.72 Y110.438 E.02601
G1 X84.714 Y109.609 E.02599
G1 X84.914 Y108.804 E.026
G1 X85.315 Y108.064 E.02639
;WIDTH:0.419959
G1 X85.872 Y107.465 E.02564
G1 X86.57 Y107.016 E.02602
G1 X87.3 Y106.773 E.02412
G1 X87.698 Y106.731 F15000
G10 ; retract
G1 Z.6
G1 X134.733 Y108.037
G1 Z.2
G11 ; unretract
;TYPE:Solid infill
;WIDTH:0.423722
G1 F1920
G1 X134.133 Y107.437 E.02687
G1 X133.594 Y107.437 E.01707
G1 X134.563 Y108.406 E.04339
G1 X134.563 Y108.944 E.01704
G1 X133.056 Y107.437 E.06748
G1 X132.517 Y107.437 E.01707
G1 X134.563 Y109.483 E.09162
G1 X134.563 Y110.021 E.01704
G1 X131.979 Y107.437 E.11571
G1 X131.44 Y107.437 E.01707
G1 X134.563 Y110.56 E.13985
G1 X134.563 Y111.099 E.01707
G1 X130.901 Y107.437 E.16398
G1 X130.363 Y107.437 E.01704
G1 X134.563 Y111.637 E.18807
G1 X134.563 Y112.176 E.01707
G1 X129.824 Y107.437 E.21221
G1 X129.286 Y107.437 E.01704
G1 X134.413 Y112.563 E.22956
G1 X133.874 Y112.563 E.01707
G1 X128.747 Y107.437 E.22956
G1 X128.209 Y107.437 E.01704
G1 X133.336 Y112.563 E.22956
G1 X132.797 Y112.563 E.01707
G1 X127.67 Y107.437 E.22956
G1 X127.132 Y107.437 E.01704
G1 X132.259 Y112.563 E.22956
G1 X131.72 Y112.563 E.01707
G1 X126.593 Y107.437 E.22956
G1 X126.055 Y107.437 E.01704
G1 X131.182 Y112.563 E.22956
G1 X130.643 Y112.563 E.01707
G1 X125.516 Y107.437 E.22956
M73 P1 R32
G1 X124.978 Y107.437 E.01704
G1 X130.105 Y112.563 E.22956
G1 X129.566 Y112.563 E.01707
G1 X124.439 Y107.437 E.22956
G1 X123.9 Y107.437 E.01707
G1 X129.027 Y112.563 E.22956
G1 X128.489 Y112.563 E.01704
G1 X123.362 Y107.437 E.22956
G1 X122.823 Y107.437 E.01707
G1 X127.95 Y112.563 E.22956
G1 X127.412 Y112.563 E.01704
G1 X122.285 Y107.437 E.22956
G1 X121.746 Y107.437 E.01707
G1 X126.873 Y112.563 E.22956
G1 X126.335 Y112.563 E.01704
G1 X121.208 Y107.437 E.22956
G1 X120.669 Y107.437 E.01707
G1 X125.796 Y112.563 E.22956
G1 X125.258 Y112.563 E.01704
G1 X120.131 Y107.437 E.22956
G1 X119.592 Y107.437 E.01707
G1 X124.719 Y112.563 E.22956
G1 X124.181 Y112.563 E.01704
G1 X119.054 Y107.437 E.22956
G1 X118.515 Y107.437 E.01707
G1 X123.642 Y112.563 E.22956
G1 X123.104 Y112.563 E.01704
G1 X117.977 Y107.437 E.22956
G1 X117.438 Y107.437 E.01707
G1 X122.565 Y112.563 E.22956
G1 X122.027 Y112.563 E.01704
G1 X116.9 Y107.437 E.22956
G1 X116.361 Y107.437 E.01707
G1 X121.488 Y112.563 E.22956
G1 X120.949 Y112.563 E.01707
G1 X115.822 Y107.437 E.22956
G1 X115.284 Y107.437 E.01704
G1 X120.411 Y112.563 E.22956
G1 X119.872 Y112.563 E.01707
G1 X114.745 Y107.437 E.22956
G1 X114.207 Y107.437 E.01704
G1 X119.334 Y112.563 E.22956
G1 X118.795 Y112.563 E.01707
G1 X113.668 Y107.437 E.22956
G1 X113.13 Y107.437 E.01704
G1 X118.257 Y112.563 E.22956
G1 X117.718 Y112.563 E.01707
G1 X112.591 Y107.437 E.22956
G1 X112.053 Y107.437 E.01704
G1 X117.18 Y112.563 E.22956
G1 X116.641 Y112.563 E.01707
G1 X111.514 Y107.437 E.22956
G1 X110.976 Y107.437 E.01704
G1 X116.103 Y112.563 E.22956
G1 X115.564 Y112.563 E.01707
G1 X110.437 Y107.437 E.22956
G1 X109.899 Y107.437 E.01704
G1 X115.026 Y112.563 E.22956
G1 X114.487 Y112.563 E.01707
G1 X109.36 Y107.437 E.22956
G1 X108.821 Y107.437 E.01707
G1 X113.948 Y112.563 E.22956
G1 X113.41 Y112.563 E.01704
G1 X108.283 Y107.437 E.22956
G1 X107.744 Y107.437 E.01707
G1 X112.871 Y112.563 E.22956
G1 X112.333 Y112.563 E.01704
G1 X107.206 Y107.437 E.22956
G1 X106.667 Y107.436 E.01707
G1 X111.794 Y112.563 E.22958
G1 X111.256 Y112.563 E.01704
G1 X106.129 Y107.436 E.22958
G1 X105.59 Y107.436 E.01707
G1 X110.717 Y112.563 E.22958
G1 X110.179 Y112.564 E.01704
G1 X105.052 Y107.436 E.22961
G1 X104.513 Y107.436 E.01707
G1 X109.64 Y112.564 E.22961
G1 X109.102 Y112.564 E.01704
G1 X103.975 Y107.436 E.22961
G1 X103.436 Y107.436 E.01707
G1 X108.563 Y112.564 E.22961
G1 X108.025 Y112.564 E.01704
G1 X102.898 Y107.436 E.22961
G1 X102.359 Y107.436 E.01707
G1 X107.486 Y112.564 E.22961
G1 X106.948 Y112.564 E.01704
G1 X101.821 Y107.436 E.22961
G1 X101.282 Y107.436 E.01707
G1 X106.409 Y112.564 E.22961
G1 X105.87 Y112.564 E.01707
G1 X100.743 Y107.436 E.22961
G1 X100.205 Y107.436 E.01704
G1 X105.332 Y112.564 E.22961
G1 X104.793 Y112.564 E.01707
G1 X99.666 Y107.436 E.22961
G1 X99.128 Y107.436 E.01704
G1 X104.255 Y112.564 E.22961
G1 X103.716 Y112.564 E.01707
G1 X98.589 Y107.436 E.22961
G1 X98.051 Y107.436 E.01704
G1 X103.178 Y112.564 E.22961
G1 X102.639 Y112.564 E.01707
G1 X97.512 Y107.436 E.22961
G1 X96.974 Y107.436 E.01704
G1 X102.101 Y112.564 E.22961
G1 X101.562 Y112.564 E.01707
G1 X96.435 Y107.436 E.22961
G1 X95.897 Y107.436 E.01704
G1 X101.024 Y112.564 E.22961
G1 X100.485 Y112.564 E.01707
G1 X95.358 Y107.436 E.22961
G1 X94.82 Y107.436 E.01704
G1 X99.947 Y112.564 E.22961
G1 X99.408 Y112.564 E.01707
G1 X94.281 Y107.436 E.22961
G1 X93.742 Y107.436 E.01707
G1 X98.87 Y112.564 E.22963
G1 X98.331 Y112.564 E.01707
G1 X93.204 Y107.436 E.22961
G1 X92.665 Y107.436 E.01707
G1 X97.792 Y112.564 E.22961
G1 X97.254 Y112.564 E.01704
G1 X92.127 Y107.436 E.22961
G1 X91.605 Y107.436 E.01653
G1 X96.715 Y112.564 E.22923
G1 X96.177 Y112.564 E.01704
G1 X92.195 Y108.582 E.17831
G1 X92.313 Y108.967 E.01275
G1 X92.377 Y109.303 E.01083
G1 X95.638 Y112.564 E.14603
G1 X95.1 Y112.564 E.01704
G1 X92.429 Y109.893 E.11961
G1 X92.437 Y110 E.0034
G1 X92.407 Y110.409 E.01299
G1 X94.561 Y112.564 E.09648
G1 X94.023 Y112.564 E.01704
G1 X92.338 Y110.879 E.07545
G1 X92.232 Y111.312 E.01412
M73 P2 R32
G1 X93.484 Y112.564 E.05606
G1 X92.946 Y112.564 E.01704
G1 X92.085 Y111.703 E.03856
G1 X91.913 Y112.069 E.0128
G1 X92.407 Y112.564 E.02214
G1 X91.869 Y112.564 E.01704
G1 X91.589 Y112.284 E.01254
EXCLUDE_OBJECT_END NAME=whistle_dual_tone_stl
M106 S127.5
;LAYER_CHANGE
;Z:0.4
;HEIGHT:0.2
;BEFORE_LAYER_CHANGE
G92 E0
;0.4


G10 ; retract
G1 Z.4 F15000
;AFTER_LAYER_CHANGE
;0.4
M104 S210 ; set temperature
G1 X91.589 Y112.284 Z.8
G1 X91.589 Y117.555
G1 Z.4
G11 ; unretract
;TYPE:Skirt/Brim
;WIDTH:0.42
G1 F6000
G1 X87.312 Y117.555 E.1341
G1 X86.353 Y117.404 E.03044
G1 X84.963 Y116.952 E.04583
G1 X84.116 Y116.516 E.02987
G1 X83.003 Y115.708 E.04312
G1 X82.315 Y115.022 E.03046
G1 X81.457 Y113.839 E.04582
G1 X80.871 Y112.594 E.04314
G1 X80.503 Y111.161 E.04639
G1 X80.417 Y109.788 E.04313
G1 X80.603 Y108.32 E.0464
G1 X81.028 Y107.011 E.04315
G1 X81.457 Y106.161 E.02985
G1 X81.99 Y105.371 E.02988
G1 X83.003 Y104.292 E.0464
G1 X84.116 Y103.484 E.04312
G1 X85.455 Y102.854 E.0464
G1 X86.787 Y102.512 E.04312
G1 X88 Y102.41 E.03817
G1 X135.7 Y102.416 E1.4956
G1 X136.517 Y102.545 E.02593
G1 X137.003 Y102.711 E.0161
G1 X138.284 Y103.531 E.04769
G1 X138.922 Y104.278 E.0308
G1 X139.327 Y105.111 E.02904
G1 X139.555 Y106.006 E.02896
G1 X139.59 Y106.5 E.01553
G1 X139.59 Y113.503 E.21957
G1 X139.371 Y114.778 E.04056
G1 X138.661 Y116.063 E.04603
G1 X137.722 Y116.922 E.0399
G1 X136.889 Y117.327 E.02904
G1 X135.994 Y117.555 E.02896
G1 X91.649 Y117.555 E1.39041
EXCLUDE_OBJECT_START NAME=whistle_dual_tone_stl
G10 ; retract
G1 X91.649 Y117.555 Z.8 F15000
G1 X135.214 Y113.218
G1 Z.4
G11 ; unretract
;TYPE:Perimeter
;WIDTH:0.439999
G1 F6000
G1 X89.984 Y113.21 E1.49337
G1 X90.125 Y113.121 E.00551
G1 X90.835 Y112.495 E.03125
G1 X91.366 Y111.711 E.03126
G1 X91.686 Y110.82 E.03126
G1 X91.774 Y109.878 E.03124
G1 X91.625 Y108.943 E.03126
G1 X91.248 Y108.075 E.03125
G1 X90.665 Y107.326 E.03134
G1 X89.983 Y106.79 E.02864
G1 X135.218 Y106.787 E1.49354
G1 X135.214 Y113.158 E.21035
G1 X135.534 Y113.554 F15000
G1 F6000
G1 X135.418 Y113.615 E.00433
G1 X89.011 Y113.607 E1.53223
;WIDTH:0.486484
G1 X88.87 Y113.583 E.00528
;WIDTH:0.532968
G1 X88.729 Y113.559 E.00583
;WIDTH:0.579453
G1 X88.588 Y113.535 E.00638
;WIDTH:0.625937
G1 X88.448 Y113.511 E.00689
;WIDTH:0.672421
G1 X88.307 Y113.487 E.00749
G1 X88.468 Y113.428 E.00898
;WIDTH:0.625937
G1 X88.629 Y113.369 E.00831
;WIDTH:0.579453
G1 X88.791 Y113.31 E.00769
;WIDTH:0.532968
G1 X88.952 Y113.251 E.00699
;WIDTH:0.486484
G1 X89.113 Y113.192 E.00632
;WIDTH:0.439999
G1 X89.872 Y112.815 E.02798
G1 X90.513 Y112.261 E.02797
G1 X90.997 Y111.565 E.02799
G1 X91.292 Y110.771 E.02797
G1 X91.38 Y109.928 E.02798
G1 X91.256 Y109.09 E.02797
G1 X90.927 Y108.308 E.02801
G1 X90.413 Y107.633 E.02801
G1 X89.74 Y107.102 E.0283
G1 X88.976 Y106.763 E.0276
;WIDTH:0.488102
G1 X88.842 Y106.713 E.00529
;WIDTH:0.536205
G1 X88.708 Y106.663 E.00587
;WIDTH:0.584307
G1 X88.574 Y106.613 E.00644
;WIDTH:0.63241
G1 X88.441 Y106.563 E.00696
;WIDTH:0.680512
G1 X88.307 Y106.513 E.00758
G1 X88.448 Y106.489 E.00758
;WIDTH:0.63241
G1 X88.588 Y106.465 E.00696
;WIDTH:0.584307
G1 X88.729 Y106.441 E.00644
;WIDTH:0.536205
G1 X88.87 Y106.417 E.00587
;WIDTH:0.488102
G1 X89.011 Y106.393 E.00529
;WIDTH:0.439999
G1 X135.476 Y106.39 E1.53415
G1 X135.554 Y106.439 E.00304
G1 X135.615 Y106.613 E.00609
G1 X135.611 Y113.392 E.22382
G1 X135.59 Y113.525 E.00445
G1 X135.587 Y113.526 E.0001
G1 X135.731 Y113.929 F15000
;TYPE:External perimeter
;WIDTH:0.419999
G1 F4800
G1 X135.471 Y114.003 E.00848
G1 X87.781 Y113.994 E1.49528
G1 X87.283 Y113.935 E.01572
G1 X86.776 Y113.807 E.0164
G1 X86.325 Y113.633 E.01516
G1 X85.884 Y113.395 E.01571
G1 X85.474 Y113.102 E.0158
G1 X85.106 Y112.762 E.01571
G1 X84.782 Y112.377 E.01578
G1 X84.51 Y111.955 E.01574
G1 X84.292 Y111.502 E.01576
G1 X84.134 Y111.026 E.01573
G1 X84.035 Y110.533 E.01577
G1 X84 Y110.032 E.01575
G1 X84.027 Y109.53 E.01576
G1 X84.118 Y109.036 E.01575
G1 X84.269 Y108.557 E.01575
G1 X84.478 Y108.103 E.01567
G1 X84.757 Y107.659 E.01644
G1 X85.083 Y107.26 E.01616
G1 X85.449 Y106.916 E.01575
G1 X85.856 Y106.621 E.01576
G1 X86.296 Y106.379 E.01574
G1 X86.763 Y106.194 E.01575
G1 X87.25 Y106.069 E.01576
G1 X87.749 Y106.006 E.01577
G1 X135.435 Y106.003 E1.49516
G1 X135.727 Y106.064 E.00935
G1 X135.929 Y106.269 E.00902
G1 X136.002 Y106.613 E.01103
G1 X135.998 Y113.435 E.2139
G1 X135.936 Y113.727 E.00936
G1 X135.774 Y113.887 E.00714
G1 X135.387 Y113.99 F15000
G10 ; retract
G1 Z.8
G1 X85.569 Y108.247
G1 Z.4
G11 ; unretract
G1 F4800
G1 X86.072 Y107.707 E.02314
G1 X86.703 Y107.299 E.02356
G1 X87.415 Y107.062 E.02353
G1 X88.165 Y107.008 E.02358
G1 X88.903 Y107.143 E.02352
G1 X89.575 Y107.452 E.02319
G1 X90.167 Y107.932 E.0239
G1 X90.614 Y108.536 E.02356
G1 X90.896 Y109.232 E.02355
G1 X90.996 Y109.976 E.02354
G1 X90.908 Y110.722 E.02355
G1 X90.637 Y111.423 E.02356
G1 X90.2 Y112.034 E.02355
