; generated by PrusaSlicer 2.7.1 on 2024-01-12 at 20:14:47 UTC
;FLAVOR:Marlin
;TIME:1944
;Filament used: 1.351140
;Layer height: 0.20
;MINX:0.000
;MINY:0.000
;MINZ:0.000
;MAXX:0.000
;MAXY:0.000
;MAXZ:0.000
;POSTPROCESSED
;Header generated for The Ender3v2 Professional Firmware
;https://github.com/mriscoc/Marlin_Ender3v2



;
;

;
;
; 

; external perimeters extrusion width = 0.42mm
; perimeters extrusion width = 0.44mm
; infill extrusion width = 0.44mm
; solid infill extrusion width = 0.44mm
; top infill extrusion width = 0.40mm
; first layer extrusion width = 0.42mm

M73 P0 R32

EXCLUDE_OBJECT_DEFINE NAME=lightsaber_test_print(1)_stl CENTER=109.999,110.001 POLYGON=[[98.181,110.107],[98.238,108.836],[98.432,107.578],[99.050,105.552],[100.021,103.668],[100.759,102.632],[101.605,101.681],[103.226,100.316],[104.306,99.644],[105.452,99.092],[106.652,98.666],[107.890,98.372],[110.000,98.182],[112.110,98.372],[113.348,98.666],[114.548,99.092],[115.694,99.644],[116.774,100.316],[118.395,101.681],[119.746,103.314],[120.408,104.400],[120.950,105.552],[121.568,107.578],[121.762,108.836],[121.819,110.107],[121.610,112.216],[121.028,114.253],[120.091,116.154],[119.371,117.203],[118.543,118.169],[116.947,119.563],[115.879,120.254],[114.743,120.827],[113.551,121.274],[112.319,121.590],[110.212,121.818],[108.099,121.666],[106.856,121.394],[105.649,120.990],[104.493,120.459],[103.401,119.806],[101.756,118.470],[100.893,117.535],[100.136,116.512],[99.132,114.646],[98.695,113.451],[98.390,112.216]]

M190 S70 ; set bed temperature and wait for it to be reached
M104 S240 ; set temperature
;TYPE:Custom
M117 ; clear display for KAMP meshing
START_PRINT BED_TEMP=70 EXTRUDER_TEMP=240
M109 S240 ; set temperature and wait for it to be reached
G21 ; set units to millimeters
G90 ; use absolute coordinates
M83 ; use relative distances for extrusion
; Filament gcode
M107
;LAYER_CHANGE
;Z:0.2
;HEIGHT:0.2
;BEFORE_LAYER_CHANGE
G92 E0
;0.2


G10 ; retract
G1 Z.2 F15000
;AFTER_LAYER_CHANGE
;0.2
G1 X99.303 Y98.793
G11 ; unretract
M204 S500
;TYPE:Skirt/Brim
;WIDTH:0.42
G1 F1774
G1 X100.522 Y97.746 E.0529
G1 X101.595 Y96.986 E.04329
G1 X102.944 Y96.207 E.05128
G1 X104.474 Y95.527 E.05512
G1 X105.998 Y95.034 E.05273
G1 X107.286 Y94.747 E.04344
G1 X108.817 Y94.553 E.05081
G1 X110.135 Y94.509 E.04342
G1 X111.739 Y94.605 E.0529
G1 X113.262 Y94.855 E.05081
G1 X114.54 Y95.188 E.04348
G1 X116.044 Y95.735 E.05269
G1 X117.548 Y96.47 E.05511
G1 X118.864 Y97.294 E.05112
G1 X119.913 Y98.095 E.04345
G1 X121.083 Y99.175 E.05242
G1 X122.187 Y100.434 E.05513
G1 X123.087 Y101.708 E.05135
G1 X123.746 Y102.853 E.04349
G1 X124.404 Y104.293 E.05212
G1 X124.907 Y105.777 E.05159
G1 X125.212 Y107.062 E.04348
G1 X125.431 Y108.603 E.05124
G1 X125.492 Y110.196 E.05248
G1 X125.419 Y111.514 E.04346
G1 X125.179 Y113.108 E.05307
G1 X124.772 Y114.675 E.0533
G1 X124.212 Y116.17 E.05256
G1 X123.647 Y117.336 E.04266
G1 X122.838 Y118.675 E.0515
G1 X121.868 Y119.961 E.05303
G1 X120.976 Y120.935 E.04348
G1 X119.837 Y121.971 E.05069
G1 X118.541 Y122.927 E.05302
G1 X117.409 Y123.608 E.04349
G1 X115.964 Y124.301 E.05276
G1 X114.445 Y124.843 E.0531
G1 X112.88 Y125.224 E.05303
G1 X111.573 Y125.414 E.04348
G1 X109.973 Y125.495 E.05274
G1 X108.362 Y125.408 E.05311
G1 X106.771 Y125.154 E.05304
G1 X105.492 Y124.824 E.04349
G1 X103.986 Y124.28 E.05272
G1 X102.533 Y123.577 E.05314
G1 X101.164 Y122.727 E.05305
G1 X100.112 Y121.929 E.04347
G1 X98.935 Y120.846 E.05266
G1 X97.828 Y119.588 E.05517
G1 X96.931 Y118.322 E.05108
G1 X96.27 Y117.179 E.04347
G1 X95.603 Y115.727 E.05261
G1 X95.097 Y114.237 E.05181
G1 X94.794 Y112.973 E.04279
G1 X94.569 Y111.394 E.05251
G1 X94.508 Y109.775 E.05334
G1 X94.616 Y108.167 E.05306
G1 X94.823 Y106.884 E.04279
G1 X95.213 Y105.375 E.05131
G1 X95.8 Y103.804 E.05521
G1 X96.52 Y102.365 E.05297
G1 X97.211 Y101.256 E.04302
G1 X98.155 Y100.014 E.05136
G1 X99.262 Y98.836 E.05322
G1 X99.536 Y99.095 F15000
G1 F1774
G1 X99.567 Y99.062 E.00149
G1 X100.755 Y98.042 E.05155
G1 X101.795 Y97.305 E.04196
G1 X103.12 Y96.541 E.05035
G1 X104.613 Y95.877 E.05379
G1 X106.098 Y95.398 E.05137
G1 X107.347 Y95.119 E.04213
G1 X108.851 Y94.928 E.04991
G1 X110.129 Y94.886 E.0421
G1 X111.691 Y94.98 E.05152
G1 X113.188 Y95.225 E.04994
G1 X114.426 Y95.548 E.04212
G1 X115.893 Y96.08 E.05137
G1 X117.36 Y96.797 E.05376
G1 X118.652 Y97.606 E.05019
G1 X119.669 Y98.382 E.04212
G1 X120.811 Y99.435 E.05114
G1 X121.888 Y100.663 E.05377
G1 X122.771 Y101.914 E.05041
G1 X123.409 Y103.024 E.04215
G1 X124.052 Y104.429 E.05087
G1 X124.545 Y105.885 E.05061
G1 X124.841 Y107.13 E.04213
G1 X125.055 Y108.638 E.05014
G1 X125.115 Y110.196 E.05133
G1 X125.006 Y111.828 E.05385
G1 X124.801 Y113.072 E.04151
G1 X124.416 Y114.55 E.05028
G1 X123.865 Y116.024 E.05181
G1 X123.316 Y117.156 E.04142
G1 X122.525 Y118.466 E.05038
G1 X121.576 Y119.722 E.05183
G1 X120.712 Y120.666 E.04213
G1 X119.596 Y121.681 E.04966
G1 X118.33 Y122.615 E.05179
G1 X117.233 Y123.274 E.04213
G1 X115.821 Y123.952 E.05157
G1 X114.335 Y124.483 E.05195
G1 X112.806 Y124.855 E.05181
G1 X111.539 Y125.039 E.04215
G1 X109.976 Y125.118 E.05152
G1 X108.399 Y125.033 E.05199
G1 X106.845 Y124.784 E.05181
G1 X105.606 Y124.464 E.04213
G1 X104.134 Y123.933 E.05152
G1 X102.712 Y123.245 E.05201
G1 X101.375 Y122.415 E.05181
G1 X100.356 Y121.641 E.04213
G1 X99.205 Y120.583 E.05147
G1 X98.125 Y119.355 E.05384
G1 X97.247 Y118.116 E.04999
G1 X96.606 Y117.008 E.04214
G1 X95.954 Y115.589 E.05141
G1 X95.459 Y114.132 E.05066
G1 X95.165 Y112.905 E.04154
G1 X94.945 Y111.361 E.05135
G1 X94.885 Y109.777 E.05219
G1 X94.991 Y108.207 E.05181
G1 X95.196 Y106.944 E.04212
G1 X95.594 Y105.422 E.05179
G1 X96.147 Y103.951 E.05174
G1 X96.85 Y102.547 E.05169
G1 X97.519 Y101.473 E.04166
G1 X98.446 Y100.254 E.05042
G1 X99.495 Y99.138 E.05042
EXCLUDE_OBJECT_START NAME=lightsaber_test_print(1)_stl
G10 ; retract
G1 X99.495 Y99.138 Z.6 F15000
G1 X104.785 Y102.991
G1 Z.2
G11 ; unretract
;TYPE:External perimeter
;WIDTH:0.381312
G1 F1774
G1 X105.38 Y102.586 E.02126
G1 X105.863 Y102.312 E.01641
;WIDTH:0.369636
G1 X106.542 Y101.984 E.02151
;WIDTH:0.370518
G1 X107.251 Y101.713 E.02171
G1 X108.158 Y101.467 E.02688
;WIDTH:0.371797
G1 X109.077 Y101.315 E.02675
G1 X109.828 Y101.272 E.0216
;WIDTH:0.370593
G1 X110.586 Y101.288 E.02169
;WIDTH:0.373016
G1 X111.512 Y101.398 E.02687
G1 X112.424 Y101.614 E.02701
;WIDTH:0.369752
G1 X113.143 Y101.855 E.02164
;WIDTH:0.37032
G1 X113.995 Y102.238 E.0267
G1 X114.805 Y102.711 E.02681
;WIDTH:0.372361
G1 X115.396 Y103.131 E.02085
;WIDTH:0.381404
G1 X115.788 Y103.456 E.01505
G1 X116.435 Y104.093 E.02683
;WIDTH:0.381085
G1 X117.009 Y104.784 E.02652
G1 X117.414 Y105.379 E.02125
G1 X117.853 Y106.174 E.02681
;WIDTH:0.380753
G1 X118.206 Y107.001 E.02652
;WIDTH:0.38103
G1 X118.471 Y107.867 E.02673
;WIDTH:0.381274
G1 X118.646 Y108.749 E.02656
G1 X118.721 Y109.465 E.02127
;WIDTH:0.380796
G1 X118.729 Y110.373 E.02679
G1 X118.68 Y110.948 E.01702
;WIDTH:0.370176
G1 X118.571 Y111.666 E.02075
;WIDTH:0.381349
G1 X118.467 Y112.156 E.0148
G1 X118.261 Y112.846 E.02128
;WIDTH:0.380021
G1 X117.925 Y113.681 E.02649
;WIDTH:0.381142
G1 X117.5 Y114.482 E.02678
G1 X117.107 Y115.085 E.02125
;WIDTH:0.378695
G1 X116.546 Y115.789 E.02639
G1 X115.911 Y116.436 E.02658
;WIDTH:0.380834
G1 X115.218 Y117.007 E.02649
;WIDTH:0.381304
G1 X114.464 Y117.511 E.02679
G1 X113.831 Y117.855 E.02128
;WIDTH:0.378183
G1 X113.002 Y118.206 E.02635
;WIDTH:0.381667
G1 X112.136 Y118.473 E.0268
G1 X111.431 Y118.62 E.0213
;WIDTH:0.38035
G1 X110.537 Y118.721 E.02651
;WIDTH:0.377324
G1 X109.988 Y118.732 E.01603
;WIDTH:0.369554
G1 X109.23 Y118.698 E.02164
;WIDTH:0.370168
G1 X108.34 Y118.572 E.02568
;WIDTH:0.38166
G1 X107.847 Y118.468 E.0149
G1 X107.157 Y118.263 E.02129
;WIDTH:0.378653
G1 X106.689 Y118.08 E.01473
;WIDTH:0.369593
G1 X106.001 Y117.762 E.02162
;WIDTH:0.381288
G1 X105.521 Y117.502 E.01613
G1 X104.918 Y117.108 E.02128
;WIDTH:0.381164
G1 X104.442 Y116.735 E.01786
;WIDTH:0.370055
G1 X103.883 Y116.23 E.02152
G1 X103.365 Y115.676 E.02166
;WIDTH:0.370185
G1 X102.797 Y114.935 E.02668
;WIDTH:0.371801
G1 X102.307 Y114.136 E.02691
G1 X101.982 Y113.457 E.02162
;WIDTH:0.370552
G1 X101.712 Y112.749 E.02167
;WIDTH:0.380311
G1 X101.529 Y112.139 E.01876
;WIDTH:0.38129
G1 X101.382 Y111.434 E.02128
G1 X101.318 Y110.924 E.01518
;WIDTH:0.369912
G1 X101.271 Y110.168 E.02162
G1 X101.303 Y109.237 E.02659
;WIDTH:0.372322
G1 X101.392 Y108.518 E.02084
;WIDTH:0.381343
G1 X101.49 Y108.024 E.01488
G1 X101.736 Y107.166 E.02637
;WIDTH:0.380993
G1 X101.92 Y106.692 E.01501
;WIDTH:0.3699
G1 X102.238 Y106.004 E.02164
G1 X102.713 Y105.192 E.02686
;WIDTH:0.371916
G1 X103.263 Y104.442 E.02671
G1 X103.77 Y103.885 E.02163
;WIDTH:0.369878
G1 X104.323 Y103.367 E.02163
;WIDTH:0.381104
G1 X104.739 Y103.029 E.01583
G1 X105.067 Y102.8 F15000
G1 X104.984 Y103.265
;WIDTH:0.381312
G1 F1774
G1 X105.55 Y102.878 E.02026
G1 X106 Y102.609 E.01549
;WIDTH:0.36957
G1 X106.652 Y102.292 E.02068
;WIDTH:0.370761
G1 X107.327 Y102.032 E.0207
;WIDTH:0.380106
G1 X107.938 Y101.859 E.01869
;WIDTH:0.380833
G1 X108.794 Y101.689 E.02575
G1 X109.478 Y101.615 E.0203
;WIDTH:0.379056
G1 X110.354 Y101.606 E.02571
;WIDTH:0.380271
G1 X111.217 Y101.689 E.02554
;WIDTH:0.381661
G1 X111.891 Y101.819 E.0203
G1 X112.732 Y102.056 E.02584
;WIDTH:0.381079
G1 X113.533 Y102.382 E.02553
G1 X114.303 Y102.789 E.02571
;WIDTH:0.380615
G1 X115.026 Y103.267 E.02555
;WIDTH:0.381404
G1 X115.557 Y103.704 E.02032
G1 X116.18 Y104.315 E.02579
;WIDTH:0.381013
G1 X116.736 Y104.98 E.02559
G1 X117.122 Y105.549 E.0203
G1 X117.39 Y106 E.01549
;WIDTH:0.370074
G1 X117.779 Y106.819 E.0259
G1 X118.024 Y107.502 E.02073
;WIDTH:0.369803
G1 X118.245 Y108.373 E.02565
;WIDTH:0.372386
G1 X118.374 Y109.271 E.0261
G1 X118.404 Y109.996 E.02087
;WIDTH:0.370036
G1 X118.357 Y110.893 E.02565
G1 X118.249 Y111.61 E.02071
;WIDTH:0.37225
G1 X118.029 Y112.488 E.02603
G1 X117.716 Y113.333 E.02591
;WIDTH:0.370841
G1 X117.4 Y113.985 E.02074
;WIDTH:0.373248
G1 X116.929 Y114.759 E.02613
G1 X116.381 Y115.473 E.02596
;WIDTH:0.372219
G1 X115.885 Y116.002 E.02085
;WIDTH:0.370259
G1 X115.346 Y116.486 E.0207
;WIDTH:0.3701
G1 X114.617 Y117.023 E.02586
;WIDTH:0.372764
G1 X113.841 Y117.478 E.02591
G1 X113.181 Y117.78 E.0209
;WIDTH:0.36965
G1 X112.501 Y118.025 E.02062
;WIDTH:0.37296
G1 X111.623 Y118.247 E.0261
G1 X110.732 Y118.374 E.02593
;WIDTH:0.370514
G1 X110.007 Y118.406 E.02076
;WIDTH:0.369389
G1 X109.284 Y118.375 E.02063
;WIDTH:0.380668
G1 X108.785 Y118.31 E.01484
;WIDTH:0.38166
G1 X107.936 Y118.141 E.0256
G1 X107.276 Y117.95 E.02032
;WIDTH:0.378653
G1 X106.463 Y117.622 E.0257
;WIDTH:0.381288
G1 X105.698 Y117.214 E.02561
G1 X105.124 Y116.839 E.02026
;WIDTH:0.381164
G1 X104.666 Y116.496 E.0169
;WIDTH:0.369817
G1 X104.126 Y116.012 E.0207
;WIDTH:0.370261
G1 X103.63 Y115.485 E.02068
;WIDTH:0.380432
G1 X103.264 Y115.017 E.01751
;WIDTH:0.381119
G1 X102.784 Y114.298 E.02553
G1 X102.454 Y113.694 E.02032
;WIDTH:0.379048
G1 X102.11 Y112.888 E.02572
;WIDTH:0.380311
G1 X101.856 Y112.059 E.02554
;WIDTH:0.38129
G1 X101.717 Y111.387 E.02027
G1 X101.615 Y110.519 E.02582
;WIDTH:0.380922
G1 X101.609 Y109.654 E.02553
G1 X101.686 Y108.783 E.0258
;WIDTH:0.381343
G1 X101.818 Y108.108 E.02032
G1 X102.056 Y107.277 E.02554
;WIDTH:0.380993
G1 X102.378 Y106.466 E.02576
G1 X102.785 Y105.703 E.02552
;WIDTH:0.381236
G1 X103.27 Y104.977 E.02579
G1 X103.701 Y104.441 E.02032
;WIDTH:0.378928
G1 X104.309 Y103.82 E.0255
;WIDTH:0.381104
G1 X104.937 Y103.303 E.02402
G1 X105.265 Y103.074 F15000
G1 X103.7 Y102.115
;WIDTH:0.379478
G1 F1774
G1 X104.491 Y101.542 E.0287
G1 X105.326 Y101.054 E.02842
;WIDTH:0.378532
G1 X106.212 Y100.643 E.02862
;WIDTH:0.378274
G1 X107.126 Y100.324 E.02834
;WIDTH:0.377264
G1 X108.075 Y100.09 E.02853
;WIDTH:0.376834
G1 X108.643 Y99.998 E.01677
;WIDTH:0.381612
G1 X109.228 Y99.937 E.01739
G1 X110.206 Y99.911 E.02893
;WIDTH:0.380564
G1 X111.173 Y99.974 E.02857
;WIDTH:0.379111
G1 X111.75 Y100.059 E.01712
;WIDTH:0.377356
G1 X112.61 Y100.256 E.02576
;WIDTH:0.371007
G1 X113.574 Y100.567 E.02901
;WIDTH:0.37034
G1 X114.494 Y100.969 E.0287
G1 X115.377 Y101.465 E.02895
;WIDTH:0.369964
G1 X116.198 Y102.042 E.02865
G1 X116.953 Y102.692 E.02845
;WIDTH:0.381394
G1 X117.312 Y103.043 E.01484
G1 X117.949 Y103.782 E.02883
;WIDTH:0.381142
G1 X118.51 Y104.572 E.02861
G1 X118.994 Y105.419 E.02881
;WIDTH:0.380866
G1 X119.392 Y106.302 E.02858
;WIDTH:0.380637
G1 X119.705 Y107.227 E.02879
;WIDTH:0.380358
G1 X119.927 Y108.17 E.02854
;WIDTH:0.38
G1 X120.017 Y108.746 E.01716
;WIDTH:0.381258
G1 X120.071 Y109.323 E.01712
G1 X120.089 Y110.303 E.02895
;WIDTH:0.380893
G1 X120.047 Y110.917 E.01816
;WIDTH:0.370097
G1 X119.94 Y111.724 E.02325
;WIDTH:0.369795
G1 X119.726 Y112.68 E.02796
;WIDTH:0.381074
G1 X119.585 Y113.162 E.01483
;WIDTH:0.38133
G1 X119.236 Y114.074 E.02885
G1 X118.803 Y114.94 E.02861
;WIDTH:0.381111
G1 X118.285 Y115.768 E.02884
G1 X117.896 Y116.29 E.01922
;WIDTH:0.374672
G1 X117.252 Y117.014 E.02807
;WIDTH:0.381052
G1 X116.888 Y117.378 E.0152
;WIDTH:0.381503
G1 X116.144 Y118.01 E.02886
G1 X115.679 Y118.349 E.01701
;WIDTH:0.375217
G1 X114.82 Y118.863 E.02904
;WIDTH:0.370123
G1 X113.915 Y119.298 E.02868
G1 X112.994 Y119.634 E.02801
;WIDTH:0.380799
G1 X112.498 Y119.78 E.01525
;WIDTH:0.381642
G1 X111.542 Y119.976 E.02886
G1 X110.579 Y120.077 E.02864
;WIDTH:0.381202
G1 X109.603 Y120.087 E.02883
G1 X108.631 Y120 E.02882
;WIDTH:0.38055
G1 X107.678 Y119.825 E.02856
G1 X106.741 Y119.553 E.02876
;WIDTH:0.379909
G1 X105.84 Y119.198 E.02849
;WIDTH:0.379638
G1 X104.972 Y118.753 E.02868
;WIDTH:0.37904
G1 X104.155 Y118.232 E.02844
;WIDTH:0.380135
G1 X103.389 Y117.628 E.02872
;WIDTH:0.380542
G1 X102.687 Y116.959 E.02858
G1 X102.049 Y116.221 E.02876
;WIDTH:0.381143
G1 X101.49 Y115.43 E.0286
G1 X101.006 Y114.583 E.02881
;WIDTH:0.380867
G1 X100.608 Y113.7 E.02858
;WIDTH:0.380639
G1 X100.295 Y112.775 E.02879
;WIDTH:0.380358
G1 X100.073 Y111.832 E.02854
;WIDTH:0.380001
G1 X99.983 Y111.256 E.01716
;WIDTH:0.381259
G1 X99.929 Y110.678 E.01715
G1 X99.911 Y109.699 E.02892
;WIDTH:0.380893
G1 X99.953 Y109.085 E.01816
;WIDTH:0.370098
G1 X100.06 Y108.278 E.02325
;WIDTH:0.369795
G1 X100.274 Y107.322 E.02796
;WIDTH:0.381075
G1 X100.415 Y106.839 E.01486
;WIDTH:0.381334
G1 X100.764 Y105.928 E.02882
G1 X101.197 Y105.062 E.02861
;WIDTH:0.381007
G1 X101.715 Y104.235 E.0288
G1 X102.306 Y103.468 E.02858
;WIDTH:0.380387
G1 X102.973 Y102.754 E.02879
G1 X103.655 Y102.155 E.02674
G1 X103.976 Y101.916 F15000
G1 X104.478 Y101.951
;WIDTH:0.371884
G1 F1774
G1 X105.314 Y101.438 E.02817
;WIDTH:0.372034
G1 X106.188 Y101.013 E.02793
;WIDTH:0.373042
G1 X107.109 Y100.677 E.02826
;WIDTH:0.37338
G1 X108.051 Y100.434 E.02807
;WIDTH:0.376834
G1 X108.688 Y100.329 E.01882
;WIDTH:0.381612
G1 X109.801 Y100.243 E.03301
;WIDTH:0.370162
G1 X110.772 Y100.27 E.02775
;WIDTH:0.37327
G1 X111.55 Y100.361 E.02259
;WIDTH:0.380741
G1 X112.236 Y100.504 E.02067
G1 X113.146 Y100.766 E.02793
;WIDTH:0.381137
G1 X114.015 Y101.11 E.0276
G1 X114.855 Y101.539 E.02785
;WIDTH:0.381393
G1 X115.643 Y102.043 E.02764
G1 X116.385 Y102.625 E.02787
G1 X117.061 Y103.27 E.02761
G1 X117.403 Y103.64 E.01489
;WIDTH:0.36988
G1 X117.995 Y104.401 E.02752
G1 X118.513 Y105.224 E.02776
;WIDTH:0.369992
G1 X118.949 Y106.102 E.02799
;WIDTH:0.370307
G1 X119.293 Y107.012 E.02781
;WIDTH:0.370637
G1 X119.546 Y107.959 E.02805
;WIDTH:0.378266
G1 X119.685 Y108.789 E.02464
;WIDTH:0.381258
G1 X119.761 Y109.897 E.03281
;WIDTH:0.369982
G1 X119.723 Y110.869 E.02778
G1 X119.622 Y111.645 E.02235
;WIDTH:0.381368
G1 X119.516 Y112.147 E.01516
G1 X119.267 Y113.049 E.02765
;WIDTH:0.381074
G1 X119.104 Y113.523 E.0148
;WIDTH:0.369932
G1 X118.704 Y114.419 E.02801
G1 X118.222 Y115.263 E.02775
;WIDTH:0.376556
G1 X117.68 Y116.028 E.02731
;WIDTH:0.381452
G1 X117.318 Y116.452 E.01648
G1 X116.664 Y117.125 E.02774
;WIDTH:0.381052
G1 X116.289 Y117.466 E.01496
;WIDTH:0.374474
G1 X115.523 Y118.053 E.02794
;WIDTH:0.381499
G1 X115.014 Y118.37 E.01773
G1 X114.186 Y118.812 E.02775
;WIDTH:0.381665
G1 X113.316 Y119.175 E.02788
G1 X112.422 Y119.45 E.02766
;WIDTH:0.380799
G1 X111.932 Y119.569 E.01487
;WIDTH:0.370166
