; HEADER_BLOCK_START
; generated by OrcaSlicer 1.9.0 on 2024-01-26 at 07:48:59
; total layer number: 299
; filament_density: 1.27
; filament_diameter: 1.75
; max_z_height: 59.80
; HEADER_BLOCK_END

; THUMBNAIL_BLOCK_START

;
; THUMBNAIL_BLOCK_END

; THUMBNAIL_BLOCK_START

;
; THUMBNAIL_BLOCK_END

; external perimeters extrusion width = 0.40mm
; perimeters extrusion width = 0.45mm
; infill extrusion width = 0.45mm
; solid infill extrusion width = 0.40mm
; top infill extrusion width = 0.40mm
; first layer extrusion width = 0.50mm

; EXECUTABLE_BLOCK_START
EXCLUDE_OBJECT_DEFINE NAME=mk3-cart.stl_id_0_copy_0 CENTER=110,110 POLYGON=[[73.4,89.2],[73.4036,89.1245],[73.4134,89.0544],[73.4147,89.0472],[73.4333,88.9714],[73.4562,88.9055],[73.46,88.8961],[73.4942,88.8235],[73.5304,88.7622],[73.5361,88.7536],[73.5849,88.6885],[73.6343,88.6343],[73.6402,88.6285],[73.7014,88.5744],[73.7622,88.5304],[73.7674,88.527],[73.8371,88.4871],[73.9055,88.4562],[73.9092,88.4547],[73.9827,88.4301],[74.0544,88.4134],[74.0563,88.413],[74.129,88.4032],[95.7721,85.6],[124.228,85.6],[145.871,88.4032],[145.944,88.413],[145.946,88.4134],[146.017,88.4301],[146.091,88.4547],[146.094,88.4562],[146.163,88.4871],[146.233,88.527],[146.238,88.5304],[146.299,88.5744],[146.36,88.6285],[146.366,88.6343],[146.415,88.6885],[146.464,88.7536],[146.47,88.7622],[146.506,88.8235],[146.54,88.8961],[146.544,88.9055],[146.567,88.9714],[146.585,89.0472],[146.587,89.0544],[146.596,89.1245],[146.6,89.2],[146.6,130.8],[146.597,130.871],[146.587,130.944],[146.587,130.946],[146.57,131.017],[146.545,131.091],[146.544,131.094],[146.513,131.163],[146.473,131.233],[146.47,131.238],[146.426,131.299],[146.372,131.36],[146.366,131.366],[146.311,131.415],[146.246,131.464],[146.238,131.47],[146.177,131.506],[146.104,131.54],[146.094,131.544],[146.029,131.567],[145.953,131.585],[145.946,131.587],[145.875,131.596],[124.228,134.4],[95.7721,134.4],[74.129,131.597],[74.0563,131.587],[74.0544,131.587],[73.9827,131.57],[73.9092,131.545],[73.9055,131.544],[73.8371,131.513],[73.7674,131.473],[73.7622,131.47],[73.7014,131.426],[73.6402,131.372],[73.6343,131.366],[73.5849,131.311],[73.5361,131.246],[73.5304,131.238],[73.4942,131.177],[73.46,131.104],[73.4562,131.094],[73.4333,131.029],[73.4147,130.953],[73.4134,130.946],[73.4036,130.875],[73.4,130.8],[73.4,89.2]]
M73 P0 R249
;TYPE:Custom
M117 ; clear display for KAMP meshing
START_PRINT BED_TEMP=75 EXTRUDER_TEMP=240
G90
G21
M83 ; use relative distances for extrusion
; filament start gcode
SET_PRESSURE_ADVANCE ADVANCE=0.018; Override pressure advance value
M106 S0
;LAYER_CHANGE
;Z:0.2
;HEIGHT:0.2
;BEFORE_LAYER_CHANGE
;0.2
G92 E0

G10 ; retract
;_SET_FAN_SPEED_CHANGING_LAYER
SET_VELOCITY_LIMIT ACCEL=500 ACCEL_TO_DECEL=250
G1 Z.4 F9000
G1 X72.092 Y86.722
G1 Z.2
G11 ; unretract
;TYPE:Skirt
;WIDTH:0.5
G1 F3000
G1 X72.78 Y86.272 E.03118
G1 X73.378 Y86.051 E.02417
G1 X73.976 Y85.953 E.02297
G1 X97.783 Y84.863 E.90349
G1 X122.217 Y84.863 E.92632
M73 P0 R248
G1 X146.169 Y85.966 E.90901
G1 X147.22 Y86.272 E.0415
G1 X147.781 Y86.618 E.02499
G1 X148.255 Y87.064 E.02467
G1 X148.669 Y87.663 E.02762
G1 X148.952 Y88.389 E.02953
G1 X149.057 Y89.2 E.03101
G1 X149.057 Y130.8 E1.57711
G1 X148.949 Y131.622 E.03142
G1 X148.728 Y132.22 E.02417
G1 X148.382 Y132.781 E.02499
G1 X148.033 Y133.171 E.01985
G1 X147.235 Y133.72 E.03671
G1 X146.634 Y133.945 E.02434
G1 X146.028 Y134.046 E.0233
G1 X122.217 Y135.137 E.90365
G1 X97.895 Y135.14 E.92207
G1 X73.976 Y134.047 E.90774
G1 X73.378 Y133.949 E.02297
G1 X72.78 Y133.728 E.02418
G1 X72.219 Y133.382 E.02499
G1 X71.829 Y133.033 E.01984
G1 X71.355 Y132.378 E.03065
G1 X71.098 Y131.784 E.02456
G1 X70.943 Y130.8 E.03775
G1 X70.943 Y89.2 E1.57711
G1 X71.055 Y88.366 E.0319
G1 X71.28 Y87.765 E.02434
G1 X71.63 Y87.204 E.02505
G1 X72.064 Y86.75 E.02381
; printing object mk3-cart.stl id:0 copy 0
G10 ; retract
EXCLUDE_OBJECT_START NAME=mk3-cart.stl_id_0_copy_0
G1 Z.6 F9000
G1 X98.463 Y130.475 Z.6
G1 Z.2
G11 ; unretract
;TYPE:Inner wall
;WIDTH:0.499999
G1 F900
G1 X98.298 Y130.508 E.00637
G1 X98.191 Y130.469 E.00431
G1 X97.917 Y130.436 E.01048
G1 X74.564 Y130.436 E.88534
G1 X74.564 Y89.564 E1.5495
G1 X97.917 Y89.564 E.88534
G1 X98.298 Y89.492 E.01471
G1 X98.405 Y89.531 E.00431
G1 X98.679 Y89.564 E.01048
G1 X101.024 Y89.564 E.08889
G1 X101.271 Y89.537 E.00942
G1 X101.649 Y89.378 E.01556
G1 X101.979 Y89.049 E.01765
G1 X102.147 Y88.583 E.01881
G1 X105.005 Y88.634 E.10836
G1 X109.761 Y88.653 E.18033
G1 X115.203 Y88.629 E.20629
G1 X117.854 Y88.582 E.10053
G1 X118.07 Y89.118 E.02189
G1 X118.283 Y89.33 E.01138
G1 X118.602 Y89.501 E.01374
G1 X118.976 Y89.564 E.01438
G1 X121.341 Y89.564 E.08966
G1 X121.702 Y89.492 E.01396
G1 X121.809 Y89.531 E.00431
G1 X122.083 Y89.564 E.01048
G1 X145.436 Y89.564 E.88534
G1 X145.436 Y130.436 E1.5495
G1 X122.083 Y130.436 E.88534
G1 X121.702 Y130.508 E.01471
G1 X121.595 Y130.469 E.00431
G1 X121.321 Y130.436 E.01048
G1 X118.976 Y130.436 E.08889
G1 X118.809 Y130.448 E.00635
G1 X118.44 Y130.569 E.01473
G1 X118.07 Y130.882 E.01835
G1 X117.854 Y131.418 E.02189
G1 X115.202 Y131.371 E.10055
G1 X109.744 Y131.347 E.20692
G1 X105.001 Y131.367 E.17985
G1 X102.147 Y131.417 E.10819
G1 X101.979 Y130.951 E.01878
G1 X101.65 Y130.622 E.01765
G1 X101.393 Y130.497 E.01083
G1 X101.024 Y130.436 E.01419
G1 X98.659 Y130.436 E.08966
G1 X98.502 Y130.467 E.00607
G1 X98.291 Y131.077 F9000
G1 F900
G1 X98.221 Y130.964 E.00503
G1 X97.917 Y130.893 E.01184
G1 X74.283 Y130.893 E.89599
G1 X74.164 Y130.865 E.00465
G1 X74.107 Y130.734 E.00542
G1 X74.107 Y89.283 E1.57144
G1 X74.135 Y89.16 E.00479
G1 X74.265 Y89.107 E.00535
G1 X97.917 Y89.107 E.89666
G1 X98.221 Y89.036 E.01184
G1 X98.298 Y88.923 E.00519
G1 X98.375 Y89.036 E.00519
G1 X98.679 Y89.107 E.01184
G1 X101.024 Y89.107 E.08889
G1 X101.099 Y89.103 E.00286
G1 X101.399 Y88.995 E.01207
G1 X101.597 Y88.798 E.01059
G1 X101.705 Y88.497 E.01213
G1 X101.748 Y88.118 E.01445
G1 X105.014 Y88.177 E.12387
G1 X109.76 Y88.196 E.1799
G1 X115.198 Y88.172 E.20617
G1 X118.252 Y88.118 E.11582
G1 X118.295 Y88.497 E.01445
G1 X118.432 Y88.839 E.01399
G1 X118.56 Y88.966 E.00683
G1 X118.711 Y89.054 E.00662
G1 X118.976 Y89.107 E.01025
G1 X121.321 Y89.107 E.08889
G1 X121.625 Y89.036 E.01183
G1 X121.702 Y88.923 E.00519
G1 X121.779 Y89.036 E.00519
G1 X122.083 Y89.107 E.01183
G1 X145.718 Y89.107 E.89604
G1 X145.837 Y89.132 E.00459
G1 X145.893 Y89.277 E.00589
G1 X145.893 Y130.717 E1.57103
G1 X145.865 Y130.836 E.00465
G1 X145.734 Y130.893 E.00542
G1 X122.083 Y130.893 E.89663
G1 X121.779 Y130.964 E.01184
G1 X121.702 Y131.088 E.00555
G1 X121.625 Y130.964 E.00555
G1 X121.321 Y130.893 E.01184
G1 X118.951 Y130.893 E.08985
G1 X118.654 Y130.973 E.01164
G1 X118.432 Y131.161 E.01101
G1 X118.295 Y131.503 E.01399
G1 X118.252 Y131.882 E.01445
G1 X115.193 Y131.828 E.11601
G1 X109.746 Y131.804 E.2065
G1 X105.005 Y131.824 E.17973
G1 X101.748 Y131.882 E.12353
G1 X101.705 Y131.503 E.01445
G1 X101.597 Y131.202 E.01212
G1 X101.484 Y131.07 E.00661
G1 X101.334 Y130.967 E.00688
G1 X101.024 Y130.893 E.01208
G1 X98.679 Y130.893 E.08889
G1 X98.375 Y130.964 E.01184
G1 X98.312 Y131.066 E.00454
G1 X98.018 Y131.374 F9000
;TYPE:Outer wall
G1 F900
G1 X97.917 Y131.35 E.00395
G1 X74.283 Y131.35 E.89599
G1 X74.004 Y131.308 E.01071
G1 X73.803 Y131.172 E.00921
G1 X73.693 Y131.003 E.00765
G1 X73.65 Y130.777 E.0087
G1 X73.65 Y89.283 E1.57309
G1 X73.693 Y88.999 E.0109
G1 X73.816 Y88.813 E.00843
G1 X74.002 Y88.692 E.00842
G1 X74.222 Y88.65 E.00852
G1 X97.917 Y88.65 E.89829
G1 X98.018 Y88.626 E.00395
G1 X98.063 Y88.523 E.00426
;WIDTH:0.462031
G1 X98.108 Y88.42 E.0039
;WIDTH:0.425377
G1 X98.108 Y87.535 E.02807
G1 X98.491 Y87.545 E.01216
G1 X98.489 Y88.421 E.02778
;WIDTH:0.462031
G1 X98.533 Y88.524 E.00389
;WIDTH:0.499999
G1 X98.578 Y88.626 E.00425
G1 X98.679 Y88.65 E.00395
G1 X101.024 Y88.65 E.08889
G1 X101.149 Y88.613 E.00495
G1 X101.251 Y88.447 E.00739
G1 X101.297 Y87.653 E.03014
G1 X105.013 Y87.719 E.1409
G1 X109.756 Y87.739 E.17981
G1 X115.191 Y87.715 E.20607
G1 X118.703 Y87.653 E.13314
G1 X118.749 Y88.447 E.03014
G1 X118.837 Y88.603 E.00681
G1 X118.976 Y88.65 E.00555
G1 X121.321 Y88.65 E.08889
G1 X121.422 Y88.626 E.00395
G1 X121.467 Y88.524 E.00425
;WIDTH:0.462036
G1 X121.511 Y88.421 E.00389
;WIDTH:0.425346
G1 X121.509 Y87.545 E.02778
G1 X121.892 Y87.535 E.01216
G1 X121.892 Y88.42 E.02806
;WIDTH:0.462036
G1 X121.937 Y88.523 E.0039
;WIDTH:0.499999
G1 X121.982 Y88.626 E.00426
G1 X122.083 Y88.65 E.00394
G1 X145.718 Y88.65 E.89604
G1 X145.998 Y88.692 E.01074
G1 X146.182 Y88.812 E.00834
G1 X146.313 Y89.017 E.00921
G1 X146.35 Y89.277 E.00996
G1 X146.35 Y130.717 E1.57103
G1 X146.308 Y130.996 E.01071
G1 X146.172 Y131.198 E.00921
G1 X146.003 Y131.307 E.00765
G1 X145.777 Y131.35 E.0087
G1 X122.083 Y131.35 E.89828
G1 X121.982 Y131.374 E.00395
G1 X121.937 Y131.477 E.00426
;WIDTH:0.462031
G1 X121.892 Y131.58 E.0039
;WIDTH:0.425377
G1 X121.892 Y132.465 E.02807
G1 X121.509 Y132.455 E.01216
G1 X121.511 Y131.579 E.02778
;WIDTH:0.462031
G1 X121.467 Y131.476 E.00389
;WIDTH:0.499999
G1 X121.422 Y131.374 E.00425
G1 X121.321 Y131.35 E.00395
G1 X118.976 Y131.35 E.08889
G1 X118.837 Y131.397 E.00555
G1 X118.749 Y131.553 E.00681
G1 X118.703 Y132.347 E.03014
G1 X115.194 Y132.285 E.13304
G1 X109.75 Y132.261 E.20641
G1 X105.012 Y132.281 E.17962
G1 X101.297 Y132.347 E.14085
G1 X101.251 Y131.553 E.03014
G1 X101.177 Y131.409 E.00615
G1 X101.024 Y131.35 E.00622
G1 X98.679 Y131.35 E.08889
G1 X98.578 Y131.374 E.00395
G1 X98.533 Y131.476 E.00425
;WIDTH:0.462031
G1 X98.489 Y131.579 E.00389
;WIDTH:0.425377
G1 X98.491 Y132.455 E.02778
G1 X98.108 Y132.465 E.01216
G1 X98.108 Y131.58 E.02807
;WIDTH:0.462031
G1 X98.063 Y131.477 E.0039
;WIDTH:0.499999
G1 X98.034 Y131.41 E.00274
G10 ; retract
G1 Z.6 F9000
G1 X145.29 Y90.635 Z.6
G1 Z.2
G11 ; unretract
;TYPE:Bottom surface
;WIDTH:0.500277
G1 F1200
G1 X144.571 Y89.916 E.03857
G1 X143.924 Y89.916 E.02454
G1 X145.084 Y91.076 E.06223
G1 X145.084 Y91.723 E.02454
G1 X143.277 Y89.916 E.09693
G1 X142.63 Y89.916 E.02454
G1 X145.084 Y92.37 E.13163
G1 X145.084 Y93.017 E.02454
G1 X141.984 Y89.916 E.16633
G1 X141.337 Y89.916 E.02454
G1 X145.084 Y93.663 E.20103
G1 X145.084 Y94.31 E.02454
G1 X140.69 Y89.916 E.23573
G1 X140.043 Y89.916 E.02454
G1 X145.084 Y94.957 E.27042
G1 X145.084 Y95.604 E.02454
G1 X139.396 Y89.916 E.30512
G1 X138.749 Y89.916 E.02454
G1 X145.084 Y96.251 E.33982
G1 X145.084 Y96.897 E.02454
G1 X138.103 Y89.916 E.37452
G1 X137.456 Y89.916 E.02454
G1 X145.084 Y97.544 E.40922
G1 X145.084 Y98.191 E.02454
G1 X136.809 Y89.916 E.44392
G1 X136.162 Y89.916 E.02454
G1 X145.084 Y98.838 E.47862
G1 X145.084 Y99.485 E.02454
G1 X135.515 Y89.916 E.51332
G1 X134.869 Y89.916 E.02454
G1 X145.084 Y100.131 E.54802
G1 X145.084 Y100.778 E.02454
G1 X134.222 Y89.916 E.58272
M73 P0 R247
G1 X133.575 Y89.916 E.02454
G1 X145.084 Y101.425 E.61742
G1 X145.084 Y102.072 E.02454
G1 X132.928 Y89.916 E.65211
G1 X132.281 Y89.916 E.02454
G1 X145.084 Y102.719 E.68681
G1 X145.084 Y103.365 E.02454
G1 X131.635 Y89.916 E.72151
G1 X130.988 Y89.916 E.02454
G1 X145.084 Y104.012 E.75621
G1 X145.084 Y104.659 E.02454
G1 X130.341 Y89.916 E.79091
G1 X129.694 Y89.916 E.02454
G1 X145.084 Y105.306 E.82561
G1 X145.084 Y105.953 E.02454
G1 X129.047 Y89.916 E.86031
G1 X128.401 Y89.916 E.02454
G1 X145.084 Y106.599 E.89501
G1 X145.084 Y107.246 E.02454
G1 X127.754 Y89.916 E.92971
G1 X127.107 Y89.916 E.02454
G1 X145.084 Y107.893 E.96441
G1 X145.084 Y108.54 E.02454
G1 X126.46 Y89.916 E.9991
G1 X125.813 Y89.916 E.02454
G1 X145.084 Y109.187 E1.0338
G1 X145.084 Y109.833 E.02454
G1 X125.167 Y89.916 E1.0685
G1 X124.52 Y89.916 E.02454
G1 X145.084 Y110.48 E1.1032
G1 X145.084 Y111.127 E.02454
G1 X123.873 Y89.916 E1.1379
G1 X123.226 Y89.916 E.02454
G1 X145.084 Y111.774 E1.1726
G1 X145.084 Y112.421 E.02454
G1 X122.579 Y89.916 E1.2073
G1 X121.92 Y89.903 E.02503
G1 X145.084 Y113.067 E1.24269
G1 X145.084 Y113.714 E.02454
G1 X121.286 Y89.916 E1.27671
G1 X120.639 Y89.916 E.02454
G1 X145.084 Y114.361 E1.31142
G1 X145.084 Y115.008 E.02454
G1 X119.992 Y89.915 E1.34613
G1 X119.345 Y89.915 E.02454
G1 X145.084 Y115.655 E1.38084
G1 X145.084 Y116.301 E.02454
G1 X118.66 Y89.878 E1.41755
G1 X118.276 Y89.743 E.01544
G1 X118.066 Y89.608 E.00946
G1 X117.784 Y89.327 E.01512
G1 X117.627 Y88.938 E.01588
G1 X117.084 Y88.948 E.02062
G1 X145.084 Y116.948 E1.50212
G1 X145.084 Y117.595 E.02454
G1 X116.448 Y88.959 E1.53622
G1 X115.813 Y88.971 E.02411
G1 X145.084 Y118.242 E1.57032
G1 X145.084 Y118.889 E.02454
G1 X115.177 Y88.981 E1.60443
G1 X114.533 Y88.984 E.02443
G1 X145.084 Y119.535 E1.63898
G1 X145.084 Y120.182 E.02454
G1 X113.889 Y88.987 E1.67353
G1 X113.245 Y88.99 E.02443
G1 X145.084 Y120.829 E1.70808
G1 X145.084 Y121.476 E.02454
G1 X112.601 Y88.993 E1.74263
G1 X111.957 Y88.995 E.02443
G1 X145.084 Y122.123 E1.77718
G1 X145.084 Y122.769 E.02454
G1 X111.313 Y88.998 E1.81172
G1 X110.669 Y89.001 E.02443
G1 X145.084 Y123.416 E1.84627
G1 X145.084 Y124.063 E.02454
G1 X110.025 Y89.004 E1.88082
M73 P0 R246
G1 X109.378 Y89.003 E.02455
G1 X145.084 Y124.71 E1.91554
G1 X145.084 Y125.357 E.02454
G1 X108.728 Y89.001 E1.95039
G1 X108.079 Y88.998 E.02464
G1 X145.084 Y126.003 E1.98523
G1 X145.084 Y126.65 E.02454
G1 X107.429 Y88.995 E2.02007
G1 X106.78 Y88.993 E.02464
G1 X145.084 Y127.297 E2.05491
G1 X145.084 Y127.944 E.02454
G1 X106.13 Y88.99 E2.08975
G1 X105.481 Y88.987 E.02464
G1 X145.084 Y128.591 E2.1246
G1 X145.084 Y129.237 E.02454
G1 X104.829 Y88.982 E2.15957
G1 X104.17 Y88.971 E.02499
G1 X145.084 Y129.884 E2.19489
G1 X145.084 Y130.084 E.00758
G1 X144.637 Y130.084 E.01696
G1 X103.512 Y88.959 E2.20624
M73 P1 R246
G1 X102.853 Y88.947 E.02499
G1 X143.99 Y130.084 E2.20687
G1 X143.343 Y130.084 E.02454
G1 X102.336 Y89.077 E2.19991
G1 X102.278 Y89.238 E.00649
G1 X102.081 Y89.468 E.01151
G1 X142.696 Y130.084 E2.17892
G1 X142.05 Y130.084 E.02454
G1 X101.709 Y89.743 E2.16419
G1 X101.586 Y89.807 E.00526
G1 X101.347 Y89.881 E.00949
G1 X101.217 Y89.898 E.00497
G1 X141.403 Y130.084 E2.15586
G1 X140.756 Y130.084 E.02454
G1 X100.587 Y89.915 E2.15493
G1 X99.941 Y89.915 E.02453
G1 X140.109 Y130.084 E2.15492
G1 X139.462 Y130.084 E.02454
G1 X99.294 Y89.916 E2.15492
G1 X98.648 Y89.916 E.02453
G1 X138.816 Y130.084 E2.15491
G1 X138.169 Y130.084 E.02454
G1 X97.995 Y89.91 E2.15521
G1 X97.354 Y89.916 E.02431
G1 X137.522 Y130.084 E2.15489
M73 P1 R245
G1 X136.875 Y130.084 E.02454
G1 X96.707 Y89.916 E2.15489
G1 X96.061 Y89.916 E.02454
G1 X136.228 Y130.084 E2.15489
G1 X135.582 Y130.084 E.02454
G1 X95.414 Y89.916 E2.15489
G1 X94.767 Y89.916 E.02454
G1 X134.935 Y130.084 E2.15489
G1 X134.288 Y130.084 E.02454
G1 X94.12 Y89.916 E2.15489
G1 X93.473 Y89.916 E.02454
G1 X133.641 Y130.084 E2.15489
G1 X132.994 Y130.084 E.02454
G1 X92.827 Y89.916 E2.15489
G1 X92.18 Y89.916 E.02454
G1 X132.348 Y130.084 E2.15489
G1 X131.701 Y130.084 E.02454
G1 X91.533 Y89.916 E2.15489
G1 X90.886 Y89.916 E.02454
G1 X131.054 Y130.084 E2.15489
G1 X130.407 Y130.084 E.02454
G1 X90.239 Y89.916 E2.15489
G1 X89.593 Y89.916 E.02454
G1 X129.76 Y130.084 E2.15489
G1 X129.114 Y130.084 E.02454
G1 X88.946 Y89.916 E2.15489
G1 X88.299 Y89.916 E.02454
G1 X128.467 Y130.084 E2.15489
G1 X127.82 Y130.084 E.02454
G1 X87.652 Y89.916 E2.15489
G1 X87.005 Y89.916 E.02454
G1 X127.173 Y130.084 E2.15489
G1 X126.526 Y130.084 E.02454
G1 X86.359 Y89.916 E2.15489
G1 X85.712 Y89.916 E.02454
G1 X125.88 Y130.084 E2.15489
G1 X125.233 Y130.084 E.02454
G1 X85.065 Y89.916 E2.15489
G1 X84.418 Y89.916 E.02454
G1 X124.586 Y130.084 E2.15489
G1 X123.939 Y130.084 E.02454
G1 X83.771 Y89.916 E2.15489
M73 P1 R244
G1 X83.125 Y89.916 E.02454
G1 X123.292 Y130.084 E2.15489
G1 X122.646 Y130.084 E.02454
G1 X82.478 Y89.916 E2.15489
G1 X81.831 Y89.916 E.02454
G1 X122.005 Y130.09 E2.15521
G1 X121.839 Y130.103 E.0063
G1 X121.702 Y130.139 E.00539
G1 X121.565 Y130.104 E.00536
G1 X121.352 Y130.084 E.0081
G1 X81.184 Y89.916 E2.15491
G1 X80.537 Y89.916 E.02454
G1 X120.706 Y130.084 E2.15492
G1 X120.059 Y130.085 E.02453
G1 X79.891 Y89.916 E2.15492
G1 X79.244 Y89.916 E.02454
G1 X119.412 Y130.085 E2.15493
G1 X118.781 Y130.1 E.02396
G1 X78.597 Y89.916 E2.15575
