; HEADER_BLOCK_START
; generated by OrcaSlicer 1.9.0 on 2024-02-14 at 13:43:57
; total layer number: 53
; filament_density: 1.24
; filament_diameter: 1.75
; max_z_height: 10.60
; HEADER_BLOCK_END

; THUMBNAIL_BLOCK_START

;
; THUMBNAIL_BLOCK_END

; THUMBNAIL_BLOCK_START

;
; THUMBNAIL_BLOCK_END

; external perimeters extrusion width = 0.40mm
; perimeters extrusion width = 0.45mm
; infill extrusion width = 0.45mm
; solid infill extrusion width = 0.40mm
; top infill extrusion width = 0.40mm
; first layer extrusion width = 0.50mm

; external perimeters extrusion width = 0.40mm
; perimeters extrusion width = 0.45mm
; infill extrusion width = 0.45mm
; solid infill extrusion width = 0.40mm
; top infill extrusion width = 0.40mm
; first layer extrusion width = 0.50mm

; EXECUTABLE_BLOCK_START
M73 P0 R100
;TYPE:Custom
M117 ; clear display for KAMP meshing
START_PRINT BED_TEMP=60 EXTRUDER_TEMP=220
G90
G21
M83 ; use relative distances for extrusion
; filament start gcode
M106 S0
;LAYER_CHANGE
;Z:0.2
;HEIGHT:0.2
;BEFORE_LAYER_CHANGE
;0.2
G92 E0

G10 ; retract
;_SET_FAN_SPEED_CHANGING_LAYER
SET_VELOCITY_LIMIT ACCEL=500 ACCEL_TO_DECEL=250
G1 Z.4 F9000
G1 X77.325 Y89.506
G1 Z.2
G11 ; unretract
;TYPE:Skirt
;WIDTH:0.5
G1 F3000
G1 X88.613 Y79.841 E.5535
G1 X90.231 Y78.602 E.0759
G1 X91.257 Y77.943 E.04543
G1 X93.176 Y76.928 E.08087
G1 X95.068 Y76.17 E.0759
G1 X97.288 Y75.55 E.08585
G1 X99.252 Y75.225 E.07413
G1 X100.514 Y75.119 E.0472
G1 X125.1 Y75.094 E.91571
G1 X127.254 Y75.217 E.08035
G1 X128.322 Y75.366 E.04019
G1 X130.3 Y75.801 E.07541
G1 X132.47 Y76.531 E.08529
G1 X134.426 Y77.442 E.08035
G1 X151.938 Y87.947 E.76064
G1 X152.952 Y88.767 E.04855
G1 X153.701 Y89.569 E.04086
G1 X154.45 Y90.635 E.04856
G1 X154.95 Y91.612 E.04087
G1 X155.283 Y92.513 E.03578
G1 X155.514 Y93.446 E.03578
G1 X155.64 Y94.398 E.03578
G1 X155.659 Y95.358 E.03578
G1 X153.044 Y137.537 E1.57401
G1 X152.828 Y138.877 E.05058
G1 X152.389 Y140.178 E.05115
G1 X151.909 Y141.115 E.03921
G1 X151.11 Y142.233 E.05115
G1 X150.241 Y143.112 E.04607
G1 X149.133 Y143.924 E.05115
G1 X132.043 Y154.157 E.74195
G1 X130.003 Y155.099 E.08368
G1 X128.125 Y155.731 E.0738
G1 X127.099 Y155.989 E.03938
G1 X125.014 Y156.338 E.07874
G1 X122.904 Y156.459 E.07874
G1 X98.34 Y156.434 E.9149
G1 X97.146 Y156.336 E.04462
G1 X95.179 Y156.012 E.07428
G1 X94.016 Y155.721 E.04462
G1 X92.003 Y155.032 E.07925
G1 X91.028 Y154.606 E.03964
G1 X89.268 Y153.668 E.07428
G1 X87.4 Y152.393 E.08423
G1 X75.653 Y142.38 E.57493
G1 X74.852 Y141.577 E.04225
G1 X74.291 Y140.824 E.03497
G1 X73.779 Y139.889 E.03971
G1 X73.373 Y138.756 E.04479
G1 X73.192 Y137.835 E.03497
G1 X73.134 Y136.665 E.04362
G1 X74.931 Y94.801 E1.56073
G1 X75.085 Y93.509 E.04845
G1 X75.551 Y92.033 E.05767
G1 X76.229 Y90.794 E.0526
G1 X77.299 Y89.537 E.06149
; printing object Samsung Smarttag 2 bicycle case.stl id:4467674595662831288 copy 0
G10 ; retract
G1 Z.6 F9000
G1 X149.356 Y137.048 Z.6
G1 Z.2
G11 ; unretract
;TYPE:Inner wall
;WIDTH:0.673171
G1 F900
G1 X149.294 Y137.61 E.02905
;WIDTH:0.668729
G1 X149.143 Y138.287 E.03537
;WIDTH:0.673166
G1 X148.962 Y138.754 E.02572
G1 X148.684 Y139.26 E.02968
;WIDTH:0.669005
G1 X148.308 Y139.8 E.03358
;WIDTH:0.67307
G1 X147.951 Y140.182 E.02681
G1 X147.499 Y140.555 E.0301
;WIDTH:0.687312
G1 X146.718 Y141.042 E.04834
G1 X146.634 Y141.12 E.00601
;WIDTH:0.640484
G1 X146.55 Y141.198 E.00558
;WIDTH:0.593656
G1 X146.466 Y141.276 E.00514
;WIDTH:0.546828
G1 X146.382 Y141.354 E.0047
;WIDTH:0.499999
G1 X131.054 Y150.557 E.66589
G1 X130.29 Y150.988 E.03268
G1 X129.518 Y151.37 E.03209
G1 X128.895 Y151.638 E.02524
G1 X127.912 Y152.009 E.03913
G1 X127.094 Y152.259 E.03189
G1 X126.258 Y152.467 E.03209
G1 X125.411 Y152.629 E.03209
G1 X124.558 Y152.745 E.03209
G1 X123.882 Y152.8 E.02524
G1 X122.816 Y152.839 E.03972
G1 X99.353 Y152.839 E.87391
G1 X98.47 Y152.815 E.03289
G1 X97.606 Y152.744 E.0323
G1 X96.747 Y152.626 E.0323
G1 X96.077 Y152.497 E.02541
G1 X95.049 Y152.25 E.03939
G1 X94.225 Y151.996 E.0321
G1 X93.412 Y151.696 E.0323
G1 X92.616 Y151.351 E.0323
G1 X92.005 Y151.047 E.02541
G1 X91.081 Y150.533 E.03939
G1 X90.356 Y150.067 E.0321
G1 X89.654 Y149.558 E.0323
G1 X88.967 Y149.003 E.03289
G1 X79.02 Y140.494 E.48755
G1 X79.874 Y140.684 E.03261
G1 X80.735 Y140.691 E.03207
G1 X81.546 Y140.518 E.03088
G1 X82.139 Y140.262 E.02407
G1 X82.705 Y139.887 E.02526
G1 X83.296 Y139.306 E.03089
G1 X83.673 Y138.742 E.02525
G1 X84.001 Y137.946 E.03207
G1 X84.142 Y137.129 E.03088
G1 X84.126 Y136.483 E.02407
G1 X83.989 Y135.819 E.02525
G1 X83.652 Y135.027 E.03207
G1 X83.17 Y134.353 E.03088
G1 X82.698 Y133.911 E.02407
G1 X82.159 Y133.555 E.02408
G1 X81.535 Y133.287 E.02526
G1 X80.725 Y133.111 E.03089
G1 X80.047 Y133.105 E.02524
G1 X79.45 Y133.199 E.0225
G1 X78.974 Y133.351 E.01864
G1 X88.967 Y124.803 E.4898
G1 X89.654 Y124.248 E.03289
G1 X90.356 Y123.74 E.0323
G1 X91.086 Y123.27 E.0323
G1 X91.679 Y122.933 E.02541
G1 X92.621 Y122.452 E.03939
G1 X93.412 Y122.11 E.0321
G1 X94.225 Y121.81 E.0323
G1 X94.877 Y121.609 E.02541
G1 X95.901 Y121.343 E.03939
G1 X96.747 Y121.18 E.0321
G1 X97.606 Y121.062 E.0323
G1 X98.47 Y120.991 E.0323
G1 X99.353 Y120.967 E.03289
G1 X122.822 Y120.967 E.87411
G1 X123.515 Y120.986 E.02583
G1 X124.563 Y121.061 E.03913
G1 X125.411 Y121.177 E.03189
G1 X126.258 Y121.339 E.03209
G1 X127.094 Y121.547 E.03209
G1 X127.918 Y121.799 E.03209
G1 X128.726 Y122.096 E.03209
G1 X129.518 Y122.436 E.03209
G1 X130.29 Y122.818 E.03209
G1 X131.054 Y123.249 E.03268
G1 X145.971 Y132.206 E.64805
;WIDTH:0.540138
G1 X146.091 Y132.301 E.00621
;WIDTH:0.580276
G1 X146.211 Y132.397 E.00671
;WIDTH:0.620415
G1 X146.331 Y132.492 E.00721
;WIDTH:0.660553
G1 X146.451 Y132.588 E.00772
;WIDTH:0.700691
G1 X146.571 Y132.683 E.00822
G1 X147.297 Y133.112 E.04521
;WIDTH:0.665959
G1 X147.748 Y133.455 E.02876
;WIDTH:0.67605
G1 X148.166 Y133.847 E.02959
G1 X148.596 Y134.414 E.03671
;WIDTH:0.668262
G1 X148.861 Y134.841 E.0256
;WIDTH:0.676123
G1 X149.07 Y135.319 E.02693
G1 X149.265 Y136.043 E.03868
;WIDTH:0.668717
G1 X149.347 Y136.565 E.02691
;WIDTH:0.673171
G1 X149.356 Y137.008 E.02278
G1 X149.896 Y137.064 F9000
;WIDTH:0.499999
G1 F900
G1 X149.863 Y137.532 E.0175
G1 X149.664 Y138.442 E.03468
G1 X149.485 Y138.915 E.01887
G1 X149.247 Y139.394 E.01992
G1 X148.717 Y140.16 E.03468
G1 X148.34 Y140.563 E.02056
G1 X147.912 Y140.93 E.02098
G1 X147.429 Y141.258 E.02175
G1 X131.284 Y150.952 E.70141
G1 X130.504 Y151.392 E.03337
G1 X129.71 Y151.786 E.03301
G1 X129.066 Y152.062 E.02608
G1 X128.06 Y152.441 E.04005
G1 X127.216 Y152.7 E.03289
G1 X126.356 Y152.914 E.03301
G1 X125.485 Y153.08 E.03301
G1 X124.607 Y153.2 E.03301
G1 X123.909 Y153.257 E.02609
G1 X122.825 Y153.296 E.04041
G1 X99.347 Y153.296 E.87445
M73 P0 R99
G1 X98.446 Y153.271 E.03359
G1 X97.556 Y153.199 E.03323
G1 X96.673 Y153.078 E.03323
G1 X95.98 Y152.944 E.02626
G1 X94.928 Y152.691 E.04031
G1 X94.079 Y152.429 E.03311
G1 X93.242 Y152.12 E.03323
G1 X92.423 Y151.766 E.03323
G1 X91.792 Y151.451 E.02626
G1 X90.846 Y150.925 E.04032
G1 X90.099 Y150.444 E.03311
G1 X89.376 Y149.922 E.03323
G1 X88.675 Y149.354 E.03359
G1 X78.722 Y140.842 E.48778
;WIDTH:0.54899
G1 X78.57 Y140.679 E.00919
;WIDTH:0.597981
G1 X78.417 Y140.516 E.01008
;WIDTH:0.646972
G1 X78.265 Y140.354 E.01097
G1 X77.634 Y139.824 E.04054
;WIDTH:0.616223
G1 X77.149 Y139.29 E.03373
G1 X76.812 Y138.756 E.02948
;WIDTH:0.621561
G1 X76.608 Y138.293 E.02385
G1 X76.447 Y137.72 E.0281
;WIDTH:0.613579
G1 X76.367 Y137.2 E.02443
;WIDTH:0.615451
G1 X76.366 Y136.613 E.02741
;WIDTH:0.620563
G1 X76.437 Y136.117 E.02356
G1 X76.597 Y135.532 E.02858
;WIDTH:0.621285
G1 X76.803 Y135.076 E.02359
G1 X77.132 Y134.543 E.02951
;WIDTH:0.616969
G1 X77.48 Y134.131 E.02519
;WIDTH:0.620921
G1 X78.1 Y133.55 E.04004
;WIDTH:0.580614
G1 X78.25 Y133.395 E.00944
;WIDTH:0.540307
G1 X78.4 Y133.24 E.00874
;WIDTH:0.499999
G1 X88.675 Y124.452 E.5036
G1 X89.376 Y123.884 E.03359
G1 X90.099 Y123.362 E.03323
G1 X90.849 Y122.879 E.03323
G1 X91.462 Y122.531 E.02626
G1 X92.426 Y122.039 E.04031
G1 X93.242 Y121.686 E.03311
G1 X94.079 Y121.377 E.03323
G1 X94.752 Y121.169 E.02626
G1 X95.8 Y120.897 E.04031
G1 X96.673 Y120.728 E.03311
G1 X97.556 Y120.607 E.03323
G1 X98.446 Y120.535 E.03323
G1 X99.347 Y120.51 E.03359
G1 X122.828 Y120.51 E.87457
G1 X123.537 Y120.529 E.02644
G1 X124.61 Y120.607 E.04005
G1 X125.485 Y120.726 E.03289
G1 X126.356 Y120.892 E.03301
G1 X127.216 Y121.106 E.03301
G1 X128.063 Y121.366 E.03301
G1 X128.895 Y121.671 E.03301
G1 X129.71 Y122.021 E.03301
G1 X130.504 Y122.414 E.03301
G1 X131.284 Y122.854 E.03337
G1 X147.429 Y132.548 E.70141
G1 X147.904 Y132.871 E.02139
G1 X148.502 Y133.412 E.03004
G1 X148.854 Y133.818 E.02
G1 X149.352 Y134.605 E.03468
G1 X149.556 Y135.065 E.01876
G1 X149.712 Y135.542 E.01868
G1 X149.888 Y136.549 E.03809
G1 X149.901 Y136.999 E.01674
G1 X149.899 Y137.024 E.00093
G1 X150.357 Y137.093 F9000
;TYPE:Outer wall
G1 F900
G1 X150.316 Y137.6 E.01895
G1 X150.103 Y138.572 E.03708
G1 X149.887 Y139.144 E.02276
G1 X149.64 Y139.629 E.02027
G1 X149.074 Y140.448 E.03708
G1 X148.657 Y140.894 E.02276
G1 X148.19 Y141.294 E.02288
G1 X147.675 Y141.643 E.02317
G1 X131.514 Y151.347 E.70212
G1 X130.718 Y151.796 E.03406
G1 X129.902 Y152.201 E.03393
G1 X129.237 Y152.486 E.02693
G1 X128.208 Y152.874 E.04098
G1 X127.338 Y153.141 E.03389
G1 X126.454 Y153.36 E.03393
G1 X125.559 Y153.532 E.03393
G1 X124.656 Y153.654 E.03393
G1 X123.936 Y153.713 E.02693
G1 X122.833 Y153.753 E.0411
G1 X99.341 Y153.753 E.87499
G1 X98.421 Y153.728 E.03428
G1 X97.507 Y153.653 E.03416
G1 X96.598 Y153.529 E.03415
G1 X95.884 Y153.391 E.02711
G1 X94.807 Y153.132 E.04124
G1 X93.932 Y152.862 E.03411
G1 X93.072 Y152.545 E.03415
G1 X92.23 Y152.181 E.03416
G1 X91.579 Y151.856 E.0271
G1 X90.611 Y151.317 E.04124
G1 X89.841 Y150.822 E.03411
G1 X89.098 Y150.285 E.03415
G1 X88.382 Y149.706 E.03428
G1 X77.461 Y140.364 E.53528
G1 X77.083 Y140.007 E.01937
G1 X76.731 Y139.594 E.02023
G1 X76.358 Y139 E.0261
G1 X76.149 Y138.54 E.01885
G1 X75.979 Y138.022 E.02029
G1 X75.854 Y137.278 E.0281
G1 X75.851 Y136.58 E.02599
G1 X75.923 Y136.033 E.02056
G1 X76.112 Y135.359 E.02606
G1 X76.332 Y134.853 E.02056
G1 X76.699 Y134.257 E.02606
G1 X77.051 Y133.829 E.02065
G1 X77.418 Y133.479 E.01888
G1 X88.382 Y124.1 E.5374
G1 X89.098 Y123.521 E.03428
G1 X89.841 Y122.984 E.03415
G1 X90.612 Y122.488 E.03416
G1 X91.245 Y122.128 E.0271
G1 X92.231 Y121.625 E.04124
G1 X93.072 Y121.261 E.03411
G1 X93.932 Y120.944 E.03415
G1 X94.627 Y120.729 E.0271
G1 X95.699 Y120.451 E.04124
G1 X96.598 Y120.277 E.03411
G1 X97.507 Y120.153 E.03415
G1 X98.421 Y120.078 E.03416
G1 X99.341 Y120.053 E.03428
G1 X122.834 Y120.053 E.87503
G1 X123.56 Y120.073 E.02705
G1 X124.657 Y120.152 E.04097
G1 X125.559 Y120.274 E.03389
G1 X126.454 Y120.446 E.03393
G1 X127.338 Y120.665 E.03393
G1 X128.209 Y120.932 E.03393
G1 X129.064 Y121.246 E.03393
G1 X129.902 Y121.605 E.03393
G1 X130.718 Y122.01 E.03393
G1 X131.514 Y122.459 E.03406
G1 X147.675 Y132.163 E.70212
G1 X148.188 Y132.511 E.02305
G1 X148.876 Y133.134 E.03457
G1 X149.224 Y133.548 E.02015
G1 X149.756 Y134.389 E.03708
G1 X149.974 Y134.88 E.02001
G1 X150.148 Y135.404 E.02057
G1 X150.247 Y135.878 E.01802
G1 X150.345 Y136.537 E.02482
G1 X150.359 Y137.053 E.01922
G10 ; retract
G1 Z.6 F9000
G1 X141.152 Y133.163 Z.6
G1 Z.2
G11 ; unretract
;TYPE:Inner wall
G1 F900
G1 X141.294 Y133.131 E.00541
G1 X141.837 Y133.089 E.02026
G1 X144.838 Y133.089 E.1118
G1 X145.381 Y133.131 E.02027
;WIDTH:0.537741
G1 X145.594 Y133.16 E.00866
;WIDTH:0.575483
G1 X145.806 Y133.19 E.00932
;WIDTH:0.613224
G1 X146.019 Y133.22 E.00998
;WIDTH:0.661241
G1 X146.093 Y133.219 E.00373
;WIDTH:0.709257
G1 X146.167 Y133.217 E.00402
G1 X146.792 Y133.534 E.03805
;WIDTH:0.673139
G1 X147.353 Y133.933 E.03536
;WIDTH:0.670616
G1 X147.928 Y134.534 E.04252
G1 X148.3 Y135.121 E.03555
;WIDTH:0.669961
G1 X148.601 Y135.903 E.04284
G1 X148.719 Y136.582 E.03519
;WIDTH:0.668036
G1 X148.718 Y137.236 E.03334
;WIDTH:0.667568
G1 X148.555 Y138.059 E.04268
G1 X148.295 Y138.696 E.03503
;WIDTH:0.668077
G1 X147.83 Y139.393 E.04271
G1 X147.346 Y139.883 E.03506
;WIDTH:0.677142
G1 X146.796 Y140.262 E.03452
;WIDTH:0.687312
G1 X146.437 Y140.465 E.02165
G1 X146.27 Y140.498 E.00894
;WIDTH:0.640484
G1 X146.103 Y140.531 E.00829
;WIDTH:0.593656
G1 X145.936 Y140.564 E.00764
;WIDTH:0.546828
G1 X145.769 Y140.597 E.00699
;WIDTH:0.499999
G1 X145.179 Y140.697 E.02229
G1 X144.989 Y140.713 E.0071
G1 X141.838 Y140.717 E.11734
G1 X141.315 Y140.678 E.01954
G1 X140.69 Y140.538 E.02385
G1 X140.098 Y140.294 E.02386
G1 X139.53 Y139.934 E.02503
G1 X139.084 Y139.535 E.0223
G1 X138.662 Y139.011 E.02503
G1 X138.354 Y138.45 E.02386
G1 X138.144 Y137.844 E.02387
G1 X138.039 Y137.213 E.02386
G1 X138.037 Y136.684 E.01968
G1 X138.149 Y135.941 E.028
G1 X138.354 Y135.356 E.02308
G1 X138.613 Y134.865 E.02068
G1 X139.055 Y134.301 E.02667
G1 X139.554 Y133.851 E.02503
G1 X140.098 Y133.512 E.02386
G1 X140.69 Y133.268 E.02385
G1 X141.113 Y133.172 E.01618
G1 X141.253 Y133.604 F9000
G1 F900
G1 X141.333 Y133.586 E.00303
G1 X141.837 Y133.546 E.01883
G1 X144.838 Y133.546 E.1118
G1 X145.343 Y133.586 E.01884
G1 X145.891 Y133.717 E.021
G1 X146.556 Y134.023 E.02729
G1 X147.03 Y134.363 E.02169
G1 X147.523 Y134.895 E.02704
G1 X147.835 Y135.395 E.02194
G1 X148.089 Y136.082 E.02729
G1 X148.184 Y136.657 E.0217
G1 X148.178 Y137.221 E.02099
G1 X148.027 Y137.938 E.02729
G1 X147.802 Y138.475 E.02169
G1 X147.388 Y139.08 E.02729
G1 X146.974 Y139.49 E.02169
G1 X146.506 Y139.8 E.02094
G1 X146.241 Y139.951 E.01135
G1 X145.692 Y140.146 E.02169
G1 X144.988 Y140.256 E.02654
G1 X141.838 Y140.26 E.11734
G1 X141.404 Y140.23 E.01619
G1 X140.853 Y140.111 E.021
G1 X140.33 Y139.901 E.02101
G1 X139.835 Y139.593 E.0217
G1 X139.388 Y139.194 E.0223
G1 X139.028 Y138.737 E.0217
G1 X138.76 Y138.24 E.02101
G1 X138.58 Y137.706 E.02101
G1 X138.491 Y137.149 E.02101
G1 X138.497 Y136.585 E.02101
G1 X138.598 Y136.03 E.021
G1 X138.76 Y135.566 E.01832
G1 X138.998 Y135.112 E.01909
G1 X139.413 Y134.586 E.02493
G1 X139.849 Y134.2 E.0217
G1 X140.33 Y133.906 E.02101
G1 X140.853 Y133.695 E.021
G1 X141.214 Y133.613 E.0138
G1 X141.354 Y134.045 F9000
;TYPE:Outer wall
G1 F900
G1 X141.371 Y134.041 E.00064
G1 X141.837 Y134.003 E.0174
G1 X144.838 Y134.003 E.1118
G1 X145.342 Y134.048 E.01883
G1 X145.819 Y134.175 E.01838
G1 X146.358 Y134.435 E.0223
G1 X146.771 Y134.741 E.01914
G1 X147.182 Y135.2 E.02295
G1 X147.445 Y135.635 E.01891
G1 X147.658 Y136.233 E.02367
G1 X147.733 Y136.747 E.01933
G1 X147.715 Y137.251 E.01878
G1 X147.582 Y137.837 E.02238
G1 X147.379 Y138.299 E.01878
G1 X147.016 Y138.816 E.02355
G1 X146.652 Y139.165 E.01879
G1 X146.118 Y139.504 E.02355
G1 X145.616 Y139.695 E.02003
G1 X144.988 Y139.799 E.02371
G1 X141.837 Y139.803 E.11734
G1 X141.493 Y139.782 E.01283
G1 X141.016 Y139.684 E.01814
G1 X140.562 Y139.507 E.01815
G1 X140.139 Y139.252 E.01838
G1 X139.693 Y138.853 E.0223
G1 X139.372 Y138.429 E.0198
G1 X139.151 Y137.995 E.01815
G1 X139.007 Y137.529 E.01815
G1 X138.947 Y136.852 E.02535
G1 X138.959 Y136.559 E.01089
G1 X139.055 Y136.088 E.01791
G1 X139.166 Y135.776 E.01237
G1 X139.397 Y135.339 E.01837
G1 X139.77 Y134.871 E.0223
G1 X140.175 Y134.527 E.0198
G1 X140.597 Y134.283 E.01815
G1 X141.047 Y134.113 E.01791
G1 X141.315 Y134.054 E.01024
G10 ; retract
G1 Z.6 F9000
G1 X82.06 Y134.033 Z.6
G1 Z.2
G11 ; unretract
;TYPE:Inner wall
G1 F900
G1 X82.437 Y134.286 E.0169
G1 X82.849 Y134.678 E.02118
G1 X83.274 Y135.283 E.02752
G1 X83.563 Y135.984 E.02823
G1 X83.675 Y136.561 E.0219
G1 X83.685 Y137.129 E.02119
G1 X83.527 Y137.95 E.03114
G1 X83.256 Y138.554 E.02464
G1 X82.925 Y139.039 E.02189
G1 X82.393 Y139.553 E.02753
G1 X81.9 Y139.872 E.0219
G1 X81.376 Y140.094 E.02118
G1 X80.652 Y140.242 E.02752
G1 X79.894 Y140.227 E.02823
G1 X79.32 Y140.1 E.0219
;WIDTH:0.533834
G1 X79.138 Y140.043 E.00763
;WIDTH:0.567668
G1 X78.956 Y139.986 E.00815
;WIDTH:0.601502
G1 X78.774 Y139.929 E.00868
;WIDTH:0.646972
G1 X78.634 Y139.876 E.00736
G1 X78.147 Y139.519 E.02975
;WIDTH:0.617019
G1 X77.724 Y139.095 E.02803
;WIDTH:0.614789
G1 X77.308 Y138.47 E.03495
;WIDTH:0.615229
G1 X77.033 Y137.75 E.03595
