; generated by PrusaSlicer 2.7.1 on 2024-01-06 at 10:30:36 UTC
;FLAVOR:Marlin
;TIME:1409
;Filament used: 1.597840
;Layer height: 0.20
;MINX:0.000
;MINY:0.000
;MINZ:0.000
;MAXX:0.000
;MAXY:0.000
;MAXZ:0.000
;POSTPROCESSED
;Header generated for The Ender3v2 Professional Firmware
;https://github.com/mriscoc/Marlin_Ender3v2



;
;

;
;
; 

; external perimeters extrusion width = 0.42mm
; perimeters extrusion width = 0.44mm
; infill extrusion width = 0.44mm
; solid infill extrusion width = 0.44mm
; top infill extrusion width = 0.40mm
; support material extrusion width = 0.36mm
; first layer extrusion width = 0.42mm

M73 P0 R23

EXCLUDE_OBJECT_DEFINE NAME=propeller_stl CENTER=110.003,109.998 POLYGON=[[110.619,69.504],[114.664,69.769],[118.662,70.437],[122.573,71.501],[126.203,72.882],[128.795,74.120],[132.319,76.155],[132.127,76.078],[134.223,77.542],[136.334,79.230],[139.278,82.017],[141.929,85.083],[144.259,88.400],[146.247,91.932],[147.871,95.646],[149.117,99.504],[149.970,103.466],[150.221,105.248],[150.423,107.494],[150.495,110.680],[150.277,114.244],[150.038,116.100],[149.651,118.249],[149.221,120.098],[148.628,122.171],[148.006,123.993],[147.218,125.971],[146.405,127.747],[145.435,129.611],[144.434,131.320],[143.297,133.055],[142.114,134.677],[140.826,136.268],[139.468,137.783],[138.046,139.218],[136.522,140.607],[134.984,141.875],[131.675,144.216],[128.151,146.251],[128.320,146.118],[124.747,147.719],[120.903,149.004],[116.949,149.899],[112.926,150.394],[108.980,150.487],[104.911,150.179],[100.893,149.462],[96.969,148.346],[93.176,146.840],[89.580,144.975],[86.186,142.758],[83.031,140.214],[80.146,137.367],[77.560,134.245],[75.299,130.881],[73.385,127.308],[71.838,123.561],[70.674,119.678],[69.903,115.699],[69.530,111.662],[69.530,107.593],[69.561,107.802],[69.961,103.911],[70.320,101.890],[70.770,99.939],[71.338,97.938],[71.972,96.068],[73.303,92.866],[74.814,89.945],[75.929,88.104],[76.995,86.528],[78.306,84.786],[79.507,83.346],[81.004,81.725],[82.324,80.432],[83.996,78.951],[85.418,77.813],[87.253,76.491],[88.758,75.517],[92.312,73.567],[95.688,72.113],[98.609,71.135],[102.551,70.191],[106.568,69.645]]

M190 S60 ; set bed temperature and wait for it to be reached
M104 S215 ; set temperature
;TYPE:Custom
M117 ;fix for KAMP meshing
START_PRINT BED_TEMP=60 EXTRUDER_TEMP=215
M109 S215 ; set temperature and wait for it to be reached
G21 ; set units to millimeters
G90 ; use absolute coordinates
M83 ; use relative distances for extrusion
; Filament gcode
M107
;LAYER_CHANGE
;Z:0.2
;HEIGHT:0.2
;BEFORE_LAYER_CHANGE
G92 E0
;0.2


G10 ; retract
G1 Z.2 F15000
;AFTER_LAYER_CHANGE
;0.2
G1 X79.63 Y78.332
G11 ; unretract
M204 S500
;TYPE:Skirt/Brim
;WIDTH:0.42
G1 F2400
G1 X80.783 Y77.266 E.04923
G1 X82.969 Y75.438 E.08935
G1 X84.224 Y74.493 E.04926
G1 X86.581 Y72.895 E.08929
G1 X87.926 Y72.08 E.04931
G1 X90.431 Y70.728 E.08925
G1 X94.373 Y69.001 E.13494
G1 X97.366 Y67.981 E.09914
G1 X100.005 Y67.277 E.08564
G1 X101.639 Y66.927 E.0524
G1 X105.929 Y66.312 E.13589
G1 X108.758 Y66.141 E.08886
G1 X110.432 Y66.125 E.05249
G1 X114.753 Y66.381 E.13572
G1 X116.306 Y66.578 E.04908
G1 X119.115 Y67.08 E.08947
G1 X120.643 Y67.433 E.04917
G1 X123.385 Y68.214 E.08939
G1 X124.872 Y68.72 E.04925
G1 X127.519 Y69.772 E.08931
G1 X128.95 Y70.426 E.04933
G1 X131.536 Y71.772 E.09141
G1 X133.939 Y73.229 E.08811
G1 X135.259 Y74.122 E.04997
G1 X137.545 Y75.846 E.08977
G1 X138.737 Y76.843 E.04872
G1 X141.871 Y79.843 E.13603
G1 X143.007 Y81.092 E.05294
G1 X144.788 Y83.261 E.088
G1 X147.262 Y86.832 E.13621
G1 X148.125 Y88.283 E.05293
G1 X149.403 Y90.698 E.08567
G1 X150.69 Y93.585 E.09911
G1 X152.103 Y97.65 E.13494
G1 X152.815 Y100.407 E.08928
G1 X153.132 Y101.947 E.0493
G1 X153.563 Y104.762 E.08929
G1 X153.723 Y106.325 E.04926
G1 X153.869 Y109.17 E.08932
G1 X153.871 Y110.741 E.04926
G1 X153.73 Y113.587 E.08934
G1 X153.574 Y115.149 E.04922
G1 X153.358 Y116.726 E.04991
G1 X152.835 Y119.504 E.08863
G1 X152.461 Y121.053 E.04996
G1 X151.662 Y123.764 E.08862
G1 X150.104 Y127.798 E.13559
G1 X149.39 Y129.328 E.05294
G1 X148.065 Y131.822 E.08855
G1 X145.731 Y135.465 E.13566
G1 X144.724 Y136.82 E.05293
G1 X142.988 Y138.929 E.08565
G1 X140.819 Y141.23 E.09915
G1 X137.594 Y144.114 E.13565
G1 X135.342 Y145.817 E.08853
G1 X134.023 Y146.716 E.05005
G1 X131.624 Y148.177 E.08807
G1 X130.21 Y148.945 E.05045
G1 X126.224 Y150.767 E.13742
G1 X124.756 Y151.32 E.04919
G1 X122.042 Y152.192 E.08938
G1 X120.524 Y152.595 E.04924
G1 X117.738 Y153.189 E.08932
G1 X116.185 Y153.438 E.04932
G1 X113.356 Y153.748 E.08923
G1 X111.783 Y153.84 E.0494
G1 X108.939 Y153.864 E.08917
G1 X107.363 Y153.797 E.04946
G1 X104.534 Y153.534 E.08908
G1 X102.97 Y153.309 E.04954
G1 X100.184 Y152.764 E.08901
G1 X98.648 Y152.382 E.04963
G1 X95.933 Y151.56 E.08894
G1 X94.441 Y151.025 E.0497
G1 X91.825 Y149.935 E.08886
G1 X90.395 Y149.253 E.04967
G1 X87.9 Y147.904 E.08893
G1 X86.52 Y147.064 E.05065
G1 X84.2 Y145.489 E.08792
G1 X82.907 Y144.512 E.05081
G1 X80.761 Y142.714 E.08778
G1 X78.528 Y140.572 E.09702
G1 X75.646 Y137.294 E.13685
G1 X73.945 Y135.003 E.08947
G1 X73.077 Y133.703 E.04901
G1 X71.613 Y131.25 E.08957
G1 X70.881 Y129.872 E.04892
G1 X69.67 Y127.281 E.08967
G1 X69.082 Y125.839 E.04883
G1 X68.137 Y123.137 E.08975
G1 X67.697 Y121.646 E.04874
G1 X67.028 Y118.86 E.08984
G1 X66.741 Y117.335 E.04865
G1 X66.502 Y115.742 E.05051
G1 X66.223 Y112.949 E.08801
G1 X66.145 Y108.645 E.13497
G1 X66.358 Y105.477 E.09955
G1 X66.724 Y102.77 E.08565
G1 X67.034 Y101.111 E.05292
G1 X68.118 Y96.922 E.13567
G1 X69.046 Y94.255 E.08854
G1 X69.682 Y92.691 E.05294
G1 X71.582 Y88.805 E.13563
G1 X73.026 Y86.377 E.08857
G1 X73.908 Y85.049 E.04999
G1 X75.59 Y82.778 E.08861
G1 X76.6 Y81.546 E.04995
G1 X77.639 Y80.37 E.0492
G1 X79.588 Y78.375 E.08745
EXCLUDE_OBJECT_START NAME=propeller_stl
G10 ; retract
G1 X79.588 Y78.375 Z.6 F15000
G1 X129.111 Y75.96
G1 Z.2
G11 ; unretract
;TYPE:Support material
G1 F2400
G1 X132.53 Y78.119 E.12678
G1 X134.633 Y79.715 E.08278
G1 X136.574 Y81.404 E.08067
G1 X136.498 Y82.217 E.0256
G1 X136.183 Y83.321 E.036
G1 X135.588 Y84.458 E.04024
G1 X135.523 Y85.157 E.02201
G1 X135.216 Y86.257 E.03581
G1 X134.718 Y87.285 E.03582
G1 X134.045 Y88.206 E.03577
G1 X133.218 Y88.992 E.03577
G1 X132.265 Y89.617 E.03573
G1 X131.715 Y89.851 E.01874
G1 X131.629 Y90.813 E.03028
G1 X131.325 Y91.914 E.03581
G1 X130.83 Y92.942 E.03577
G1 X130.55 Y93.327 E.01493
G1 X130.241 Y94.479 E.0374
G1 X129.746 Y95.507 E.03577
G1 X129.075 Y96.431 E.0358
G1 X128.533 Y96.949 E.02351
G1 X128.404 Y97.415 E.01516
G1 X127.909 Y98.444 E.0358
G1 X127.013 Y99.583 E.04544
G1 X126.695 Y100.735 E.03747
G1 X126.2 Y101.763 E.03577
G1 X125.528 Y102.687 E.03582
G1 X124.436 Y103.651 E.04567
G1 X123.932 Y104.526 E.03166
G1 X123.878 Y105.118 E.01864
G1 X123.558 Y106.213 E.03577
G1 X123.035 Y107.225 E.03572
G1 X122.328 Y108.117 E.03569
G1 X121.466 Y108.856 E.0356
G1 X120.479 Y109.416 E.03558
G1 X119.404 Y109.777 E.03556
G1 X118.28 Y109.927 E.03555
G1 X117.148 Y109.859 E.03556
G1 X116.397 Y109.666 E.02431
G1 X116.312 Y108.876 E.02491
G1 X116.028 Y107.816 E.03441
G1 X115.634 Y106.95 E.02983
G1 X115.246 Y106.314 E.02336
G1 X114.541 Y105.473 E.03441
G1 X113.686 Y104.754 E.03503
G1 X112.719 Y104.194 E.03504
G1 X112.182 Y103.971 E.01823
G1 X112.238 Y103.162 E.02543
G1 X112.491 Y102.166 E.03222
G1 X112.368 Y101.492 E.02148
G1 X112.368 Y100.351 E.03578
G1 X112.572 Y99.227 E.03582
G1 X112.973 Y98.159 E.03577
G1 X113.559 Y97.179 E.0358
G1 X114.31 Y96.319 E.0358
G1 X114.975 Y95.789 E.02666
G1 X115.581 Y94.754 E.03761
G1 X116.202 Y94.043 E.0296
G1 X116.304 Y93.484 E.01782
G1 X116.705 Y92.415 E.0358
G1 X117.29 Y91.435 E.03579
G1 X118.169 Y90.473 E.04086
G1 X118.542 Y89.478 E.03332
G1 X119.132 Y88.491 E.03605
G1 X119.224 Y87.982 E.01622
G1 X119.625 Y86.913 E.0358
G1 X120.211 Y85.933 E.0358
G1 X120.962 Y85.073 E.0358
G1 X121.855 Y84.361 E.03581
G1 X122.918 Y83.789 E.03785
G1 X123.117 Y82.328 E.04623
G1 X123.515 Y81.258 E.03579
G1 X124.255 Y80.094 E.04325
G1 X124.583 Y78.827 E.04104
G1 X125.094 Y77.799 E.03599
G1 X125.785 Y76.883 E.03598
G1 X126.633 Y76.109 E.036
G1 X127.609 Y75.504 E.036
G1 X127.992 Y75.355 E.01289
G1 X129.061 Y75.933 E.0381
G1 X135.977 Y83.355 F15000
G1 F2400
G1 X135.977 Y81.322 E.06374
G1 X135.558 Y80.944 E.01769
G1 X135.558 Y83.814 E.08999
G1 X135.259 Y84.33 E.0187
G1 X135.139 Y85.272 E.02977
G1 X135.139 Y80.584 E.14699
G1 X134.72 Y80.231 E.01718
G1 X134.72 Y86.504 E.19669
G1 X134.301 Y87.281 E.02768
G1 X134.301 Y79.885 E.2319
G1 X133.882 Y79.556 E.0167
G1 X133.882 Y87.854 E.26018
G1 X133.463 Y88.291 E.01898
G1 X133.463 Y79.227 E.2842
G1 X133.044 Y78.916 E.01636
G1 X133.044 Y88.69 E.30646
G1 X132.625 Y88.975 E.01589
G1 X132.625 Y78.609 E.32502
G1 X132.206 Y78.308 E.01618
G1 X132.206 Y89.25 E.34308
G1 X131.787 Y89.452 E.01458
G1 X131.787 Y78.023 E.35835
G1 X131.368 Y77.738 E.01589
G1 X131.368 Y89.924 E.38208
G1 X131.293 Y90.752 E.02607
M73 P1 R23
G1 X130.949 Y91.912 E.03794
G1 X130.949 Y77.466 E.45294
G1 X130.53 Y77.202 E.01553
G1 X130.53 Y92.777 E.48834
G1 X130.22 Y93.203 E.01652
G1 X130.111 Y93.676 E.01522
G1 X130.111 Y76.937 E.52484
G1 X129.692 Y76.692 E.01522
G1 X129.692 Y94.838 E.56896
G1 X129.273 Y95.581 E.02675
G1 X129.273 Y76.447 E.59993
G1 X128.854 Y76.206 E.01516
G1 X128.854 Y96.158 E.62558
G1 X128.435 Y96.573 E.01849
G1 X128.435 Y75.98 E.64568
G1 X128.016 Y75.754 E.01493
G1 X128.016 Y97.439 E.67992
G1 X127.597 Y98.296 E.02991
G1 X127.597 Y75.91 E.7019
G1 X127.178 Y76.17 E.01546
G1 X127.178 Y98.872 E.71181
G1 X126.759 Y99.356 E.02007
G1 X126.759 Y76.453 E.71811
G1 X126.34 Y76.836 E.0178
G1 X126.34 Y100.689 E.74789
G1 X125.921 Y101.559 E.03028
G1 X125.921 Y77.266 E.76169
G1 X125.502 Y77.822 E.02183
G1 X125.502 Y102.146 E.76266
G1 X125.083 Y102.643 E.02038
G1 X125.083 Y78.584 E.75435
G1 X124.901 Y78.95 E.01282
G1 X124.664 Y79.785 E.02721
G1 X124.664 Y103.044 E.72927
G1 X124.245 Y103.37 E.01665
G1 X124.245 Y80.692 E.71105
G1 X123.826 Y81.398 E.02574
G1 X123.826 Y104.094 E.71162
G1 X123.603 Y104.402 E.01192
G1 X123.543 Y105.055 E.02056
G1 X123.407 Y105.52 E.01519
G1 X123.407 Y82.632 E.71764
G1 X123.256 Y83.481 E.02704
G1 X123.258 Y83.992 E.01602
G1 X122.988 Y84.137 E.00961
G1 X122.988 Y106.577 E.70359
G1 X122.569 Y107.266 E.02528
G1 X122.569 Y84.362 E.71814
G1 X122.15 Y84.588 E.01493
G1 X122.15 Y107.795 E.72764
G1 X121.731 Y108.182 E.01788
G1 X121.731 Y84.894 E.73018
G1 X121.312 Y85.228 E.0168
M73 P2 R23
G1 X121.312 Y108.54 E.73093
G1 X120.893 Y108.791 E.01531
G1 X120.893 Y85.668 E.72501
G1 X120.474 Y86.154 E.02012
G1 X120.474 Y109.028 E.7172
G1 X120.055 Y109.2 E.0142
M73 P2 R22
G1 X120.055 Y86.855 E.70061
G1 X119.636 Y87.849 E.03382
G1 X119.636 Y109.341 E.67387
G1 X119.217 Y109.46 E.01366
G1 X119.217 Y89.009 E.64123
G1 X118.799 Y89.76 E.02695
G1 X118.799 Y109.516 E.61944
G1 X118.38 Y109.571 E.01325
G1 X118.38 Y90.739 E.59046
G1 X117.961 Y91.183 E.01914
G1 X117.961 Y109.568 E.57645
G1 X117.542 Y109.543 E.01316
G1 X117.542 Y91.676 E.56021
G1 X117.123 Y92.377 E.02561
G1 X117.123 Y109.502 E.53694
G1 X116.724 Y109.4 E.01291
G1 X116.704 Y109.244 E.00493
G1 X116.704 Y93.383 E.49731
G1 X116.519 Y94.196 E.02614
G1 X116.285 Y94.464 E.01116
G1 X116.285 Y107.547 E.41021
G1 X115.866 Y106.66 E.03076
G1 X115.866 Y94.944 E.36735
G1 X115.447 Y95.64 E.02547
G1 X115.447 Y106.018 E.32539
G1 X115.028 Y105.503 E.02082
G1 X115.028 Y96.181 E.29228
G1 X114.609 Y96.515 E.0168
G1 X114.609 Y105.074 E.26836
G1 X114.19 Y104.713 E.01734
G1 X114.19 Y96.972 E.24271
G1 X113.771 Y97.486 E.02079
G1 X113.771 Y104.405 E.21694
G1 X113.352 Y104.14 E.01554
G1 X113.352 Y98.187 E.18665
G1 X112.933 Y99.233 E.03533
G1 X112.933 Y104.114 E.15304
G10 ; retract
G1 X112.933 Y104.114 Z.6 F15000
G1 X115.278 Y115.045
G1 Z.2
G11 ; unretract
G1 F2400
G1 X116.121 Y115.809 E.03567
G1 X116.556 Y116.385 E.02263
G1 X117.048 Y116.71 E.01849
G1 X117.873 Y117.499 E.03579
G1 X118.544 Y118.422 E.03578
G1 X119.04 Y119.451 E.03582
G1 X119.19 Y119.994 E.01766
G1 X120.005 Y121.084 E.04267
G1 X120.5 Y122.113 E.0358
G1 X120.65 Y122.655 E.01763
G1 X121.454 Y123.706 E.04149
G1 X121.949 Y124.735 E.0358
G1 X122.253 Y125.835 E.03578
G1 X122.299 Y126.344 E.01602
G1 X123.335 Y127.272 E.04361
G1 X124.006 Y128.196 E.0358
G1 X124.502 Y129.224 E.03579
G1 X124.74 Y130.088 E.0281
G1 X125.534 Y131.129 E.04105
G1 X126.029 Y132.157 E.03577
G1 X126.141 Y132.562 E.01318
G1 X126.553 Y132.957 E.0179
G1 X127.224 Y133.88 E.03578
G1 X127.72 Y134.909 E.03582
G1 X128.051 Y136.312 E.0452
G1 X128.34 Y136.588 E.01253
G1 X129.011 Y137.512 E.0358
G1 X129.506 Y138.54 E.03577
G1 X129.81 Y139.641 E.03581
G1 X129.912 Y140.778 E.03579
G1 X129.81 Y141.915 E.03579
G1 X129.506 Y143.016 E.03581
G1 X128.951 Y144.126 E.03891
G1 X125.549 Y145.807 E.11898
G1 X122.372 Y147.02 E.10663
G1 X121.041 Y146.634 E.04345
G1 X120.036 Y146.093 E.03579
G1 X119.143 Y145.381 E.03581
G1 X118.392 Y144.521 E.0358
G1 X117.806 Y143.541 E.0358
G1 X117.405 Y142.472 E.0358
G1 X117.201 Y141.571 E.02897
G1 X116.606 Y140.89 E.02835
G1 X116.02 Y139.91 E.0358
G1 X115.687 Y139.022 E.02974
G1 X114.915 Y138.138 E.0368
G1 X114.33 Y137.158 E.03579
G1 X113.868 Y135.754 E.04634
G1 X113.388 Y135.205 E.02287
G1 X112.802 Y134.225 E.0358
G1 X112.401 Y133.156 E.0358
G1 X112.203 Y132.067 E.0347
G1 X111.587 Y131.575 E.02472
G1 X110.835 Y130.715 E.03582
G1 X110.25 Y129.735 E.03579
G1 X109.839 Y128.612 E.03749
G1 X109.386 Y128.094 E.02158
G1 X108.801 Y127.114 E.03579
G1 X108.383 Y125.955 E.03863
G1 X107.926 Y125.432 E.02178
G1 X107.34 Y124.452 E.0358
G1 X107.166 Y123.986 E.0156
G1 X106.38 Y122.924 E.04143
G1 X105.774 Y121.419 E.05087
G1 X105.595 Y120.28 E.03615
G1 X105.588 Y119.662 E.01938
G1 X105.738 Y118.549 E.03521
G1 X105.889 Y118.002 E.01779
G1 X106.353 Y116.947 E.03614
G1 X107.223 Y115.775 E.04577
G1 X107.817 Y116.027 E.02023
G1 X108.877 Y116.311 E.03441
G1 X109.452 Y116.387 E.01819
G1 X110.569 Y116.385 E.03502
G1 X111.65 Y116.195 E.03441
G1 X112.701 Y115.814 E.03505
G1 X113.669 Y115.257 E.03502
G1 X114.497 Y114.567 E.03379
G1 X115.23 Y115.016 E.02695
G1 X129.273 Y143.108 F15000
G1 F2400
G1 X129.273 Y138.972 E.12968
G1 X128.854 Y137.969 E.03408
G1 X128.854 Y143.587 E.17615
G1 X128.72 Y143.865 E.00968
G1 X128.435 Y144.019 E.01016
G1 X128.435 Y137.297 E.21076
G1 X128.016 Y136.748 E.02165
G1 X128.016 Y144.245 E.23506
G1 X127.597 Y144.462 E.01479
M73 P3 R22
G1 X127.597 Y135.74 E.27347
G1 X127.401 Y135.029 E.02312
G1 X127.178 Y134.566 E.01611
G1 X127.178 Y144.67 E.3168
G1 X126.759 Y144.879 E.01468
G1 X126.759 Y133.817 E.34684
G1 X126.34 Y133.241 E.02233
G1 X126.34 Y145.075 E.37105
G1 X125.921 Y145.265 E.01443
G1 X125.921 Y132.822 E.39014
G1 X125.502 Y131.846 E.0333
G1 X125.502 Y145.456 E.42673
G1 X125.083 Y145.633 E.01426
G1 X125.083 Y131.086 E.45611
G1 X124.664 Y130.509 E.02236
G1 X124.664 Y145.807 E.47966
G1 X124.245 Y145.98 E.01421
G1 X124.245 Y129.571 E.51449
G1 X123.826 Y128.604 E.03304
G1 X123.826 Y146.139 E.5498
G1 X123.407 Y146.296 E.01403
G1 X123.407 Y127.948 E.57529
G1 X122.988 Y127.41 E.02138
G1 X122.988 Y146.453 E.59708
G1 X122.569 Y146.595 E.01387
G1 X122.569 Y127.009 E.61411
G1 X122.15 Y126.652 E.01726
G1 X122.15 Y146.637 E.62662
G1 X121.731 Y146.501 E.01381
G1 X121.731 Y125.22 E.66725
G1 X121.312 Y124.194 E.03475
G1 X121.312 Y146.365 E.69516
G1 X120.893 Y146.169 E.0145
G1 X120.893 Y123.512 E.71039
G1 X120.474 Y122.957 E.0218
G1 X120.474 Y145.943 E.72071
G1 X120.055 Y145.674 E.01561
G1 X120.055 Y121.972 E.74316
G1 X119.636 Y121.155 E.02879
G1 X119.636 Y145.34 E.7583
G1 X119.217 Y144.95 E.01795
G1 X119.217 Y120.578 E.76417
G1 X118.876 Y120.133 E.01758
G1 X118.799 Y119.853 E.00911
G1 X118.799 Y144.471 E.77188
G1 X118.38 Y143.838 E.0238
G1 X118.38 Y118.862 E.7831
G1 X117.961 Y118.196 E.02467
G1 X117.961 Y142.986 E.77727
G1 X117.734 Y142.382 E.02023
G1 X117.542 Y141.516 E.02781
G1 X117.542 Y117.651 E.74827
G1 X117.123 Y117.251 E.01816
G1 X117.123 Y140.965 E.74354
G1 X116.704 Y140.391 E.02228
M73 P4 R22
G1 X116.704 Y116.889 E.73689
G1 X116.285 Y116.589 E.01616
G1 X116.285 Y139.648 E.723
G1 X115.983 Y138.845 E.0269
G1 X115.866 Y138.71 E.0056
G1 X115.866 Y116.036 E.71093
