; HEADER_BLOCK_START
; generated by OrcaSlicer 1.9.1 on 2024-03-05 at 09:48:25
; total layer number: 12
; filament_density: 1.27
; filament_diameter: 1.75
; max_z_height: 2.40
; HEADER_BLOCK_END

; THUMBNAIL_BLOCK_START

;
; THUMBNAIL_BLOCK_END

; external perimeters extrusion width = 0.40mm
; perimeters extrusion width = 0.45mm
; infill extrusion width = 0.45mm
; solid infill extrusion width = 0.40mm
; top infill extrusion width = 0.40mm
; support material extrusion width = 0.40mm
; first layer extrusion width = 0.50mm

; EXECUTABLE_BLOCK_START
EXCLUDE_OBJECT_DEFINE NAME=LLC-Star.stl_id_0_copy_0 CENTER=110,110 POLYGON=[[95.75,110],[95.7636,109.378],[95.8042,108.758],[95.8719,108.14],[95.9665,107.526],[96.0878,106.916],[96.2356,106.312],[96.4095,105.715],[96.6094,105.126],[96.8347,104.547],[97.0851,103.978],[97.3601,103.42],[97.6591,102.875],[97.9817,102.343],[98.3271,101.827],[98.6947,101.325],[99.0839,100.84],[99.4938,100.373],[99.9237,99.9237],[100.373,99.4938],[100.84,99.0839],[101.325,98.6947],[101.827,98.3271],[102.343,97.9817],[102.875,97.6591],[103.42,97.3601],[103.978,97.0851],[104.547,96.8347],[105.126,96.6094],[105.715,96.4095],[106.312,96.2356],[106.916,96.0878],[107.526,95.9665],[108.14,95.8719],[108.758,95.8042],[109.378,95.7636],[110,95.75],[110.622,95.7636],[111.242,95.8042],[111.86,95.8719],[112.474,95.9665],[113.084,96.0878],[113.688,96.2356],[114.285,96.4095],[114.874,96.6094],[115.453,96.8347],[116.022,97.0851],[116.58,97.3601],[117.125,97.6591],[117.657,97.9817],[118.173,98.3271],[118.675,98.6947],[119.16,99.0839],[119.627,99.4938],[120.076,99.9237],[120.506,100.373],[120.916,100.84],[121.305,101.325],[121.673,101.827],[122.018,102.343],[122.341,102.875],[122.64,103.42],[122.915,103.978],[123.165,104.547],[123.391,105.126],[123.59,105.715],[123.764,106.312],[123.912,106.916],[124.034,107.526],[124.128,108.14],[124.196,108.758],[124.236,109.378],[124.25,110],[124.236,110.622],[124.196,111.242],[124.128,111.86],[124.034,112.474],[123.912,113.084],[123.764,113.688],[123.59,114.285],[123.391,114.874],[123.165,115.453],[122.915,116.022],[122.64,116.58],[122.341,117.125],[122.018,117.657],[121.673,118.173],[121.305,118.675],[120.916,119.16],[120.506,119.627],[120.076,120.076],[119.627,120.506],[119.16,120.916],[118.675,121.305],[118.173,121.673],[117.657,122.018],[117.125,122.341],[116.58,122.64],[116.022,122.915],[115.453,123.165],[114.874,123.391],[114.285,123.59],[113.688,123.764],[113.084,123.912],[112.474,124.034],[111.86,124.128],[111.242,124.196],[110.622,124.236],[110,124.25],[109.378,124.236],[108.758,124.196],[108.14,124.128],[107.526,124.034],[106.916,123.912],[106.312,123.764],[105.715,123.59],[105.126,123.391],[104.547,123.165],[103.978,122.915],[103.42,122.64],[102.875,122.341],[102.343,122.018],[101.827,121.673],[101.325,121.305],[100.84,120.916],[100.373,120.506],[99.9237,120.076],[99.4938,119.627],[99.0839,119.16],[98.6947,118.675],[98.3271,118.173],[97.9817,117.657],[97.6591,117.125],[97.3601,116.58],[97.0851,116.022],[96.8347,115.453],[96.6094,114.874],[96.4095,114.285],[96.2356,113.688],[96.0878,113.084],[95.9665,112.474],[95.8719,111.86],[95.8042,111.242],[95.7636,110.622],[95.75,110]]
M73 P0 R9
;TYPE:Custom
M117 ; clear display for KAMP meshing
START_PRINT BED_TEMP=80 EXTRUDER_TEMP=255
G90
G21
M83 ; use relative distances for extrusion
; filament start gcode
M106 S0
;LAYER_CHANGE
;Z:0.2
;HEIGHT:0.2
;BEFORE_LAYER_CHANGE
;0.2
G92 E0

G1 E-5 F3600
;_SET_FAN_SPEED_CHANGING_LAYER
SET_VELOCITY_LIMIT ACCEL=500 ACCEL_TO_DECEL=250
G1 Z.4 F9000
G1 X99.012 Y98.088
G1 Z.4
G1 Z.2
G1 E5 F2400
;TYPE:Skirt
;WIDTH:0.5
G1 F3000
G1 X100.177 Y97.11 E.05491
G1 X101.337 Y96.303 E.05105
G1 X102.564 Y95.6 E.05105
G1 X104.407 Y94.789 E.07268
G1 X105.857 Y94.332 E.05492
G1 X107.239 Y94.03 E.05105
G1 X109.24 Y93.811 E.07268
G1 X110.653 Y93.807 E.05105
G1 X112.169 Y93.939 E.05491
G1 X113.56 Y94.189 E.05105
G1 X114.924 Y94.56 E.05105
G1 X116.801 Y95.289 E.07268
G1 X118.057 Y95.938 E.05105
G1 X119.34 Y96.755 E.05492
G1 X120.832 Y97.947 E.06894
G1 X121.912 Y99.012 E.05478
G1 X122.89 Y100.177 E.05491
G1 X123.697 Y101.337 E.05105
G1 X124.4 Y102.564 E.05105
G1 X125.211 Y104.407 E.07268
G1 X125.668 Y105.857 E.05492
G1 X125.97 Y107.239 E.05105
G1 X126.182 Y109.136 E.06894
G1 X126.193 Y110.653 E.05478
G1 X126.061 Y112.169 E.05491
G1 X125.811 Y113.56 E.05105
G1 X125.44 Y114.924 E.05105
G1 X124.711 Y116.801 E.07268
G1 X124.062 Y118.057 E.05105
G1 X123.245 Y119.34 E.05492
G1 X122.053 Y120.832 E.06894
G1 X120.988 Y121.912 E.05478
G1 X119.823 Y122.89 E.05491
G1 X118.663 Y123.697 E.05105
G1 X117.436 Y124.4 E.05105
G1 X115.593 Y125.211 E.07268
G1 X114.143 Y125.668 E.05492
G1 X112.761 Y125.97 E.05105
G1 X110.864 Y126.182 E.06894
G1 X109.347 Y126.193 E.05478
G1 X107.831 Y126.061 E.05491
G1 X106.44 Y125.811 E.05105
G1 X105.076 Y125.44 E.05105
G1 X103.199 Y124.711 E.07268
G1 X101.943 Y124.062 E.05105
G1 X100.66 Y123.245 E.05492
G1 X99.168 Y122.053 E.06894
G1 X98.088 Y120.988 E.05478
G1 X97.11 Y119.823 E.05491
G1 X96.303 Y118.663 E.05105
G1 X95.6 Y117.436 E.05105
G1 X94.789 Y115.593 E.07268
G1 X94.332 Y114.143 E.05492
G1 X94.03 Y112.761 E.05105
G1 X93.818 Y110.864 E.06894
G1 X93.807 Y109.347 E.05478
G1 X93.939 Y107.831 E.05491
G1 X94.189 Y106.44 E.05105
G1 X94.56 Y105.076 E.05105
G1 X95.289 Y103.199 E.07268
G1 X95.938 Y101.943 E.05105
G1 X96.755 Y100.66 E.05492
G1 X97.947 Y99.168 E.06894
G1 X98.983 Y98.116 E.05334
; printing object LLC-Star.stl id:0 copy 0
G1 E-3.8 F3600
;WIPE_START
G1 F3000
G1 X99.748 Y97.471 E-1.2
;WIPE_END
EXCLUDE_OBJECT_START NAME=LLC-Star.stl_id_0_copy_0
G1 Z.6 F9000
G1 X107.413 Y103.905 Z.6
G1 Z.2
G1 E5 F2400
;TYPE:Brim
G1 F900
G1 X108.004 Y103.983 E.0215
G1 X108.207 Y104.067 E.00795
G1 X108.356 Y104.076 E.00538
G1 X108.476 Y103.995 E.00523
G1 X108.653 Y103.765 E.01047
G1 X109.068 Y103.446 E.01892
G1 X111.097 Y106.506 E.13256
G1 X111.208 Y106.594 E.0051
G1 X111.318 Y106.635 E.00424
G1 X111.459 Y106.641 E.0051
G1 X115 Y105.656 E.13271
G1 X115.138 Y106.609 E.03477
G1 X115.247 Y106.704 E.00523
G1 X115.687 Y106.886 E.01721
G1 X115.947 Y107.086 E.01183
G1 X113.662 Y109.964 E.13269
G1 X113.613 Y110.096 E.0051
G1 X113.608 Y110.213 E.00424
G1 X113.646 Y110.349 E.0051
G1 X115.692 Y113.436 E.1337
M73 P1 R9
G1 X114.903 Y113.764 E.03085
G1 X114.792 Y113.863 E.00538
G1 X114.764 Y113.945 E.00314
G1 X114.673 Y114.64 E.02529
G1 X114.622 Y114.761 E.00473
G1 X111.166 Y113.472 E.13319
G1 X111.025 Y113.466 E.0051
G1 X110.912 Y113.497 E.00424
G1 X110.794 Y113.575 E.0051
G1 X108.504 Y116.459 E.13296
G1 X108.343 Y116.336 E.00732
G1 X107.969 Y115.848 E.02216
G1 X107.845 Y115.766 E.00538
G1 X107.758 Y115.761 E.00314
G1 X106.9 Y115.874 E.03124
G1 X107.059 Y112.182 E.13343
G1 X107.021 Y112.046 E.0051
G1 X106.956 Y111.948 E.00424
G1 X106.845 Y111.86 E.0051
G1 X103.404 Y110.577 E.1326
G1 X103.557 Y110.208 E.01441
G1 X103.807 Y109.883 E.01479
G1 X103.854 Y109.742 E.00538
G1 X103.472 Y108.863 E.03459
G1 X107.016 Y107.877 E.1328
G1 X107.134 Y107.799 E.0051
G1 X107.207 Y107.707 E.00424
G1 X107.256 Y107.574 E.0051
G1 X107.412 Y103.945 E.13116
G1 X107.893 Y104.508 F9000
G1 F900
G1 X108.009 Y104.482 E.00429
G1 X108.314 Y104.532 E.01118
G1 X108.514 Y104.502 E.00727
G1 X108.725 Y104.378 E.00887
G1 X108.859 Y104.25 E.00668
G1 X108.967 Y104.212 E.00413
G1 X109.068 Y104.273 E.00425
G1 X110.71 Y106.749 E.10729
G1 X110.821 Y106.871 E.00593
G1 X111.052 Y107.022 E.00998
G1 X111.313 Y107.092 E.00975
G1 X111.592 Y107.078 E.01007
G1 X114.472 Y106.277 E.10793
G1 X114.585 Y106.295 E.00413
G1 X114.644 Y106.39 E.00403
G1 X114.683 Y106.66 E.00988
G1 X114.751 Y106.847 E.00718
G1 X114.943 Y107.044 E.00991
G1 X115.117 Y107.146 E.00728
G1 X115.182 Y107.24 E.00413
G1 X115.154 Y107.349 E.00408
G1 X113.311 Y109.671 E.10703
G1 X113.19 Y109.922 E.01007
G1 X113.152 Y110.19 E.00975
G1 X113.202 Y110.462 E.00998
G1 X113.271 Y110.611 E.00593
G1 X114.913 Y113.088 E.1073
G1 X114.931 Y113.201 E.00413
G1 X114.851 Y113.29 E.00431
G1 X114.738 Y113.338 E.00443
G1 X114.502 Y113.509 E.01053
G1 X114.356 Y113.73 E.00956
G1 X114.297 Y113.986 E.0095
G1 X114.227 Y114.077 E.00413
G1 X114.115 Y114.084 E.00404
G1 X111.336 Y113.047 E.1071
G1 X111.06 Y113.01 E.01007
G1 X110.794 Y113.057 E.00975
G1 X110.551 Y113.188 E.00998
G1 X110.429 Y113.299 E.00593
G1 X108.586 Y115.621 E.10704
G1 X108.484 Y115.673 E.00413
G1 X108.381 Y115.632 E.00399
G1 X108.21 Y115.459 E.00879
G1 X108.112 Y115.395 E.00422
G1 X107.862 Y115.311 E.00951
G1 X107.532 Y115.329 E.01195
G1 X107.425 Y115.287 E.00413
G1 X107.387 Y115.187 E.00389
G1 X107.515 Y112.212 E.10749
G1 X107.465 Y111.938 E.01007
G1 X107.338 Y111.699 E.00975
G1 X107.138 Y111.509 E.00998
G1 X106.995 Y111.428 E.00593
G1 X104.216 Y110.392 E.10709
G1 X104.135 Y110.311 E.00413
G1 X104.144 Y110.197 E.00412
G1 X104.244 Y110.016 E.00747
G1 X104.283 Y109.9 E.00442
G1 X104.306 Y109.698 E.00733
G1 X104.269 Y109.549 E.00554
G1 X104.163 Y109.307 E.00955
G1 X104.166 Y109.192 E.00413
G1 X104.252 Y109.12 E.00407
G1 X107.128 Y108.32 E.10777
G1 X107.278 Y108.252 E.00593
G1 X107.493 Y108.079 E.00998
G1 X107.64 Y107.852 E.00975
G1 X107.713 Y107.583 E.01007
G1 X107.841 Y104.609 E.10747
G1 X107.875 Y104.543 E.00269
G1 X108.329 Y105.01 F9000
G1 F900
G1 X108.394 Y104.982 E.00256
G1 X108.565 Y104.957 E.00625
G1 X108.79 Y104.873 E.00866
G1 X108.904 Y104.881 E.00413
G1 X108.952 Y104.925 E.00237
G1 X110.324 Y106.995 E.08965
G1 X110.477 Y107.17 E.0084
G1 X110.795 Y107.399 E.01415
G1 X110.945 Y107.467 E.00596
G1 X111.185 Y107.531 E.00897
G1 X111.344 Y107.548 E.00577
G1 X111.727 Y107.515 E.01387
G1 X114.13 Y106.847 E.09007
G1 X114.243 Y106.865 E.00413
G1 X114.286 Y106.912 E.00231
G1 X114.437 Y107.179 E.01108
G1 X114.501 Y107.245 E.00332
G1 X114.539 Y107.353 E.00413
G1 X114.51 Y107.426 E.00285
G1 X112.961 Y109.377 E.08994
M73 P2 R9
G1 X112.782 Y109.716 E.01387
G1 X112.736 Y109.869 E.00577
G1 X112.701 Y110.115 E.00897
G1 X112.705 Y110.283 E.00606
G1 X112.75 Y110.532 E.00912
G1 X112.853 Y110.795 E.01019
G1 X114.272 Y112.949 E.09315
G1 X114.29 Y113.062 E.00413
G1 X114.114 Y113.267 E.00976
G1 X114 Y113.439 E.00745
G1 X113.903 Y113.5 E.00413
G1 X113.838 Y113.492 E.00237
G1 X111.508 Y112.623 E.08978
G1 X111.129 Y112.558 E.01387
G1 X110.97 Y112.561 E.00577
G1 X110.725 Y112.605 E.00897
G1 X110.566 Y112.66 E.00606
G1 X110.344 Y112.78 E.00912
G1 X110.126 Y112.959 E.01019
G1 X108.518 Y114.971 E.09299
G1 X108.416 Y115.022 E.00413
G1 X107.962 Y114.873 E.01728
G1 X107.876 Y114.797 E.00413
G1 X107.864 Y114.735 E.00226
G1 X107.971 Y112.245 E.09001
G1 X107.916 Y111.865 E.01387
G1 X107.864 Y111.714 E.00577
G1 X107.747 Y111.494 E.00897
G1 X107.645 Y111.361 E.00606
G1 X107.462 Y111.187 E.00912
G1 X107.225 Y111.034 E.01019
G1 X104.818 Y110.128 E.09287
G1 X104.737 Y110.047 E.00413
G1 X104.759 Y109.763 E.01029
G1 X104.746 Y109.571 E.00696
G1 X104.787 Y109.464 E.00413
G1 X104.846 Y109.429 E.00246
G1 X107.324 Y108.733 E.09294
G1 X107.573 Y108.601 E.01019
G1 X107.77 Y108.443 E.00912
G1 X107.883 Y108.318 E.00606
G1 X108.018 Y108.11 E.00897
G1 X108.083 Y107.964 E.00577
G1 X108.17 Y107.59 E.01387
G1 X108.277 Y105.112 E.08956
G1 X108.311 Y105.045 E.00269
G1 X108.756 Y105.724 F9000
G1 F900
G1 X108.868 Y105.698 E.00413
G1 X108.955 Y105.756 E.0038
G1 X109.939 Y107.241 E.06431
G1 X110.127 Y107.465 E.01054
G1 X110.215 Y107.545 E.0043
G1 X110.617 Y107.821 E.01761
G1 X110.836 Y107.911 E.00855
G1 X111.059 Y107.97 E.00833
G1 X111.285 Y108.001 E.00823
G1 X111.862 Y107.952 E.0209
G1 X113.569 Y107.477 E.06398
G1 X113.682 Y107.495 E.00413
G1 X113.742 Y107.593 E.00413
G1 X113.713 Y107.694 E.0038
G1 X112.552 Y109.173 E.06792
G1 X112.342 Y109.593 E.01694
G1 X112.282 Y109.813 E.00823
G1 X112.245 Y110.133 E.01162
G1 X112.257 Y110.375 E.00876
G1 X112.299 Y110.603 E.00839
G1 X112.422 Y110.949 E.01323
G1 X113.506 Y112.617 E.07183
G1 X113.523 Y112.73 E.00413
G1 X113.448 Y112.816 E.00413
G1 X113.344 Y112.82 E.00375
G1 X111.575 Y112.171 E.06804
G1 X111.111 Y112.102 E.01694
G1 X110.883 Y112.113 E.00823
G1 X110.567 Y112.176 E.01162
G1 X110.341 Y112.262 E.00876
G1 X110.137 Y112.373 E.00839
G1 X109.846 Y112.597 E.01323
G1 X108.595 Y114.143 E.07183
G1 X108.492 Y114.194 E.00413
G1 X108.387 Y114.149 E.00413
G1 X108.351 Y114.052 E.00375
G1 X108.422 Y112.168 E.06804
G1 X108.344 Y111.706 E.01694
G1 X108.264 Y111.493 E.00823
G1 X108.106 Y111.212 E.01162
G1 X107.954 Y111.023 E.00875
G1 X107.785 Y110.863 E.00839
G1 X107.483 Y110.657 E.01323
G1 X105.622 Y109.943 E.07195
G1 X105.542 Y109.861 E.00413
G1 X105.552 Y109.747 E.00413
G1 X105.634 Y109.683 E.00376
G1 X107.542 Y109.134 E.07167
G1 X107.867 Y108.951 E.01348
G1 X108.049 Y108.805 E.00839
G1 X108.217 Y108.63 E.00876
G1 X108.398 Y108.364 E.01162
G1 X108.496 Y108.159 E.00823
G1 X108.613 Y107.704 E.01694
G1 X108.704 Y105.825 E.06792
G1 X108.738 Y105.759 E.00269
G1 X109.148 Y107.137 F9000
G1 F900
G1 X109.26 Y107.113 E.00413
G1 X109.344 Y107.171 E.0037
G1 X109.554 Y107.488 E.01373
G1 X109.771 Y107.752 E.01235
G1 X109.964 Y107.927 E.00942
G1 X110.348 Y108.19 E.0168
G1 X110.727 Y108.355 E.01492
G1 X111.003 Y108.424 E.01026
G1 X111.336 Y108.455 E.01207
G1 X111.889 Y108.409 E.02004
G1 X112.351 Y108.29 E.01724
G1 X112.464 Y108.311 E.00413
G1 X112.522 Y108.41 E.00413
G1 X112.493 Y108.508 E.0037
G1 X112.2 Y108.881 E.01714
G1 X111.938 Y109.38 E.02035
G1 X111.843 Y109.687 E.01157
G1 X111.792 Y110.071 E.014
G1 X111.8 Y110.39 E.01154
G1 X111.872 Y110.765 E.01379
G1 X112.047 Y111.209 E.01722
G1 X112.375 Y111.715 E.02179
G1 X112.392 Y111.828 E.00413
G1 X112.317 Y111.915 E.00413
G1 X112.213 Y111.919 E.00375
G1 X111.744 Y111.747 E.01806
G1 X111.188 Y111.651 E.02035
G1 X110.868 Y111.656 E.01157
G1 X110.486 Y111.726 E.014
G1 X110.185 Y111.833 E.01154
G1 X109.851 Y112.017 E.01379
G1 X109.483 Y112.32 E.01722
G1 X109.103 Y112.789 E.02179
G1 X109 Y112.84 E.00413
G1 X108.895 Y112.795 E.00413
G1 X108.859 Y112.698 E.00375
G1 X108.878 Y112.198 E.01806
G1 X108.797 Y111.64 E.02035
G1 X108.693 Y111.337 E.01157
G1 X108.509 Y110.996 E.014
G1 X108.314 Y110.742 E.01153
G1 X108.036 Y110.481 E.01379
G1 X107.634 Y110.225 E.01722
G1 X107.06 Y110.005 E.02218
G1 X106.98 Y109.923 E.00413
G1 X106.99 Y109.809 E.00413
G1 X107.071 Y109.745 E.00374
G1 X107.661 Y109.575 E.02214
G1 X107.772 Y109.529 E.00437
G1 X108.16 Y109.302 E.01621
G1 X108.383 Y109.117 E.01046
G1 X108.6 Y108.879 E.01163
G1 X108.771 Y108.629 E.01094
G1 X108.903 Y108.367 E.0106
G1 X109.053 Y107.829 E.02016
G1 X109.093 Y107.237 E.02141
G1 X109.129 Y107.172 E.00269
G1 X109.475 Y108.208 F9000
G1 F900
G1 X109.621 Y108.233 E.00535
G1 X110.081 Y108.561 E.02038
G1 X110.536 Y108.77 E.01809
G1 X110.97 Y108.88 E.01616
G1 X111.284 Y108.91 E.01139
G1 X111.44 Y108.905 E.00564
G1 X111.546 Y108.95 E.00413
G1 X111.569 Y109.099 E.00544
G1 X111.498 Y109.254 E.00614
G1 X111.41 Y109.541 E.01084
G1 X111.335 Y110.092 E.02009
G1 X111.353 Y110.485 E.0142
M73 P3 R9
G1 X111.421 Y110.842 E.01309
G1 X111.486 Y111.033 E.0073
G1 X111.474 Y111.147 E.00413
G1 X111.341 Y111.214 E.00538
G1 X111.173 Y111.194 E.00611
G1 X110.872 Y111.199 E.01084
G1 X110.325 Y111.299 E.0201
G1 X109.956 Y111.437 E.0142
G1 X109.639 Y111.612 E.01309
G1 X109.476 Y111.732 E.0073
G1 X109.365 Y111.756 E.00413
G1 X109.26 Y111.65 E.00538
G1 X109.226 Y111.484 E.00611
G1 X109.129 Y111.2 E.01084
G1 X108.865 Y110.71 E.0201
G1 X108.62 Y110.403 E.0142
G1 X108.356 Y110.154 E.01309
G1 X108.191 Y110.038 E.00729
G1 X108.134 Y109.939 E.00413
G1 X108.198 Y109.809 E.00522
G1 X108.458 Y109.648 E.01106
G1 X108.668 Y109.475 E.00981
G1 X108.932 Y109.194 E.01392
G1 X109.182 Y108.827 E.01604
G1 X109.306 Y108.583 E.00988
G1 X109.398 Y108.293 E.01099
G1 X109.448 Y108.238 E.00269
G1 X109.72 Y108.91 F9000
G1 F900
G1 X109.806 Y108.927 E.00319
G1 X110.335 Y109.181 E.02117
G1 X110.858 Y109.323 E.01957
G1 X110.946 Y109.396 E.00413
G1 X110.958 Y109.472 E.00276
G1 X110.879 Y110.123 E.02369
G1 X110.909 Y110.605 E.01743
G1 X110.868 Y110.712 E.00413
G1 X110.799 Y110.748 E.00283
G1 X110.155 Y110.874 E.02371
G1 X109.706 Y111.052 E.01743
G1 X109.591 Y111.046 E.00413
G1 X109.535 Y110.991 E.00283
G1 X109.216 Y110.417 E.02371
G1 X108.909 Y110.046 E.01739
