; generated by PrusaSlicer 2.7.1 on 2024-01-21 at 15:54:52 UTC
;FLAVOR:Marlin
;TIME:2529
;Filament used: 2.030370
;Layer height: 0.20
;MINX:0.000
;MINY:0.000
;MINZ:0.000
;MAXX:0.000
;MAXY:0.000
;MAXZ:0.000
;POSTPROCESSED
;Header generated for The Ender3v2 Professional Firmware
;https://github.com/mriscoc/Marlin_Ender3v2



;
;

;
;
; 

; external perimeters extrusion width = 0.42mm
; perimeters extrusion width = 0.44mm
; infill extrusion width = 0.44mm
; solid infill extrusion width = 0.44mm
; top infill extrusion width = 0.40mm
; first layer extrusion width = 0.42mm

M73 P0 R42

EXCLUDE_OBJECT_DEFINE NAME=skiholderv2_bolt_extraclearance_stl CENTER=110.005,110.001 POLYGON=[[110.820,92.519],[111.906,92.604],[114.050,92.974],[116.131,93.608],[118.118,94.495],[119.980,95.622],[120.854,96.270],[122.474,97.722],[123.214,98.521],[124.536,100.249],[125.114,101.172],[125.634,102.128],[126.490,104.128],[127.091,106.220],[127.293,107.289],[127.496,109.456],[127.496,110.544],[127.293,112.711],[127.091,113.780],[126.490,115.872],[126.093,116.885],[125.634,117.872],[124.536,119.751],[123.214,121.479],[122.474,122.278],[120.854,123.730],[119.980,124.378],[118.118,125.505],[117.139,125.980],[115.100,126.742],[114.050,127.026],[111.906,127.396],[109.732,127.498],[107.563,127.329],[106.490,127.144],[105.431,126.892],[103.370,126.194],[102.376,125.750],[100.481,124.682],[99.586,124.061],[97.922,122.660],[97.158,121.884],[95.783,120.198],[95.176,119.294],[94.137,117.382],[93.344,115.356],[92.808,113.247],[92.640,112.172],[92.504,110.000],[92.538,108.912],[92.808,106.753],[93.344,104.644],[94.137,102.618],[94.627,101.646],[95.783,99.802],[97.158,98.116],[97.922,97.340],[99.586,95.939],[100.481,95.318],[102.376,94.250],[103.370,93.806],[105.431,93.108],[107.563,92.671],[108.645,92.553]]

M190 S70 ; set bed temperature and wait for it to be reached
M104 S240 ; set temperature
;TYPE:Custom
M117 ; clear display for KAMP meshing
START_PRINT BED_TEMP=70 EXTRUDER_TEMP=240
M109 S240 ; set temperature and wait for it to be reached
G21 ; set units to millimeters
G90 ; use absolute coordinates
M83 ; use relative distances for extrusion
; Filament gcode
M107
;LAYER_CHANGE
;Z:0.2
;HEIGHT:0.2
;BEFORE_LAYER_CHANGE
G92 E0
;0.2


G10 ; retract
G1 Z.2 F15000
;AFTER_LAYER_CHANGE
;0.2
G1 X95.936 Y95.412
G11 ; unretract
M204 S500
;TYPE:Skirt/Brim
;WIDTH:0.42
G1 F2400
G1 X97.031 Y94.43 E.04842
G1 X99.063 Y92.94 E.08296
G1 X101.076 Y91.806 E.07606
G1 X102.419 Y91.207 E.04841
G1 X104.607 Y90.465 E.07606
G1 X107.073 Y89.947 E.08296
G1 X108.535 Y89.787 E.04842
G1 X110.845 Y89.751 E.07606
G1 X112.311 Y89.865 E.04841
G1 X114.587 Y90.258 E.07604
G1 X116.007 Y90.643 E.04844
G1 X118.171 Y91.452 E.07606
G1 X119.494 Y92.093 E.0484
G1 X121.47 Y93.289 E.07604
G1 X122.652 Y94.164 E.04842
G1 X124.519 Y95.856 E.08295
G1 X126.035 Y97.6 E.07608
G1 X126.892 Y98.795 E.04841
G1 X128.057 Y100.79 E.07606
G1 X128.677 Y102.123 E.0484
G1 X129.453 Y104.299 E.07606
G1 X129.815 Y105.725 E.04844
G1 X130.173 Y108.007 E.07605
G1 X130.264 Y110.525 E.08295
G1 X130.173 Y111.993 E.04842
G1 X129.769 Y114.48 E.08295
G1 X129.131 Y116.701 E.07608
G1 X128.595 Y118.07 E.0484
G1 X127.556 Y120.133 E.07605
G1 X126.775 Y121.379 E.04841
G1 X125.371 Y123.214 E.07607
G1 X124.178 Y124.479 E.05725
G1 X122.487 Y125.966 E.07413
G1 X120.589 Y127.283 E.07606
G1 X119.308 Y128.005 E.04841
G1 X117.198 Y128.947 E.07607
G1 X115.806 Y129.419 E.04839
G1 X113.558 Y129.953 E.07607
G1 X112.102 Y130.158 E.04841
G1 X109.584 Y130.262 E.08297
G1 X107.281 Y130.083 E.07605
G1 X105.57 Y129.77 E.05726
G1 X103.403 Y129.161 E.07411
G1 X101.265 Y128.286 E.07605
G1 X99.962 Y127.604 E.04842
G1 X98.024 Y126.346 E.07607
G1 X96.87 Y125.435 E.0484
G1 X95.199 Y123.84 E.07605
G1 X94.234 Y122.73 E.04842
G1 X92.888 Y120.852 E.07607
G1 X92.146 Y119.583 E.0484
G1 X91.172 Y117.488 E.07606
G1 X90.678 Y116.103 E.04841
G1 X90.109 Y113.864 E.07606
G1 X89.882 Y112.411 E.04842
G1 X89.738 Y109.895 E.08297
G1 X89.882 Y107.589 E.07607
G1 X90.109 Y106.136 E.04842
G1 X90.678 Y103.897 E.07606
G1 X91.172 Y102.512 E.04841
G1 X92.246 Y100.233 E.08294
G1 X93.473 Y98.275 E.07607
G1 X94.367 Y97.108 E.0484
G1 X95.895 Y95.456 E.07408
EXCLUDE_OBJECT_START NAME=skiholderv2_bolt_extraclearance_stl
G10 ; retract
G1 X95.895 Y95.456 Z.6 F15000
G1 X99.329 Y98.814
G1 Z.2
G11 ; unretract
;TYPE:Perimeter
;WIDTH:0.419999
G1 F2400
G1 X100.045 Y98.172 E.03166
G1 X100.673 Y97.676 E.02635
G1 X101.593 Y97.025 E.0371
G1 X102.412 Y96.53 E.03151
G1 X103.264 Y96.084 E.03166
G1 X104.143 Y95.692 E.03169
G1 X105.043 Y95.355 E.03164
G1 X105.964 Y95.075 E.03169
G1 X106.899 Y94.852 E.03165
G1 X107.847 Y94.689 E.03167
G1 X108.803 Y94.584 E.03166
G1 X109.764 Y94.539 E.03167
G1 X110.564 Y94.552 E.02634
G1 X111.688 Y94.63 E.03709
G1 X112.637 Y94.763 E.03155
G1 X113.579 Y94.956 E.03166
G1 X114.507 Y95.208 E.03166
G1 X115.418 Y95.516 E.03166
G1 X116.308 Y95.881 E.03167
G1 X117.174 Y96.3 E.03167
G1 X118.012 Y96.772 E.03166
G1 X118.818 Y97.296 E.03165
G1 X119.591 Y97.868 E.03166
G1 X120.327 Y98.488 E.03168
G1 X121.023 Y99.152 E.03167
G1 X121.676 Y99.858 E.03166
G1 X122.284 Y100.603 E.03166
G1 X122.844 Y101.384 E.03164
G1 X123.355 Y102.199 E.03167
G1 X123.814 Y103.044 E.03166
G1 X124.22 Y103.916 E.03167
G1 X124.571 Y104.812 E.03168
G1 X124.865 Y105.728 E.03167
G1 X125.102 Y106.66 E.03166
G1 X125.25 Y107.447 E.02636
G1 X125.4 Y108.563 E.03707
G1 X125.459 Y109.967 E.04626
G1 X125.459 Y110.481 E.01692
G1 X125.4 Y111.441 E.03166
G1 X125.28 Y112.395 E.03166
G1 X125.102 Y113.34 E.03166
G1 X124.865 Y114.272 E.03166
G1 X124.571 Y115.188 E.03167
G1 X124.22 Y116.083 E.03165
G1 X123.814 Y116.956 E.0317
G1 X123.355 Y117.801 E.03166
G1 X122.844 Y118.616 E.03167
G1 X122.284 Y119.397 E.03164
G1 X121.676 Y120.142 E.03166
G1 X121.023 Y120.848 E.03166
G1 X120.327 Y121.512 E.03167
G1 X119.591 Y122.132 E.03168
G1 X118.818 Y122.704 E.03166
G1 X118.012 Y123.228 E.03165
G1 X117.174 Y123.7 E.03166
G1 X116.308 Y124.119 E.03167
G1 X115.418 Y124.484 E.03167
G1 X114.507 Y124.792 E.03166
G1 X113.579 Y125.044 E.03166
G1 X112.637 Y125.237 E.03166
G1 X111.684 Y125.371 E.03168
G1 X110.725 Y125.446 E.03167
G1 X109.764 Y125.461 E.03164
G1 X108.803 Y125.416 E.03167
G1 X107.847 Y125.311 E.03166
G1 X106.899 Y125.148 E.03167
G1 X105.964 Y124.925 E.03165
G1 X105.043 Y124.645 E.03169
G1 X104.143 Y124.308 E.03164
G1 X103.264 Y123.916 E.03169
G1 X102.412 Y123.47 E.03166
G1 X101.589 Y122.972 E.03167
G1 X100.799 Y122.424 E.03165
G1 X100.045 Y121.828 E.03164
G1 X99.329 Y121.186 E.03166
G1 X98.654 Y120.5 E.03168
G1 X98.129 Y119.896 E.02635
G1 X97.436 Y119.007 E.03711
G1 X96.903 Y118.212 E.03151
G1 X96.499 Y117.521 E.02635
G1 X95.983 Y116.519 E.0371
G1 X95.606 Y115.638 E.03155
G1 X95.284 Y114.732 E.03166
G1 X95.018 Y113.808 E.03166
G1 X94.81 Y112.869 E.03166
G1 X94.661 Y111.919 E.03166
G1 X94.572 Y110.961 E.03168
G1 X94.542 Y110 E.03165
G1 X94.572 Y109.039 E.03165
G1 X94.661 Y108.081 E.03168
G1 X94.81 Y107.131 E.03166
G1 X95.018 Y106.192 E.03166
G1 X95.284 Y105.268 E.03166
G1 X95.606 Y104.362 E.03166
G1 X95.985 Y103.477 E.0317
G1 X96.417 Y102.618 E.03165
G1 X96.903 Y101.788 E.03166
G1 X97.438 Y100.989 E.03166
G1 X98.023 Y100.226 E.03165
G1 X98.654 Y99.5 E.03167
G1 X99.286 Y98.857 E.02968
G1 X99.068 Y98.541 F15000
G1 F2400
G1 X99.802 Y97.884 E.03243
G1 X100.447 Y97.374 E.02707
G1 X101.386 Y96.71 E.03786
G1 X102.227 Y96.201 E.03236
G1 X103.1 Y95.744 E.03244
G1 X104 Y95.342 E.03245
G1 X104.922 Y94.997 E.03241
G1 X105.865 Y94.711 E.03244
G1 X106.823 Y94.483 E.03242
G1 X107.794 Y94.315 E.03244
G1 X108.774 Y94.208 E.03246
G1 X109.758 Y94.162 E.03243
G1 X110.58 Y94.175 E.02707
G1 X111.728 Y94.254 E.03788
G1 X112.701 Y94.391 E.03235
G1 X113.666 Y94.589 E.03243
G1 X114.617 Y94.847 E.03244
G1 X115.55 Y95.163 E.03243
G1 X116.462 Y95.536 E.03244
G1 X117.349 Y95.966 E.03245
G1 X118.207 Y96.449 E.03242
G1 X119.033 Y96.986 E.03244
G1 X119.825 Y97.572 E.03244
G1 X120.579 Y98.207 E.03245
G1 X121.291 Y98.887 E.03241
G1 X121.961 Y99.61 E.03245
G1 X122.583 Y100.374 E.03243
G1 X123.157 Y101.174 E.03242
G1 X123.681 Y102.009 E.03245
G1 X124.151 Y102.875 E.03244
G1 X124.567 Y103.768 E.03243
G1 X124.926 Y104.685 E.03242
G1 X125.227 Y105.623 E.03243
G1 X125.47 Y106.578 E.03244
G1 X125.623 Y107.387 E.02711
G1 X125.775 Y108.527 E.03786
G1 X125.836 Y109.967 E.04745
G1 X125.836 Y110.493 E.01732
G1 X125.775 Y111.476 E.03242
G1 X125.653 Y112.454 E.03245
G1 X125.47 Y113.422 E.03243
G1 X125.227 Y114.377 E.03244
G1 X124.926 Y115.315 E.03243
G1 X124.567 Y116.232 E.03242
G1 X124.151 Y117.125 E.03243
G1 X123.681 Y117.991 E.03244
G1 X123.157 Y118.826 E.03245
G1 X122.583 Y119.626 E.03242
G1 X121.961 Y120.39 E.03243
G1 X121.291 Y121.113 E.03245
G1 X120.579 Y121.793 E.03241
G1 X119.825 Y122.428 E.03245
G1 X119.033 Y123.014 E.03244
G1 X118.207 Y123.551 E.03244
G1 X117.349 Y124.034 E.03242
G1 X116.462 Y124.464 E.03245
G1 X115.55 Y124.837 E.03244
G1 X114.617 Y125.153 E.03243
G1 X113.666 Y125.411 E.03244
G1 X112.701 Y125.609 E.03243
G1 X111.725 Y125.746 E.03245
G1 X110.743 Y125.823 E.03243
G1 X109.758 Y125.838 E.03243
G1 X108.774 Y125.792 E.03243
G1 X107.794 Y125.685 E.03246
G1 X106.823 Y125.517 E.03244
G1 X105.865 Y125.289 E.03242
G1 X104.922 Y125.003 E.03244
G1 X104 Y124.658 E.03241
G1 X103.1 Y124.256 E.03245
G1 X102.227 Y123.799 E.03244
G1 X101.384 Y123.289 E.03244
G1 X100.575 Y122.727 E.03243
G1 X99.802 Y122.116 E.03244
G1 X99.068 Y121.459 E.03243
G1 X98.377 Y120.757 E.03243
G1 X97.837 Y120.136 E.02709
G1 X97.13 Y119.228 E.03789
G1 X96.583 Y118.412 E.03234
G1 X96.168 Y117.702 E.02707
G1 X95.642 Y116.679 E.03787
G1 X95.255 Y115.776 E.03234
G1 X94.924 Y114.848 E.03244
G1 X94.652 Y113.901 E.03244
G1 X94.439 Y112.939 E.03244
G1 X94.287 Y111.966 E.03242
G1 X94.195 Y110.985 E.03244
G1 X94.164 Y110 E.03244
G1 X94.195 Y109.015 E.03244
G1 X94.287 Y108.034 E.03244
G1 X94.439 Y107.061 E.03242
G1 X94.652 Y106.099 E.03244
G1 X94.924 Y105.152 E.03244
G1 X95.255 Y104.224 E.03244
G1 X95.643 Y103.318 E.03245
G1 X96.086 Y102.438 E.03244
G1 X96.583 Y101.588 E.03242
G1 X97.132 Y100.769 E.03246
G1 X97.731 Y99.987 E.03243
G1 X98.377 Y99.243 E.03244
G1 X99.026 Y98.584 E.03045
G1 X98.808 Y98.268 F15000
;TYPE:External perimeter
G1 F1920
G1 X99.559 Y97.595 E.0332
G1 X100.221 Y97.071 E.0278
M73 P0 R41
G1 X101.18 Y96.394 E.03865
G1 X102.042 Y95.872 E.03318
G1 X102.935 Y95.405 E.03318
G1 X103.857 Y94.993 E.03325
G1 X104.801 Y94.64 E.03318
G1 X105.766 Y94.346 E.03321
G1 X106.748 Y94.113 E.03323
G1 X107.742 Y93.941 E.03321
G1 X108.744 Y93.832 E.03318
G1 X109.752 Y93.785 E.03322
G1 X110.596 Y93.798 E.02779
G1 X111.767 Y93.879 E.03864
G1 X112.765 Y94.02 E.03318
G1 X113.753 Y94.222 E.0332
G1 X114.727 Y94.486 E.03322
G1 X115.682 Y94.809 E.03319
G1 X116.616 Y95.192 E.03323
G1 X117.524 Y95.631 E.0332
G1 X118.402 Y96.127 E.0332
G1 X119.249 Y96.676 E.03323
G1 X120.059 Y97.276 E.03319
G1 X120.831 Y97.926 E.03322
G1 X121.56 Y98.622 E.03318
G1 X122.245 Y99.363 E.03322
G1 X122.883 Y100.144 E.0332
G1 X123.471 Y100.964 E.03322
G1 X124.006 Y101.819 E.0332
G1 X124.488 Y102.705 E.03321
G1 X124.914 Y103.62 E.03323
G1 X125.281 Y104.559 E.03319
G1 X125.59 Y105.519 E.0332
G1 X125.838 Y106.497 E.03322
G1 X125.995 Y107.327 E.02781
G1 X126.151 Y108.49 E.03863
G1 X126.214 Y109.967 E.04867
G1 X126.214 Y110.504 E.01768
G1 X126.151 Y111.511 E.03322
G1 X126.026 Y112.512 E.03321
G1 X125.838 Y113.503 E.03321
G1 X125.59 Y114.481 E.03322
G1 X125.281 Y115.441 E.0332
G1 X124.914 Y116.38 E.03319
G1 X124.488 Y117.295 E.03323
G1 X124.006 Y118.181 E.03321
G1 X123.471 Y119.036 E.0332
G1 X122.883 Y119.856 E.03322
G1 X122.245 Y120.637 E.0332
G1 X121.56 Y121.378 E.03322
G1 X120.831 Y122.074 E.03318
G1 X120.059 Y122.724 E.03322
G1 X119.249 Y123.324 E.03319
G1 X118.402 Y123.873 E.03323
G1 X117.524 Y124.369 E.0332
G1 X116.616 Y124.808 E.0332
G1 X115.682 Y125.191 E.03323
G1 X114.727 Y125.514 E.03319
G1 X113.753 Y125.778 E.03322
G1 X112.765 Y125.98 E.0332
G1 X111.766 Y126.121 E.03322
G1 X110.761 Y126.199 E.03319
G1 X109.752 Y126.215 E.03322
G1 X108.744 Y126.168 E.03322
G1 X107.742 Y126.059 E.03318
G1 X106.748 Y125.887 E.03321
G1 X105.766 Y125.654 E.03323
G1 X104.801 Y125.36 E.03321
G1 X103.857 Y125.007 E.03318
G1 X102.935 Y124.595 E.03325
G1 X102.042 Y124.128 E.03318
G1 X101.179 Y123.605 E.03322
G1 X100.35 Y123.03 E.03321
G1 X99.559 Y122.405 E.03319
G1 X98.808 Y121.732 E.0332
G1 X98.1 Y121.013 E.03322
G1 X97.546 Y120.375 E.02782
G1 X96.825 Y119.45 E.03861
G1 X96.263 Y118.613 E.03319
G1 X95.837 Y117.884 E.0278
G1 X95.3 Y116.84 E.03865
G1 X94.904 Y115.914 E.03316
G1 X94.565 Y114.963 E.03324
G1 X94.287 Y113.994 E.03319
G1 X94.069 Y113.009 E.03321
G1 X93.912 Y112.013 E.0332
G1 X93.818 Y111.008 E.03323
G1 X93.787 Y110 E.0332
G1 X93.818 Y108.992 E.0332
G1 X93.912 Y107.987 E.03323
G1 X94.069 Y106.991 E.0332
G1 X94.287 Y106.006 E.03321
G1 X94.565 Y105.037 E.03319
G1 X94.904 Y104.086 E.03324
G1 X95.301 Y103.159 E.0332
G1 X95.754 Y102.258 E.0332
G1 X96.263 Y101.387 E.03321
G1 X96.825 Y100.55 E.03319
G1 X97.438 Y99.749 E.03321
G1 X98.1 Y98.987 E.03323
G1 X98.766 Y98.311 E.03124
G1 X99.061 Y98.042 F15000
G10 ; retract
G1 Z.6
G1 X122.322 Y100.863
G1 Z.2
G11 ; unretract
;TYPE:Solid infill
;WIDTH:0.42214
G1 F1920
G1 X120.784 Y99.325 E.07201
G1 X120.133 Y98.704 E.02979
G1 X119.411 Y98.096 E.03125
G1 X118.653 Y97.534 E.03124
G1 X118.095 Y97.172 E.02202
G1 X122.828 Y101.906 E.22164
G1 X123.104 Y102.346 E.0172
G1 X123.547 Y103.161 E.03071
G1 X116.854 Y96.468 E.31339
G1 X116.19 Y96.146 E.02443
G1 X115.861 Y96.011 E.01177
G1 X123.999 Y104.149 E.38105
G1 X124.332 Y105.018 E.03081
G1 X114.992 Y95.678 E.43733
G1 X114.203 Y95.426 E.02742
G1 X124.586 Y105.809 E.48616
G1 X124.769 Y106.528 E.02456
G1 X113.472 Y95.231 E.52896
G1 X112.797 Y95.092 E.02282
G1 X124.909 Y107.204 E.56712
G1 X125.01 Y107.842 E.02139
G1 X112.157 Y94.989 E.60182
G1 X111.543 Y94.91 E.0205
G1 X125.093 Y108.461 E.63448
G1 X125.139 Y109.043 E.01933
G1 X110.966 Y94.871 E.6636
G1 X110.399 Y94.84 E.0188
G1 X125.169 Y109.61 E.69158
G1 X125.169 Y110.146 E.01775
G1 X109.854 Y94.831 E.71709
G1 X109.337 Y94.85 E.01713
G1 X125.157 Y110.67 E.74074
G1 X125.125 Y111.175 E.01675
G1 X108.824 Y94.874 E.76326
G1 X108.341 Y94.927 E.01609
G1 X125.079 Y111.665 E.78372
G1 X125.019 Y112.141 E.01588
G1 X107.859 Y94.981 E.80348
G1 X107.402 Y95.06 E.01536
G1 X124.945 Y112.604 E.82144
G1 X124.86 Y113.055 E.01519
G1 X106.945 Y95.14 E.83883
G1 X106.512 Y95.243 E.01474
M73 P1 R41
G1 X124.763 Y113.494 E.85457
G1 X124.654 Y113.922 E.01462
G1 X106.079 Y95.346 E.86976
G1 X105.665 Y95.469 E.0143
G1 X124.538 Y114.341 E.88367
G1 X124.407 Y114.747 E.01412
G1 X105.254 Y95.594 E.8968
G1 X104.858 Y95.734 E.01391
G1 X124.274 Y115.15 E.90912
G1 X124.123 Y115.535 E.01369
G1 X104.468 Y95.88 E.92031
G1 X104.086 Y96.035 E.01365
G1 X123.972 Y115.921 E.93112
G1 X123.804 Y116.289 E.01339
G1 X103.715 Y96.2 E.94063
G1 X103.347 Y96.368 E.01339
G1 X123.634 Y116.655 E.9499
G1 X123.454 Y117.011 E.01321
G1 X102.995 Y96.552 E.95795
G1 X102.643 Y96.737 E.01317
G1 X123.265 Y117.359 E.96558
G1 X123.073 Y117.703 E.01304
G1 X102.304 Y96.934 E.97247
G1 X101.97 Y97.137 E.01294
G1 X122.867 Y118.033 E.97844
G1 X122.66 Y118.363 E.0129
G1 X101.643 Y97.346 E.98408
G1 X101.329 Y97.568 E.01273
G1 X122.441 Y118.68 E.98853
G1 X122.217 Y118.992 E.01272
G1 X101.014 Y97.79 E.99277
G1 X100.707 Y98.019 E.01268
G1 X121.988 Y119.3 E.99644
G1 X121.747 Y119.595 E.01261
G1 X100.407 Y98.255 E.9992
G1 X100.115 Y98.499 E.0126
G1 X121.506 Y119.891 E1.00161
G1 X121.252 Y120.173 E.01257
G1 X99.832 Y98.753 E1.00295
G1 X99.549 Y99.006 E.01257
G1 X120.994 Y120.451 E1.00412
G1 X120.732 Y120.725 E.01255
G1 X99.282 Y99.275 E1.00435
G1 X99.016 Y99.545 E.01255
G1 X120.457 Y120.987 E1.00396
G1 X120.183 Y121.249 E.01255
G1 X98.757 Y99.823 E1.00323
G1 X98.508 Y100.11 E.01258
G1 X119.895 Y121.497 E1.0014
G1 X119.604 Y121.742 E.01259
G1 X98.259 Y100.397 E.99944
G1 X98.025 Y100.7 E.01268
G1 X119.307 Y121.981 E.99646
G1 X118.999 Y122.21 E.01271
M73 P2 R41
G1 X97.793 Y101.004 E.99293
G1 X97.569 Y101.316 E.01272
G1 X118.691 Y122.438 E.989
G1 X118.367 Y122.651 E.01284
G1 X97.353 Y101.637 E.98394
