; generated by PrusaSlicer 2.7.1 on 2023-12-22 at 09:57:46 UTC
;FLAVOR:Marlin
;TIME:1872
;Filament used: 2.541390
;Layer height: 0.20
;MINX:0.000
;MINY:0.000
;MINZ:0.000
;MAXX:0.000
;MAXY:0.000
;MAXZ:0.000
;POSTPROCESSED
;Header generated for The Ender3v2 Professional Firmware
;https://github.com/mriscoc/Marlin_Ender3v2



;
;

;
;
; 

; external perimeters extrusion width = 0.42mm
; perimeters extrusion width = 0.44mm
; infill extrusion width = 0.44mm
; solid infill extrusion width = 0.44mm
; top infill extrusion width = 0.40mm
; first layer extrusion width = 0.42mm

M73 P0 R31

EXCLUDE_OBJECT_DEFINE NAME=skiholderv2_bolt_stl CENTER=110.002,110.000 POLYGON=[[110.769,92.517],[112.602,92.694],[113.810,92.919],[115.584,93.414],[117.296,94.093],[118.928,94.948],[119.962,95.611],[121.419,96.738],[122.750,98.011],[123.939,99.418],[124.974,100.942],[125.573,102.014],[126.326,103.695],[126.898,105.446],[127.283,107.247],[127.434,108.466],[127.499,110.307],[127.369,112.145],[127.048,113.958],[126.728,115.144],[126.095,116.874],[125.573,117.986],[124.647,119.578],[123.559,121.065],[122.321,122.429],[121.419,123.262],[119.962,124.389],[118.394,125.356],[116.734,126.153],[114.999,126.771],[113.208,127.204],[111.382,127.445],[109.541,127.494],[107.704,127.349],[106.493,127.145],[104.711,126.681],[102.986,126.033],[101.340,125.206],[99.790,124.212],[98.353,123.060],[97.465,122.210],[96.251,120.825],[95.190,119.320],[94.292,117.711],[93.568,116.017],[93.027,114.257],[92.770,113.056],[92.544,111.228],[92.512,109.386],[92.674,107.551],[93.027,105.743],[93.367,104.563],[94.031,102.845],[94.572,101.742],[95.526,100.166],[96.640,98.699],[97.901,97.357],[99.297,96.155],[100.295,95.439],[101.879,94.499],[103.553,93.731],[105.299,93.144],[107.097,92.743],[108.927,92.533]]

M190 S60 ; set bed temperature and wait for it to be reached
M104 S215 ; set temperature
;TYPE:Custom
M117 ;fix for KAMP meshing
START_PRINT BED_TEMP=60 EXTRUDER_TEMP=215
M109 S215 ; set temperature and wait for it to be reached
G21 ; set units to millimeters
G90 ; use absolute coordinates
M83 ; use relative distances for extrusion
; Filament gcode
M107
;LAYER_CHANGE
;Z:0.2
;HEIGHT:0.2
;BEFORE_LAYER_CHANGE
G92 E0
;0.2


G10 ; retract
G1 Z.2 F15000
;AFTER_LAYER_CHANGE
;0.2
G1 X95.676 Y95.127
G11 ; unretract
M204 S500
;TYPE:Skirt/Brim
;WIDTH:0.42
G1 F2400
G1 X97.319 Y93.704 E.06815
G1 X98.603 Y92.781 E.04958
G1 X100.359 Y91.74 E.06401
G1 X102.332 Y90.827 E.06816
G1 X103.997 Y90.244 E.05531
G1 X105.926 Y89.756 E.06239
G1 X108.077 Y89.44 E.06817
G1 X110.248 Y89.352 E.06813
G1 X112.287 Y89.477 E.06405
G1 X114.431 Y89.831 E.06813
G1 X116.526 Y90.408 E.06813
G1 X118.006 Y90.965 E.04958
G1 X119.847 Y91.849 E.06403
G1 X121.7 Y92.984 E.06813
G1 X123.424 Y94.308 E.06816
G1 X124.999 Y95.806 E.06815
G1 X126.041 Y96.995 E.04957
G1 X127.319 Y98.753 E.06815
G1 X128.346 Y100.518 E.06403
G1 X129.241 Y102.499 E.06816
G1 X129.809 Y104.17 E.05534
G1 X130.28 Y106.103 E.06238
G1 X130.566 Y108.125 E.06403
G1 X130.649 Y110.297 E.06815
G1 X130.503 Y112.465 E.06813
G1 X130.131 Y114.606 E.06814
G1 X129.535 Y116.697 E.06817
G1 X128.965 Y118.172 E.04958
G1 X128.066 Y120.005 E.06401
G1 X126.914 Y121.848 E.06815
G1 X125.575 Y123.56 E.06815
G1 X124.49 Y124.713 E.04964
G1 X122.865 Y126.153 E.06808
G1 X121.096 Y127.416 E.06815
G1 X119.322 Y128.427 E.06402
G1 X117.333 Y129.304 E.06816
G1 X115.264 Y129.968 E.06813
G1 X113.72 Y130.312 E.0496
G1 X111.696 Y130.58 E.06402
G1 X109.524 Y130.644 E.06813
G1 X107.763 Y130.526 E.05534
G1 X105.797 Y130.217 E.0624
G1 X103.821 Y129.703 E.06402
G1 X101.784 Y128.944 E.06816
G1 X100.359 Y128.26 E.04956
G1 X98.493 Y127.146 E.06814
G1 X96.856 Y125.925 E.06403
G1 X95.255 Y124.455 E.06815
G1 X94.192 Y123.285 E.04956
G1 X92.883 Y121.549 E.06817
G1 X91.826 Y119.802 E.06402
G1 X90.897 Y117.838 E.06812
G1 X90.353 Y116.353 E.04959
G1 X89.794 Y114.253 E.06814
G1 X89.459 Y112.105 E.06816
G1 X89.352 Y109.934 E.06815
G1 X89.459 Y107.895 E.06402
G1 X89.794 Y105.747 E.06816
G1 X90.179 Y104.214 E.04956
G1 X90.897 Y102.162 E.06816
G1 X91.826 Y100.198 E.06812
G1 X92.957 Y98.342 E.06815
G1 X94.192 Y96.715 E.06405
G1 X95.635 Y95.171 E.06626
G1 X95.91 Y95.428 F15000
G1 F2400
G1 X95.942 Y95.395 E.00144
G1 X97.555 Y93.998 E.06691
G1 X98.806 Y93.099 E.0483
G1 X100.54 Y92.071 E.0632
G1 X102.477 Y91.175 E.06692
G1 X104.105 Y90.606 E.05407
G1 X105.995 Y90.127 E.06113
G1 X108.106 Y89.816 E.0669
G1 X110.239 Y89.729 E.06693
G1 X112.25 Y89.852 E.06317
G1 X114.355 Y90.2 E.0669
G1 X116.412 Y90.768 E.06691
G1 X117.855 Y91.31 E.04833
G1 X119.672 Y92.183 E.06321
G1 X121.491 Y93.298 E.0669
G1 X123.183 Y94.598 E.0669
G1 X124.729 Y96.069 E.06691
G1 X125.745 Y97.228 E.04833
G1 X127 Y98.954 E.06691
G1 X128.013 Y100.696 E.06318
G1 X128.891 Y102.641 E.06691
G1 X129.447 Y104.274 E.05409
G1 X129.909 Y106.169 E.06116
G1 X130.191 Y108.164 E.06317
G1 X130.272 Y110.297 E.06693
G1 X130.128 Y112.426 E.06691
G1 X129.762 Y114.528 E.0669
G1 X129.177 Y116.58 E.0669
G1 X128.621 Y118.017 E.04831
G1 X127.733 Y119.827 E.06321
G1 X126.602 Y121.636 E.06689
G1 X125.287 Y123.317 E.06692
G1 X124.23 Y124.441 E.04838
G1 X122.635 Y125.855 E.06683
G1 X120.898 Y127.095 E.06692
G1 X119.147 Y128.093 E.06319
G1 X117.194 Y128.954 E.06692
G1 X115.162 Y129.605 E.0669
G1 X113.658 Y129.94 E.04831
G1 X111.66 Y130.205 E.06319
G1 X109.527 Y130.267 E.06691
G1 X107.806 Y130.152 E.05408
G1 X105.879 Y129.849 E.06116
G1 X103.929 Y129.342 E.06317
G1 X101.929 Y128.596 E.06693
G1 X100.54 Y127.929 E.04831
G1 X98.708 Y126.836 E.06689
G1 X97.092 Y125.631 E.0632
G1 X95.52 Y124.187 E.06693
G1 X94.484 Y123.046 E.04832
G1 X93.199 Y121.343 E.06689
G1 X92.156 Y119.619 E.06318
G1 X91.244 Y117.689 E.06693
G1 X90.539 Y115.675 E.0669
G1 X90.129 Y113.999 E.0541
G1 X89.835 Y112.072 E.06112
G1 X89.729 Y109.941 E.0669
G1 X89.835 Y107.928 E.0632
G1 X90.164 Y105.82 E.0669
G1 X90.593 Y104.149 E.05409
G1 X91.244 Y102.311 E.06114
G1 X92.1 Y100.486 E.0632
G1 X93.199 Y98.657 E.0669
G1 X94.484 Y96.954 E.06689
G1 X95.869 Y95.472 E.0636
EXCLUDE_OBJECT_START NAME=skiholderv2_bolt_stl
G10 ; retract
G1 X95.869 Y95.472 Z.6 F15000
G1 X98.923 Y99.198
G1 Z.2
G11 ; unretract
;TYPE:Perimeter
;WIDTH:0.419999
G1 F2400
G1 X99.303 Y98.821 E.01678
G1 X99.695 Y98.459 E.01673
G1 X100.544 Y97.754 E.0346
G1 X100.966 Y97.439 E.01651
G1 X101.876 Y96.832 E.0343
G1 X102.82 Y96.295 E.03405
G1 X103.807 Y95.821 E.03433
G1 X104.292 Y95.619 E.01647
G1 X105.331 Y95.248 E.03459
G1 X105.844 Y95.096 E.01678
G1 X106.361 Y94.961 E.01675
G1 X107.442 Y94.74 E.0346
G1 X107.962 Y94.662 E.01649
G1 X109.051 Y94.556 E.03431
G1 X110.155 Y94.528 E.03463
G1 X111.23 Y94.576 E.03374
G1 X111.763 Y94.627 E.01679
G1 X112.293 Y94.698 E.01677
G1 X113.371 Y94.899 E.03438
G1 X114.158 Y95.098 E.02545
G1 X114.935 Y95.335 E.02547
G1 X115.962 Y95.721 E.0344
G1 X116.444 Y95.932 E.0165
G1 X117.43 Y96.427 E.03459
G1 X117.894 Y96.691 E.01674
G1 X118.364 Y96.982 E.01733
G1 X119.256 Y97.6 E.03402
G1 X119.672 Y97.922 E.01649
G1 X120.502 Y98.636 E.03433
G1 X121.279 Y99.406 E.0343
G1 X121.644 Y99.809 E.01705
G1 X122.324 Y100.643 E.03374
G1 X122.96 Y101.546 E.03463
G1 X123.517 Y102.468 E.03377
G1 X123.766 Y102.932 E.01651
G1 X124.234 Y103.93 E.03456
G1 X124.432 Y104.418 E.01651
G1 X124.79 Y105.452 E.03431
G1 X125.075 Y106.508 E.03429
G1 X125.186 Y107.026 E.01661
G1 X125.32 Y107.835 E.02571
G1 X125.415 Y108.65 E.02573
G1 X125.453 Y109.177 E.01657
G1 X125.463 Y110.543 E.04283
G1 X125.357 Y111.905 E.04283
G1 X125.283 Y112.426 E.0165
G1 X125.071 Y113.508 E.03457
G1 X124.943 Y114.018 E.01649
G1 X124.622 Y115.065 E.03434
G1 X124.23 Y116.078 E.03406
G1 X123.766 Y117.068 E.03428
G1 X123.513 Y117.54 E.01679
G1 X123.245 Y118.002 E.01675
G1 X122.641 Y118.925 E.03459
G1 X122.319 Y119.363 E.01704
G1 X121.638 Y120.197 E.03376
G1 X120.892 Y120.991 E.03416
G1 X120.09 Y121.732 E.03424
G1 X119.679 Y122.073 E.01674
G1 X119.256 Y122.4 E.01676
G1 X118.356 Y123.023 E.03432
G1 X117.415 Y123.581 E.0343
G1 X116.949 Y123.826 E.01651
G1 X115.946 Y124.285 E.03458
G1 X115.45 Y124.482 E.01673
G1 X114.929 Y124.667 E.01733
G1 X113.889 Y124.977 E.03403
G1 X113.377 Y125.1 E.01651
G1 X112.301 Y125.301 E.03432
G1 X111.214 Y125.425 E.0343
G1 X110.689 Y125.458 E.01649
G1 X109.594 Y125.467 E.03433
G1 X108.493 Y125.399 E.03459
G1 X107.425 Y125.257 E.03378
G1 X106.899 Y125.159 E.01678
G1 X106.378 Y125.043 E.01674
G1 X105.315 Y124.746 E.03461
G1 X104.817 Y124.579 E.01647
G1 X103.799 Y124.175 E.03434
G1 X102.812 Y123.702 E.03432
G1 X102.343 Y123.445 E.01677
G1 X101.883 Y123.172 E.01677
G1 X100.966 Y122.561 E.03455
G1 X100.542 Y122.245 E.01658
G1 X99.908 Y121.724 E.02573
G1 X99.299 Y121.175 E.02571
G1 X98.923 Y120.802 E.01661
G1 X98.182 Y119.986 E.03456
G1 X97.844 Y119.571 E.01678
G1 X97.52 Y119.146 E.01676
G1 X96.901 Y118.233 E.03459
G1 X96.628 Y117.783 E.0165
G1 X96.108 Y116.811 E.03456
G1 X95.884 Y116.334 E.01652
G1 X95.472 Y115.32 E.03432
G1 X95.132 Y114.28 E.03431
G1 X94.993 Y113.764 E.01676
G1 X94.872 Y113.243 E.01677
G1 X94.679 Y112.157 E.03458
G1 X94.615 Y111.635 E.01649
G1 X94.538 Y110.543 E.03432
G1 X94.538 Y109.457 E.03405
G1 X94.615 Y108.365 E.03432
G1 X94.68 Y107.84 E.01659
G1 X94.818 Y107.032 E.0257
G1 X94.994 Y106.231 E.02571
G1 X95.132 Y105.72 E.0166
G1 X95.472 Y104.68 E.03431
G1 X95.881 Y103.674 E.03405
G1 X96.363 Y102.691 E.03433
G1 X96.62 Y102.232 E.01649
G1 X97.207 Y101.298 E.03459
G1 X97.51 Y100.868 E.01649
G1 X98.187 Y100.008 E.03432
G1 X98.883 Y99.242 E.03245
G1 X98.651 Y98.937 F15000
G1 F2400
G1 X99.042 Y98.549 E.01727
G1 X99.447 Y98.175 E.01728
G1 X100.311 Y97.457 E.03522
G1 X100.748 Y97.131 E.01709
G1 X101.678 Y96.511 E.03505
G1 X102.645 Y95.96 E.0349
G1 X103.653 Y95.477 E.03505
G1 X104.157 Y95.267 E.01712
G1 X105.214 Y94.89 E.03519
G1 X105.742 Y94.733 E.01727
G1 X106.276 Y94.594 E.0173
G1 X107.376 Y94.369 E.0352
G1 X107.916 Y94.288 E.01712
G1 X109.028 Y94.18 E.03503
G1 X110.158 Y94.151 E.03544
G1 X111.257 Y94.2 E.03449
G1 X111.806 Y94.253 E.01729
G1 X112.352 Y94.325 E.01727
G1 X113.452 Y94.53 E.03508
G1 X114.26 Y94.735 E.02614
G1 X115.056 Y94.977 E.02609
G1 X116.104 Y95.372 E.03512
G1 X116.604 Y95.59 E.0171
G1 X117.608 Y96.094 E.03522
G1 X118.086 Y96.367 E.01726
G1 X118.57 Y96.666 E.01784
G1 X119.479 Y97.295 E.03466
G1 X119.911 Y97.629 E.01712
G1 X120.758 Y98.359 E.03506
G1 X121.551 Y99.145 E.03501
G1 X121.93 Y99.563 E.01769
G1 X122.625 Y100.415 E.03447
G1 X123.276 Y101.34 E.03547
G1 X123.845 Y102.281 E.03448
G1 X124.103 Y102.762 E.01711
G1 X124.58 Y103.779 E.03522
G1 X124.785 Y104.285 E.01712
G1 X125.151 Y105.341 E.03504
G1 X125.442 Y106.42 E.03504
G1 X125.556 Y106.956 E.01718
G1 X125.693 Y107.782 E.02625
G1 X125.791 Y108.614 E.02627
G1 X125.829 Y109.161 E.01719
G1 X125.839 Y110.556 E.04374
G1 X125.731 Y111.948 E.04378
G1 X125.655 Y112.488 E.0171
G1 X125.44 Y113.59 E.0352
G1 X125.307 Y114.12 E.01713
G1 X124.978 Y115.188 E.03504
G1 X124.577 Y116.226 E.03489
G1 X124.103 Y117.238 E.03504
G1 X123.843 Y117.724 E.01728
G1 X123.566 Y118.2 E.01727
G1 X122.951 Y119.14 E.03522
G1 X122.618 Y119.594 E.01765
G1 X121.922 Y120.446 E.03449
G1 X121.158 Y121.259 E.03498
G1 X120.339 Y122.015 E.03495
G1 X119.915 Y122.367 E.01728
G1 X119.479 Y122.705 E.0173
G1 X118.56 Y123.341 E.03504
G1 X117.599 Y123.911 E.03503
G1 X117.115 Y124.164 E.01712
G1 X116.094 Y124.632 E.03522
G1 X115.582 Y124.835 E.01727
G1 X115.046 Y125.026 E.01784
G1 X113.987 Y125.341 E.03464
G1 X113.456 Y125.469 E.01713
G1 X112.357 Y125.674 E.03505
G1 X111.247 Y125.801 E.03503
G1 X110.702 Y125.835 E.01712
G1 X109.584 Y125.845 E.03506
G1 X108.456 Y125.774 E.03544
G1 X107.366 Y125.63 E.03447
G1 X106.824 Y125.529 E.01729
G1 X106.286 Y125.409 E.01728
G1 X105.204 Y125.107 E.03522
G1 X104.687 Y124.933 E.0171
G1 X103.648 Y124.521 E.03504
G1 X102.64 Y124.037 E.03506
G1 X102.157 Y123.773 E.01726
G1 X101.682 Y123.492 E.0173
G1 X100.748 Y122.869 E.0352
G1 X100.309 Y122.542 E.01716
G1 X99.662 Y122.01 E.02626
G1 X99.04 Y121.449 E.02626
G1 X98.651 Y121.063 E.01718
G1 X97.896 Y120.232 E.0352
G1 X97.547 Y119.805 E.01729
G1 X97.214 Y119.366 E.01728
G1 X96.583 Y118.437 E.03521
G1 X96.3 Y117.97 E.01712
G1 X95.771 Y116.98 E.03519
G1 X95.539 Y116.485 E.01714
G1 X95.118 Y115.45 E.03503
G1 X94.771 Y114.388 E.03503
G1 X94.627 Y113.856 E.01728
G1 X94.502 Y113.319 E.01729
G1 X94.306 Y112.213 E.03522
G1 X94.239 Y111.671 E.01712
G1 X94.161 Y110.556 E.03505
G1 X94.161 Y109.444 E.03487
G1 X94.239 Y108.329 E.03505
G1 X94.307 Y107.785 E.01719
G1 X94.448 Y106.959 E.02627
G1 X94.628 Y106.141 E.02626
G1 X94.771 Y105.612 E.01718
G1 X95.118 Y104.55 E.03503
G1 X95.537 Y103.519 E.03489
G1 X96.029 Y102.516 E.03503
G1 X96.295 Y102.039 E.01712
G1 X96.893 Y101.089 E.0352
G1 X97.208 Y100.643 E.01712
G1 X97.899 Y99.764 E.03506
G1 X98.61 Y98.981 E.03316
G1 X98.378 Y98.676 F15000
;TYPE:External perimeter
G1 F1920
G1 X98.781 Y98.276 E.0178
G1 X99.198 Y97.891 E.0178
G1 X100.077 Y97.161 E.03583
G1 X100.531 Y96.823 E.01775
G1 X101.48 Y96.19 E.03577
G1 X102.47 Y95.626 E.03572
G1 X103.498 Y95.133 E.03575
G1 X104.021 Y94.915 E.01777
G1 X105.097 Y94.531 E.03582
G1 X105.641 Y94.369 E.0178
G1 X106.191 Y94.226 E.01782
G1 X107.31 Y93.997 E.03581
G1 X107.87 Y93.913 E.01775
G1 X109.005 Y93.803 E.03575
G1 X110.162 Y93.774 E.03629
G1 X111.283 Y93.823 E.03518
G1 X111.849 Y93.878 E.01783
G1 X112.411 Y93.953 E.01778
G1 X113.533 Y94.162 E.03578
G1 X114.361 Y94.372 E.02678
G1 X115.178 Y94.62 E.02677
G1 X116.246 Y95.022 E.03578
M73 P0 R30
G1 X116.764 Y95.249 E.01773
G1 X117.786 Y95.762 E.03585
G1 X118.279 Y96.042 E.01778
G1 X118.777 Y96.351 E.01838
G1 X119.702 Y96.991 E.03527
G1 X120.149 Y97.337 E.01772
G1 X121.014 Y98.081 E.03577
G1 X121.824 Y98.885 E.03578
G1 X122.216 Y99.317 E.01829
G1 X122.926 Y100.187 E.03521
G1 X123.592 Y101.133 E.03627
G1 X124.173 Y102.094 E.03521
G1 X124.44 Y102.593 E.01774
G1 X124.925 Y103.628 E.03584
G1 X125.138 Y104.152 E.01774
G1 X125.512 Y105.23 E.03578
G1 X125.809 Y106.331 E.03575
G1 X125.927 Y106.885 E.01776
G1 X126.067 Y107.729 E.02682
G1 X126.166 Y108.579 E.02683
G1 X126.206 Y109.144 E.01776
G1 X126.216 Y110.569 E.04468
G1 X126.106 Y111.99 E.04469
G1 X126.027 Y112.551 E.01776
G1 X125.808 Y113.672 E.03581
G1 X125.67 Y114.221 E.01775
G1 X125.335 Y115.312 E.03578
G1 X124.924 Y116.374 E.0357
G1 X124.44 Y117.407 E.03577
G1 X124.172 Y117.907 E.01779
G1 X123.887 Y118.398 E.0178
G1 X123.261 Y119.354 E.03583
G1 X122.916 Y119.825 E.01831
G1 X122.206 Y120.695 E.03521
G1 X121.424 Y121.527 E.0358
G1 X120.587 Y122.299 E.0357
G1 X120.151 Y122.662 E.01779
G1 X119.702 Y123.009 E.01779
G1 X118.764 Y123.658 E.03576
G1 X117.782 Y124.24 E.03579
G1 X117.281 Y124.503 E.01774
G1 X116.243 Y124.979 E.0358
G1 X115.715 Y125.188 E.0178
G1 X115.163 Y125.384 E.01837
G1 X114.085 Y125.705 E.03527
G1 X113.535 Y125.838 E.01774
G1 X112.413 Y126.047 E.03578
G1 X111.28 Y126.177 E.03576
G1 X110.715 Y126.212 E.01775
G1 X109.574 Y126.222 E.03578
G1 X108.419 Y126.15 E.03628
G1 X107.306 Y126.002 E.0352
G1 X106.748 Y125.898 E.0178
G1 X106.194 Y125.775 E.01779
G1 X105.094 Y125.467 E.03582
G1 X104.557 Y125.287 E.01776
G1 X103.497 Y124.867 E.03575
G1 X102.468 Y124.373 E.03579
G1 X101.97 Y124.101 E.01779
G1 X101.482 Y123.811 E.0178
G1 X100.531 Y123.177 E.03584
G1 X100.077 Y122.839 E.01775
G1 X99.415 Y122.296 E.02685
G1 X98.78 Y121.723 E.02682
G1 X98.378 Y121.324 E.01776
G1 X97.61 Y120.478 E.03583
G1 X97.251 Y120.038 E.01781
G1 X96.908 Y119.586 E.01779
G1 X96.266 Y118.641 E.03582
G1 X95.973 Y118.156 E.01777
G1 X95.433 Y117.149 E.03583
G1 X95.193 Y116.637 E.01773
G1 X94.763 Y115.58 E.03578
G1 X94.409 Y114.495 E.03578
G1 X94.261 Y113.947 E.0178
G1 X94.133 Y113.394 E.0178
G1 X93.933 Y112.269 E.03583
G1 X93.864 Y111.707 E.01775
G1 X93.784 Y110.57 E.03574
G1 X93.784 Y109.43 E.03574
G1 X93.864 Y108.293 E.03574
G1 X93.933 Y107.73 E.01778
G1 X94.078 Y106.887 E.02682
G1 X94.262 Y106.052 E.02681
G1 X94.409 Y105.505 E.01776
G1 X94.763 Y104.42 E.03578
G1 X95.192 Y103.365 E.03571
G1 X95.695 Y102.341 E.03577
G1 X95.971 Y101.847 E.01774
G1 X96.579 Y100.88 E.03581
G1 X96.906 Y100.417 E.01777
G1 X97.611 Y99.521 E.03575
G1 X98.338 Y98.721 E.03389
G1 X98.62 Y98.437 F15000
G10 ; retract
G1 Z.6
